!!!!SEGMENT: pl-gd--ms-joh-406--004-001_mielczewski-marcin--missa-triumphalis-kyrie.krn
!!!cenid: 16xx:1755
!!!COM: Mielczewski, Marcin
!!!COM-rismID: pe30002204
!!!CDT: -1651
!!!CNT:
!!!OPR: Missa Triumphalis
!!!OTL: Kyrie
!!!OMV: 001
!!!PDT: 1689
!!!AGN:
!!!SMS-siglum: PL-GD
!!!SMS-shelfmark: Ms Joh.406
!!!SMS-shelfwork: 004-001 M
!!!SMS-variant:
!!!SMS-altvar:
!!!NIFC-rismSourceID: 305000447
!!!NIFC-rismChildID: 305000457
!!!NIFC-islandoraID: pl-gd:36565
!!!URL-pdf-islandora: https://repozytorium.nifc.pl/islandora/object/pl-gd:36565/datastream/PDF/view
!!!URL-scan: https://polish.musicsources.pl/pl/lokalizacje/galeria/rekopisy/5611 @EN{Scan on Polish Music Sources Website} @PL{Skany w portalu Dziedzictwo Muzyki Polskiej w otwartym dostępie}
!!!IIIF:
!!!ONB-nifc: UWAGA: części Mszy: 1. Kyrie, 2. Et in terra. Partie: tyt. - 214, Basso Continuo pro, Organo – 216-217, Soprano Chori 1 – 218-219, Alto Chori 1 – 219-220, Tenore Chori 1 – 220-221, Basso Chori 1 – 221-222, Soprano Chori 2 – 222-223, Alto Chori 2 – 223-224, Tenore Chori 2 – 224-225, Basso Chori 2 – 225-226, Violino 1 – 226-227, Violino 2 – 227-228, Trombone 1 – 228-229, Trombone 2 – 229-230, Trombone 3 – 230-231, Viola 1ma ad placitum – 231-232, Viola 2da ad placitum – 232-233, Cornettino 1mo ad placitum – 233-234, Cornettino 2do ad placitum – 234-235, Trombone grosso – 235-236, Bombardo grosso – 236-238, Violone grosso – 238-240, Organo - 240-241
!!!AIN: 2 alto 2 bass 2 cornt 2 organ 2 soprn 1 sxhB 2 tenor 1 troma 1 tromb 2 tromt 3 viola 2 violn
!!!key:
**kern	**fba	**dynam	**kern	**fba	**dynam	**kern	**dynam	**kern	**kern	**kern	**kern	**kern	**text	**dynam	**kern	**text	**dynam	**kern	**text	**dynam	**kern	**text	**dynam	**kern	**text	**dynam	**kern	**text	**dynam	**kern	**text	**dynam	**kern	**text	**dynam	**kern	**dynam	**kern	**dynam	**kern	**kern	**kern	**kern	**kern	**dynam
*part22	*part22	*part22	*part21	*part21	*part21	*part20	*part20	*part19	*part18	*part17	*part16	*part15	*part15	*part15	*part14	*part14	*part14	*part13	*part13	*part13	*part12	*part12	*part12	*part11	*part11	*part11	*part10	*part10	*part10	*part9	*part9	*part9	*part8	*part8	*part8	*part7	*part7	*part6	*part6	*part5	*part4	*part3	*part2	*part1	*part1
*staff22	*	*	*staff21	*	*	*staff20	*	*staff19	*staff18	*staff17	*staff16	*staff15	*staff15	*	*staff14	*staff14	*	*staff13	*staff13	*	*staff12	*staff12	*	*staff11	*staff11	*	*staff10	*staff10	*	*staff9	*staff9	*	*staff8	*staff8	*	*staff7	*	*staff6	*	*staff5	*staff4	*staff3	*staff2	*staff1	*
*I"Organo	*	*	*I"Baſso pro Organo.	*	*	*I"Violone grosſo.	*	*I"Viola 2da. ad placitum.	*I"Viola 1ma ad placitum	*I"Violino 2.	*I"Violino 1.	*I"Baſso Chori. 2.	*	*	*I"Tenore Chori 2	*	*	*I"Alto Chori 2.	*	*	*I"Soprano Chori 2.	*	*	*I"Baſso Chori 1.	*	*	*I"Tenore Chori 1	*	*	*I"Alto Chori 1	*	*	*I"Soprano Chori 1	*	*	*I"Trombone grosso	*	*I"Trombone 3.	*	*I"Trombone 2	*I"Trombone 1.	*I"Cornettino 2do. placitum.	*I"Cornettino 1mo. ad placitum	*I"Bombardo groſso.	*
*I'org	*	*	*	*	*	*I'vla basso	*	*I'vla II	*I'vla I	*I'vl II	*I'vl I	*I'Coro B II	*	*	*I'Coro T II	*	*	*I'Coro A II	*	*	*I'Coro S II 	*	*	*I'Coro B I	*	*	*I'Coro T II	*	*	*I'Coro A I	*	*	*I'Coro S I	*	*	*I'tr IV	*	*I'tr III	*	*I'tr II	*I'tr I	*I'cor II	*I'cor I	*I'bombardone	*
*ICklav	*	*	*ICklav	*	*	*ICstr	*	*ICstr	*ICstr	*ICstr	*ICstr	*ICvox	*	*	*ICvox	*	*	*ICvox	*	*	*ICvox	*	*	*ICvox	*	*	*ICvox	*	*	*ICvox	*	*	*ICvox	*	*	*ICbras	*	*ICbras	*	*ICbras	*ICbras	*ICbras	*ICbras	*ICbras	*
*Iorgan	*	*	*Iorgan	*	*	*Iviola	*	*Iviola	*Iviola	*Ivioln	*Ivioln	*Ibass	*	*	*Itenor	*	*	*Ialto	*	*	*Isoprn	*	*	*Ibass	*	*	*Itenor	*	*	*Ialto	*	*	*Isoprn	*	*	*Itromb	*	*Itromt	*	*Itromt	*Itroma	*Icornt	*Icornt	*IsxhB	*
*clefF4	*	*	*clefF4	*	*	*clefF4	*	*clefC4	*clefC3	*clefG2	*clefG2	*clefF4	*	*	*clefC4	*	*	*clefC3	*	*	*clefC1	*	*	*clefF4	*	*	*clefC4	*	*	*clefC3	*	*	*clefC1	*	*	*clefF4	*	*clefF3	*	*clefC4	*clefC3	*clefG2	*clefG2	*clefF4	*
*k[]	*	*	*k[]	*	*	*k[]	*	*k[]	*k[]	*k[]	*k[]	*k[]	*	*	*k[]	*	*	*k[]	*	*	*k[]	*	*	*k[]	*	*	*k[]	*	*	*k[]	*	*	*k[]	*	*	*k[]	*	*k[]	*	*k[]	*k[]	*k[]	*k[]	*k[]	*
*C:	*	*	*C:	*	*	*C:	*	*C:	*C:	*C:	*C:	*C:	*	*	*C:	*	*	*C:	*	*	*C:	*	*	*C:	*	*	*C:	*	*	*C:	*	*	*C:	*	*	*C:	*	*C:	*	*C:	*C:	*C:	*C:	*C:	*
*M4/4	*	*	*M4/4	*	*	*M4/4	*	*M4/4	*M4/4	*M4/4	*M4/4	*M4/4	*	*	*M4/4	*	*	*M4/4	*	*	*M4/4	*	*	*M4/4	*	*	*M4/4	*	*	*M4/4	*	*	*M4/4	*	*	*M4/4	*	*M4/4	*	*M4/4	*M4/4	*M4/4	*M4/4	*M4/4	*
*met(C)	*	*	*met(C)	*	*	*met(C|)	*	*met(C)	*met(C)	*met(C)	*met(C)	*met(C)	*	*	*met(C)	*	*	*met(C)	*	*	*met(C)	*	*	*met(C)	*	*	*met(C|)	*	*	*met(C)	*	*	*met(C)	*	*	*met(C)	*	*met(C)	*	*met(C)	*met(C)	*met(C|)	*met(C|)	*met(C|)	*
=1	=1	=1	=1	=1	=1	=1	=1	=1	=1	=1	=1	=1	=1	=1	=1	=1	=1	=1	=1	=1	=1	=1	=1	=1	=1	=1	=1	=1	=1	=1	=1	=1	=1	=1	=1	=1	=1	=1	=1	=1	=1	=1	=1	=1	=1
*	*	*	*	*	*	*	*	*	*	*2\right	*2\right	*	*	*	*	*	*	*2\right	*	*	*2\right	*	*	*	*	*	*2\right	*	*	*	*	*	*2\right	*	*	*	*	*	*	*	*2\right	*	*	*	*
!	!	!	!	!	!	!	!	!LO:TX:a:t=Tutti	!	!	!	!	!	!	!	!	!	!	!	!	!	!	!	!	!	!	!	!	!	!	!	!	!	!	!	!	!	!	!	!LO:TX:a:t=Tutti	!	!	!LO:TX:t=P:problem:all\middle	!	!
!LO:TX:b:t=Kyrie	!	!	!LO:TX:b:t=Tutti	!	!	!LO:TX:b:t=Kyrie.	!	!LO:TX:b:t=Kyrie	!LO:TX:b:t=Kyrie.	!LO:TX:b:t=Kÿrie.	!LO:TX:b:t=Kÿrie	!	!	!	!	!	!	!	!	!	!	!	!	!	!	!	!	!	!	!	!	!	!	!	!	!LO:TX:b:t=Kÿrie.	!	!LO:TX:b:t=Kÿrie.	!	!LO:TX:b:t=Kÿrie	!LO:TX:b:t=Kÿrie.	!LO:TX:b:t=Kyrie	!LO:TX:b:t=Kyrie.	!LO:TX:b:t=Kyrie.	!
!	!	!	!	!	!	!	!	!	!LO:TX:t=P:problem:2\middle or left	!LO:TX:t=P:problem:2\middle or right	!LO:TX:t=P:problem:2\middle or right	!	!	!	!	!	!	!LO:TX:t=P:problem:2\middle or right	!	!	!LO:TX:t=P:problem:2\middle or right	!	!	!	!	!	!LO:TX:t=P:problem:2\middle or middle	!	!	!	!	!	!LO:TX:t=P:problem:2\middle or right	!	!	!	!	!	!	!	!LO:TX:t=P:problem:2\middle or right	!	!	!	!
2.C/	.	.	2.C/	.	.	2.C/	.	2.G/	2.e\	2.ee\	2.gg\	2.C/	Kÿ-	.	2.G/	Kÿ-	.	2.e\	Kÿ-	.	2.cc\	Kÿ-	.	2.C/	Kÿ-	.	2.c\	Kÿ-	.	2.g\	Kÿ-	.	2.ee\	Kÿ-	.	2.C/	.	2.E/	.	2.G/	2.e\	2.ee\	2.gg\	2.C/	.
!	!	!	!LO:TX:b:t=Kÿrie.	!	!	!	!	!	!	!	!	!	!	!	!	!	!	!	!	!	!	!	!	!	!	!	!	!	!	!	!	!	!	!	!	!	!	!	!	!	!	!	!	!	!
4C/	.	.	4C/	.	.	4C/	.	4G/	4e\	4ee\	4gg\	4C/	-ri-	.	4G/	-ri-	.	4e\	-ri-	.	4cc\	-ri-	.	4C/	ri-	.	4c\	ri-	.	4g\	-ri-	.	4ee\	-ri-	.	4C/	.	4E/	.	4G/	4e\	4ee\	4gg\	4C/	.
=2	=2	=2	=2	=2	=2	=2	=2	=2	=2	=2	=2	=2	=2	=2	=2	=2	=2	=2	=2	=2	=2	=2	=2	=2	=2	=2	=2	=2	=2	=2	=2	=2	=2	=2	=2	=2	=2	=2	=2	=2	=2	=2	=2	=2	=2
1C	.	.	1C	.	.	1C	.	1G	1e	1ee	1gg	1C	-e.	.	1G	-e.	.	1e	-e,	.	1cc	-e	.	1C	-e	.	1c	-e,	.	1g	-e	.	1ee	-e	.	1C	.	1E	.	1G	1e	1ee	1gg	1C	.
=3	=3	=3	=3	=3	=3	=3	=3	=3	=3	=3	=3	=3	=3	=3	=3	=3	=3	=3	=3	=3	=3	=3	=3	=3	=3	=3	=3	=3	=3	=3	=3	=3	=3	=3	=3	=3	=3	=3	=3	=3	=3	=3	=3	=3	=3
*M3/1	*	*	*M3/1	*	*	*M3/1	*	*M3/1	*M3/1	*M3/1	*M3/1	*M3/1	*	*	*M3/1	*ij	*	*M3/1	*	*	*M3/1	*	*	*M3/1	*ij	*	*M3/1	*ij	*	*M3/1	*ij	*	*M3/1	*ij	*	*M3/1	*	*M3/1	*	*M3/1	*M3/1	*M3/1	*M3/1	*M3/1	*
!	!	!	!	!	!	!	!	!	!	!	!	!	!	!	!	!	!	!	!	!	!	!	!	!	!	!	!LO:TX:t=P:problem:inne metrum 3/2 - po zmianie metrum błąd VHV	!	!	!	!	!	!	!	!	!	!	!	!	!	!	!	!	!	!
1.C	.	.	1.C	.	.	1.C	.	1.G	1.c	1.ee	1.gg	1.C	Kÿ-	.	1.c	Kÿ-	.	1.g	Kÿ-	.	1.ee	Kÿ-	.	1.C	Kÿ-	.	1.G	Kÿ-	.	1.e	Kÿ-	.	1.cc	Kÿ-	.	1.C	.	1.E	.	1.G	1.c	1.dd	1.gg	1.C	.
*	*	*	*	*	*	*	*	*	*	*	*	*	*	*	*2\right	*	*	*	*	*	*	*	*	*	*	*	*	*	*	*	*	*	*	*	*	*	*	*	*	*	*	*	*	*	*
!	!	!	!	!	!	!	!	!	!	!	!	!	!	!	!LO:TX:t=P:problem:2\middle or right	!	!	!	!	!	!	!	!	!	!	!	!	!	!	!	!	!	!	!	!	!	!	!	!	!	!	!	!	!	!
2C/	.	.	2C/	.	.	2C/	.	2G/	2c/	2ee\	2gg\	2C/	-ri-	.	2c\	-ri-	.	2g\	-ri-	.	2ee\	-ri-	.	2C/	-ri-	.	2G/	-ri-	.	2e\	-ri-	.	2cc\	-ri-	.	2C/	.	2E/	.	2G/	2c/	2ee\	2gg\	2C/	.
1C	.	.	1C	.	.	1C	.	1G	1c	1ee	1gg	1C	-e	.	1c	-e	.	1g	-e	.	1ee	-e	.	1C	-e	.	1G	-e	.	1e	-e	.	1cc	-e	.	1C	.	1E	.	1G	1c	1ee	1gg	1C	.
=4	=4	=4	=4	=4	=4	=4	=4	=4	=4	=4	=4	=4	=4	=4	=4	=4	=4	=4	=4	=4	=4	=4	=4	=4	=4	=4	=4	=4	=4	=4	=4	=4	=4	=4	=4	=4	=4	=4	=4	=4	=4	=4	=4	=4	=4
*	*	*	*	*	*	*	*	*	*	*	*	*	*ij	*	*	*	*	*	*ij	*	*	*ij	*	*	*	*	*	*	*	*	*	*	*	*	*	*	*	*	*	*	*	*	*	*	*
1.C	.	.	1.C	.	.	1.C	.	1.G	1.c	1.ee	1.gg	1.C	Kÿ-	.	1.G	Kÿ-	.	1.e	Kÿ-	.	1.cc	Kÿ-	.	1.C	Kÿ-	.	1.c	Kÿ-	.	1.g	Kÿ-	.	1.ee	Kÿ-	.	1.C	.	1.E	.	1.G	1.c	1.ee	1.gg	1.C	.
2C/	.	.	2C/	.	.	2C/	.	2G/	2c/	2ee\	2gg\	2C/	-ri-	.	2G/	-ri-	.	2e\	-ri-	.	2cc\	-ri-	.	2C/	-ri-	.	2c\	-ri-	.	2g\	-ri-	.	2ee\	-ri-	.	2C/	.	2E/	.	2G/	2c/	2ee\	2gg\	2C/	.
1C	.	.	1C	.	.	1C	.	1G	1c	1ee	1gg	1C	-e	.	1G	-e	.	1e	-e	.	1cc	-e	.	1C	-e	.	1c	-e	.	1g	-e	.	1ee	-e	.	1C	.	1E	.	1G	1c	1ee	1gg	1C	.
*	*	*	*	*	*	*	*	*	*	*	*	*	*	*	*	*	*	*	*	*	*	*	*	*	*Xij	*	*	*Xij	*	*	*Xij	*	*	*Xij	*	*	*	*	*	*	*	*	*	*	*
=5	=5	=5	=5	=5	=5	=5	=5	=5	=5	=5	=5	=5	=5	=5	=5	=5	=5	=5	=5	=5	=5	=5	=5	=5	=5	=5	=5	=5	=5	=5	=5	=5	=5	=5	=5	=5	=5	=5	=5	=5	=5	=5	=5	=5	=5
*	*	*	*	*	*	*	*	*	*	*	*	*	*	*	*	*	*	*	*	*	*	*	*	*2\right	*	*	*	*	*	*	*	*	*	*	*	*	*	*	*	*	*	*	*	*	*
!	!	!	!	!	!	!	!	!	!	!	!	!	!	!	!	!	!	!	!	!	!	!	!	!LO:TX:t=P:problem:2\middle or right	!	!	!	!	!	!	!	!	!	!	!	!	!	!	!	!	!	!	!	!	!
1E	6	.	1E	6	.	1E	.	1%3r	1%3r	1%3r	1%3r	1%3r	.	.	1%3r	.	.	1%3r	.	.	1%3r	.	.	2E\	Kÿ-	.	2c\	Kÿ-	.	2g\	Kÿ-	.	2ee\	Kÿ-	.	1%3r	.	1%3r	.	1%3r	1%3r	1%3r	1%3r	1E	.
.	.	.	.	.	.	.	.	.	.	.	.	.	.	.	.	.	.	.	.	.	.	.	.	2E\	-ri-	.	2c\	-ri-	.	2g\	-ri-	.	2ee\	-ri-	.	.	.	.	.	.	.	.	.	.	.
1F	6	.	1F	6 5	.	1F	.	.	.	.	.	.	.	.	.	.	.	.	.	.	.	.	.	2F\	-e	.	2c\	-e	.	2a\	-e	.	2dd\	-e	.	.	.	.	.	.	.	.	.	1F	.
.	.	.	.	.	.	.	.	.	.	.	.	.	.	.	.	.	.	.	.	.	.	.	.	2F\	e-	.	2c\	e-	.	2a\	e-	.	2dd\	e-	.	.	.	.	.	.	.	.	.	.	.
1G	.	.	1G	.	.	1G	.	.	.	.	.	.	.	.	.	.	.	.	.	.	.	.	.	1G	-lei-	.	1B	-lei-	.	1g	-lei-	.	1dd	-lei-	.	.	.	.	.	.	.	.	.	1G	.
=6	=6	=6	=6	=6	=6	=6	=6	=6	=6	=6	=6	=6	=6	=6	=6	=6	=6	=6	=6	=6	=6	=6	=6	=6	=6	=6	=6	=6	=6	=6	=6	=6	=6	=6	=6	=6	=6	=6	=6	=6	=6	=6	=6	=6	=6
0C	.	.	0C	.	.	0C	.	1.G	1.e	1.ee	1.gg	1.C	Kÿ-	.	1.c	Kÿ-	.	1.g	Kÿ-	.	1.ee	Kÿ-	.	0C	ſon,	.	0c	ſon,	.	0g	ſon,	.	0.cc	ſon.	.	1.C	.	1.E	.	1.G	1.e	1.ee	1.gg	0C	.
.	.	.	.	.	.	.	.	2G/	2e\	2ee\	2gg\	2C/	-ri-	.	2c\	-ri-	.	2g\	-ri-	.	2ee\	-ri-	.	.	.	.	.	.	.	.	.	.	.	.	.	2C/	.	2E/	.	2G/	2e\	2ee\	2gg\	.	.
1C	.	.	1C	.	.	1C	.	1G	1e	1ee	1gg	1C	-e	.	1c	-e	.	1g	-e	.	1ee	-e	.	1r	.	.	1r	.	.	1r	.	.	.	.	.	1C	.	1E	.	1G	1e	1ee	1gg	1C	.
!	!	!	!	!	!	!	!	!	!	!	!	!	!	!	!	!	!	!	!	!	!	!	!	!LO:LB:g=original	!	!	!	!	!	!	!	!	!	!	!	!	!	!	!	!	!	!	!	!	!
=7	=7	=7	=7	=7	=7	=7	=7	=7	=7	=7	=7	=7	=7	=7	=7	=7	=7	=7	=7	=7	=7	=7	=7	=7	=7	=7	=7	=7	=7	=7	=7	=7	=7	=7	=7	=7	=7	=7	=7	=7	=7	=7	=7	=7	=7
0C	.	.	0C	.	.	0C	.	1.G	1.e	1.ee	1.gg	1.C	Kÿ-	.	1.G	Kÿ-	.	1.e	Kÿ-	.	1.ee	Kÿ-	.	1.C	Kÿ-	.	1.c	Kÿ-	.	1.g	Kÿ-	.	1.ee	Kÿ-	.	1.C	.	1.E	.	1.G	1.e	1.ee	1.gg	0C	.
.	.	.	.	.	.	.	.	2G/	2e\	2ee\	2gg\	2C/	-ri-	.	2G/	-ri-	.	2e\	-ri-	.	2cc\	-ri-	.	2C/	-ri-	.	2c\	-ri-	.	2g\	-ri-	.	2ee\	-ri-	.	2C/	.	2E/	.	2G/	2e\	2ee\	2gg\	.	.
1C	.	.	1C	.	.	1C	.	1G	1e	1ee	1gg	1C	-e	.	1G	-e	.	1e	-e	.	1cc	-e	.	1C	-e	.	1c	-e	.	1g	-e	.	1ee	-e	.	1C	.	1E	.	1G	1e	1ee	1gg	1C	.
*	*	*	*	*	*	*	*	*	*	*	*	*	*Xij	*	*	*Xij	*	*	*Xij	*	*	*Xij	*	*	*	*	*	*	*	*	*	*	*	*	*	*	*	*	*	*	*	*	*	*	*
=8	=8	=8	=8	=8	=8	=8	=8	=8	=8	=8	=8	=8	=8	=8	=8	=8	=8	=8	=8	=8	=8	=8	=8	=8	=8	=8	=8	=8	=8	=8	=8	=8	=8	=8	=8	=8	=8	=8	=8	=8	=8	=8	=8	=8	=8
1BB	6	.	1BB	6	.	1BB	.	1%3r	1%3r	1%3r	1%3r	2BB/	Kÿ-	.	2B\	Kÿ-	.	2g\	Kÿ-	.	2dd\	Kÿ-	.	1%3r	.	.	1%3r	.	.	1%3r	.	.	1%3r	.	.	1%3r	.	1%3r	.	1%3r	1%3r	1%3r	1%3r	1BB	.
.	.	.	.	.	.	.	.	.	.	.	.	2BB/	-ri-	.	2B\	-ri-	.	2g\	-ri-	.	2dd\	-ri-	.	.	.	.	.	.	.	.	.	.	.	.	.	.	.	.	.	.	.	.	.	.	.
1C	6	.	1C	6 5	.	1C	.	.	.	.	.	2C/	-e	.	2A/	-e	.	2g\	-e	.	2ee\	-e	.	.	.	.	.	.	.	.	.	.	.	.	.	.	.	.	.	.	.	.	.	1C	.
.	.	.	.	.	.	.	.	.	.	.	.	2C/	e-	.	2A/	e-	.	2g\	e-	.	2ee\	e-	.	.	.	.	.	.	.	.	.	.	.	.	.	.	.	.	.	.	.	.	.	.	.
1D	.	.	1D	#	.	1D	.	.	.	.	.	1D	-lei-	.	1A	-lei-	.	1f#X	-lei-	.	1dd	-lei-	.	.	.	.	.	.	.	.	.	.	.	.	.	.	.	.	.	.	.	.	.	1D	.
=9	=9	=9	=9	=9	=9	=9	=9	=9	=9	=9	=9	=9	=9	=9	=9	=9	=9	=9	=9	=9	=9	=9	=9	=9	=9	=9	=9	=9	=9	=9	=9	=9	=9	=9	=9	=9	=9	=9	=9	=9	=9	=9	=9	=9	=9
*	*	*	*	*	*	*	*	*	*	*	*	*	*	*	*	*	*	*	*	*	*	*	*	*	*ij	*	*	*ij	*	*	*ij	*	*	*ij	*	*	*	*	*	*	*	*	*	*	*
0GG	.	.	0GG	.	.	0GG	.	1.B	1.d	1.gg	1.bb	0GG	ſon.	.	0G	ſon,	.	0g	ſon,	.	0dd	ſon,	.	1.G	Kÿ-	.	1.B	Kÿ-	.	1.g	Kÿ-	.	1.dd	Kÿ-	.	1.GG	.	1.G	.	1.B	1.d	1.gg	1.bb	0GG	.
*	*	*	*	*	*	*	*	*	*	*	*	*	*	*	*	*	*	*	*	*	*	*	*	*	*	*	*	*	*	*	*	*	*	*	*	*	*	*	*	*2\right	*	*	*	*	*
!	!	!	!	!	!	!	!	!	!	!	!	!	!	!	!	!	!	!	!	!	!	!	!	!	!	!	!	!	!	!	!	!	!	!	!	!	!	!	!	!LO:TX:t=P:problem:2\middle or right	!	!	!	!	!
.	.	.	.	.	.	.	.	2B\	2d\	2gg\	2bb\	.	.	.	.	.	.	.	.	.	.	.	.	2G\	-ri-	.	2B\	-ri-	.	2g\	-ri-	.	2dd\	-ri-	.	2GG/	.	2G\	.	2B\	2d\	2gg\	2bb\	.	.
1GG	.	.	1GG	.	.	1GG	.	1B	1d	1gg	1bb	1r	.	.	1r	.	.	1r	.	.	1r	.	.	1G	-e	.	1B	-e	.	1g	-e	.	1dd	-e	.	1GG	.	1G	.	1B	1d	1gg	1bb	1GG	.
*	*	*	*	*	*	*custos:GG	*	*	*	*	*	*	*	*	*	*	*	*	*	*	*	*	*	*	*	*	*	*	*	*	*	*	*	*	*	*	*	*	*	*	*	*	*	*custos:GG	*
!	!	!	!	!	!	!LO:LB:g=original	!	!	!	!	!	!	!	!	!	!	!	!	!	!	!	!	!	!	!	!	!	!	!	!	!	!	!	!	!	!	!	!	!	!	!	!	!	!LO:LB:g=original	!
=10	=10	=10	=10	=10	=10	=10	=10	=10	=10	=10	=10	=10	=10	=10	=10	=10	=10	=10	=10	=10	=10	=10	=10	=10	=10	=10	=10	=10	=10	=10	=10	=10	=10	=10	=10	=10	=10	=10	=10	=10	=10	=10	=10	=10	=10
0GG	6	.	0GG	.	.	0GG	.	1.B	1.d	1.gg	1.bb	1.G	Kÿ-	.	1.B	Kÿ-	.	1.g	Kÿ-	.	1.dd	Kÿ-	.	1.G	Kÿ-	.	1.d	Kÿ-	.	1.g	Kÿ-	.	1.b	Kÿ-	.	1.GG	.	1.D	.	1.B	1.d	1.gg	1.bb	0GG	.
*	*	*	*	*	*	*	*	*	*	*	*	*2\right	*	*	*	*	*	*	*	*	*	*	*	*	*	*	*	*	*	*	*	*	*	*	*	*	*	*	*	*	*	*	*	*	*
!	!	!	!	!	!	!	!	!	!	!	!	!LO:TX:t=P:problem:2\middle or right	!	!	!	!	!	!	!	!	!	!	!	!	!	!	!	!	!	!	!	!	!	!	!	!	!	!	!	!	!	!	!	!	!
.	.	.	.	.	.	.	.	2B\	2d\	2gg\	2bb\	2G\	-ri-	.	2B\	-ri-	.	2g\	-ri-	.	2dd\	-ri-	.	2G\	-ri-	.	2d\	-ri-	.	2g\	-ri-	.	2b\	-ri-	.	2GG/	.	2D/	.	2B\	2d\	2gg\	2bb\	.	.
1GG	.	.	1GG	.	.	1GG	.	1B	1d	1gg	1bb	1G	-e	.	1B	-e	.	1g	-e	.	1dd	-e	.	1G	-e	.	1d	-e	.	1d	-e	.	1b	-e	.	1GG	.	1D	.	1B	1d	1gg	1bb	1GG	.
*	*	*	*	*	*	*	*	*	*	*	*	*	*	*	*	*	*	*	*	*	*	*	*	*	*Xij	*	*	*Xij	*	*	*Xij	*	*	*Xij	*	*	*	*	*	*	*	*	*custos:aa	*	*
!	!	!	!	!	!	!	!	!	!	!	!	!	!	!	!	!	!	!	!	!	!	!	!	!	!	!	!	!	!	!	!	!	!	!	!	!	!	!	!	!	!	!	!LO:LB:g=original	!	!
=11	=11	=11	=11	=11	=11	=11	=11	=11	=11	=11	=11	=11	=11	=11	=11	=11	=11	=11	=11	=11	=11	=11	=11	=11	=11	=11	=11	=11	=11	=11	=11	=11	=11	=11	=11	=11	=11	=11	=11	=11	=11	=11	=11	=11	=11
1FF	.	.	1FF	6	.	1FF	.	1%3r	1%3r	1%3r	1%3r	1%3r	.	.	1%3r	.	.	1%3r	.	.	1%3r	.	.	2F\	Kÿ-	.	2d\	Kÿ-	.	2f\	Kÿ-	.	2a\	Ki-	.	1%3r	.	1%3r	.	1%3r	1%3r	1%3r	1%3r	1FF	.
.	.	.	.	.	.	.	.	.	.	.	.	.	.	.	.	.	.	.	.	.	.	.	.	2F\	-ri-	.	2d\	-ri-	.	2f\	-ri-	.	2a\	-ri-	.	.	.	.	.	.	.	.	.	.	.
1GG	6	.	1GG	6 5	.	1GG	.	.	.	.	.	.	.	.	.	.	.	.	.	.	.	.	.	2G\	-e	.	2d\	-e	.	2e\	-e	.	2b-X\	-e	.	.	.	.	.	.	.	.	.	1GG	.
.	.	.	.	.	.	.	.	.	.	.	.	.	.	.	.	.	.	.	.	.	.	.	.	2G\	e-	.	2d\	e-	.	2e\	e-	.	2b-\	e-	.	.	.	.	.	.	.	.	.	.	.
1AA	6	.	1AA	#	.	1AA	.	.	.	.	.	.	.	.	.	.	.	.	.	.	.	.	.	1A	-lei-	.	1c#X	-lei-	.	1e	-lei-	.	1a	-lei-	.	.	.	.	.	.	.	.	.	1AA	.
=12	=12	=12	=12	=12	=12	=12	=12	=12	=12	=12	=12	=12	=12	=12	=12	=12	=12	=12	=12	=12	=12	=12	=12	=12	=12	=12	=12	=12	=12	=12	=12	=12	=12	=12	=12	=12	=12	=12	=12	=12	=12	=12	=12	=12	=12
*	*	*	*	*	*	*	*	*	*	*	*	*	*ij	*	*	*ij	*	*	*ij	*	*	*ij	*	*	*	*	*	*	*	*	*	*	*	*	*	*	*	*	*	*	*	*	*	*	*
0D	.	.	0D	-	.	0D	.	1.A	1.d	1.ff	1.aa	1.D	-Kÿ-	.	1.A	-Kÿ-	.	1.f	-Kÿ-	.	1.dd	-Kÿ-	.	0.D	-ſon	.	0d	-ſon	.	0d	-ſon,	.	0.a	ſon	.	1.D	.	1.F	.	1.A	1.d	1.ff	1.aa	0D	.
.	.	.	.	.	.	.	.	2A/	2d\	2ff\	2aa\	2D/	-ri-	.	2A/	-ri-	.	2f\	-ri-	.	2dd\	-ri-	.	.	.	.	.	.	.	.	.	.	.	.	.	2D/	.	2F/	.	2A/	2d\	2ff\	2aa\	.	.
1D	.	.	1D	.	.	1D	.	1A	1d	1ff	1aa	1D	-e	.	1A	-e	.	1f	-e	.	1dd	-e	.	.	.	.	1r	.	.	1r	.	.	.	.	.	1D	.	1F	.	1A	1d	1ff	1aa	1D	.
*	*	*	*	*	*	*	*	*	*	*	*	*	*	*	*	*	*	*	*	*	*	*	*	*	*	*	*	*	*	*	*	*	*custos:dd	*	*	*custos:D	*	*	*	*	*	*	*	*	*
!	!	!	!LO:LB:g=original	!	!	!	!	!	!	!	!	!	!	!	!	!	!	!	!	!	!LO:LB:g=original	!	!	!	!	!	!LO:LB:g=original	!	!	!	!	!	!LO:LB:g=original	!	!	!LO:LB:g=original	!	!	!	!LO:LB:g=original	!	!	!	!	!
=13	=13	=13	=13	=13	=13	=13	=13	=13	=13	=13	=13	=13	=13	=13	=13	=13	=13	=13	=13	=13	=13	=13	=13	=13	=13	=13	=13	=13	=13	=13	=13	=13	=13	=13	=13	=13	=13	=13	=13	=13	=13	=13	=13	=13	=13
0D	.	.	0D	-	.	0D	.	1.A	1.d	1.ff	1.aa	1.D	-Kÿ-	.	1.d	-Kÿ-	.	1.f	-Kÿ-	.	1.a	-Kÿ-	.	1.D	Kÿ-	.	1.A	Kÿ-	.	1.f	Kÿ-	.	1.dd	Kÿ-	.	1.D	.	1.F	.	1.A	1.d	1.ff	1.aa	0D	.
.	.	.	.	.	.	.	.	2A/	2d\	2ff\	2aa\	2D/	-ri-	.	2d\	-ri-	.	2f\	-ri-	.	2a\	-ri-	.	2D/	-ri-	.	2A/	-ri-	.	2f\	-ri-	.	2dd\	-ri-	.	2D/	.	2F/	.	2A/	2d\	2ff\	2aa\	.	.
1D	5	.	1D	.	.	1D	.	1A	1A	1ff	1aa	1D	-e	.	1A	-e	.	1f	-e	.	1a	-e	.	1D	-e,	.	1A	-e,	.	1f	-e	.	1dd	-e,	.	1D	.	1F	.	1A	1A	1ff	1aa	1D	.
*	*	*	*	*	*	*	*	*	*	*	*	*	*Xij	*	*	*Xij	*	*	*Xij	*	*	*Xij	*	*	*	*	*	*	*	*	*	*	*	*	*	*	*	*	*	*	*	*	*	*	*
!	!	!	!	!	!	!	!	!	!	!	!	!LO:LB:g=original	!	!	!LO:LB:g=original	!	!	!LO:LB:g=original	!	!	!	!	!	!	!	!	!	!	!	!LO:LB:g=original	!	!	!	!	!	!	!	!	!	!	!	!	!	!	!
=14	=14	=14	=14	=14	=14	=14	=14	=14	=14	=14	=14	=14	=14	=14	=14	=14	=14	=14	=14	=14	=14	=14	=14	=14	=14	=14	=14	=14	=14	=14	=14	=14	=14	=14	=14	=14	=14	=14	=14	=14	=14	=14	=14	=14	=14
!	!	!	!	!	!	!	!	!LO:TX:a:t=2	!LO:TX:a:t=2	!	!	!	!	!	!	!	!	!	!	!	!	!	!	!	!	!	!	!	!	!	!	!	!	!	!	!LO:TX:a:t=2	!	!LO:TX:a:t=2	!	!LO:TX:a:t=2	!LO:TX:a:t=2	!	!	!	!
!	!	!	!	!	!	!	!	!LO:N:vis=00	!LO:N:vis=00	!	!	!	!	!	!	!	!	!	!	!	!	!	!	!	!	!	!	!	!	!	!	!	!	!	!	!LO:N:vis=00	!	!LO:N:vis=00	!	!	!	!	!	!	!
1C	6	.	1C	6	.	1C	.	1%3r	1%3r	1%3r	1%3r	2C/	Kÿ-	.	2c\	Kÿ-	.	2e\	Kÿ-	.	2a\	Kÿ-	.	1%3r	.	.	1%3r	.	.	1%3r	.	.	1%3r	.	.	1%3r	.	1%3r	.	1%3r	1%3r	1%3r	1%3r	1C	.
.	.	.	.	.	.	.	.	.	.	.	.	2C/	-ri-	.	2c\	-ri-	.	2e\	-ri-	.	2a\	-ri-	.	.	.	.	.	.	.	.	.	.	.	.	.	.	.	.	.	.	.	.	.	.	.
1D	.	.	1D	6 5	.	1D	.	.	.	.	.	2D/	-e	.	2B\	-e	.	2f\	-e	.	2a\	-e	.	.	.	.	.	.	.	.	.	.	.	.	.	.	.	.	.	.	.	.	.	1D	.
.	.	.	.	.	.	.	.	.	.	.	.	2D/	e-	.	2B\	e-	.	2f\	e-	.	2a\	e-	.	.	.	.	.	.	.	.	.	.	.	.	.	.	.	.	.	.	.	.	.	.	.
1E	#	.	1E	#	.	1E	.	.	.	.	.	1E	-lei-	.	1B	-lei-	.	1e	-lei-	.	1g#X	-lei-	.	.	.	.	.	.	.	.	.	.	.	.	.	.	.	.	.	.	.	.	.	1E	.
*custos:AA	*	*	*	*	*	*	*	*	*	*	*	*	*	*	*	*	*	*	*	*	*	*	*	*	*	*	*	*	*	*	*	*	*	*	*	*	*	*	*	*	*	*	*	*	*
!LO:LB:g=original	!	!	!	!	!	!	!	!	!	!LO:LB:g=original	!LO:LB:g=original	!	!	!	!	!	!	!	!	!	!	!	!	!	!	!	!	!	!	!	!	!	!	!	!	!	!	!	!	!	!	!	!	!	!
=15	=15	=15	=15	=15	=15	=15	=15	=15	=15	=15	=15	=15	=15	=15	=15	=15	=15	=15	=15	=15	=15	=15	=15	=15	=15	=15	=15	=15	=15	=15	=15	=15	=15	=15	=15	=15	=15	=15	=15	=15	=15	=15	=15	=15	=15
1.AA	.	.	1.AA	.	.	1.AA	.	1%3ryy	1%3ryy	2cc\	2ee\	1AA	ſon	.	1A	ſon,	.	1e	ſon,	.	1a	ſon,	.	2A\	Kÿ-	.	2c\	Kÿ-	.	2e\	Kÿ-	.	2a\	Kÿ-	.	1%3ryy	.	1%3ryy	.	1%3r	1%3r	2cc\	2ee\	1.AA	.
.	.	.	.	.	.	.	.	.	.	2cc\	2ee\	.	.	.	.	.	.	.	.	.	.	.	.	2A\	-ri-	.	2c\	-ri-	.	2e\	-ri-	.	2a\	-ri-	.	.	.	.	.	.	.	2cc\	2ee\	.	.
.	.	.	.	.	.	.	.	.	.	2cc\	2ee\	1r	.	.	1r	.	.	1r	.	.	1r	.	.	2A\	-e	.	2c\	-e	.	2e\	-e	.	2a\	-e	.	.	.	.	.	.	.	2cc\	2ee\	.	.
2FF/	.	.	2FF/	.	.	2FF/	.	.	.	2a/	2aa\	.	.	.	.	.	.	.	.	.	.	.	.	2F\	e-	.	2c\	e-	.	2f\	e-	.	2a\	e-	.	.	.	.	.	.	.	2a/	2aa\	2FF/	.
1GG	.	.	1GG	.	.	1GG	.	.	.	1dd	1bb	1r	.	.	1r	.	.	1r	.	.	1r	.	.	1G	-lei-	.	1B	-lei-	.	1d	-lei-	.	1g	-lei-	.	.	.	.	.	.	.	1dd	1bb	1GG	.
*	*	*	*	*	*	*	*	*custos:c	*custos:e	*	*	*	*	*	*	*	*	*	*	*	*	*	*	*	*	*	*	*	*	*	*	*	*	*	*	*	*	*	*	*	*	*	*	*	*
!	!	!	!	!	!	!	!	!LO:LB:g=original	!LO:LB:g=original	!	!	!	!	!	!	!	!	!	!	!	!	!	!	!	!	!	!	!	!	!	!	!	!	!	!	!	!	!LO:LB:g=original	!	!	!	!	!	!	!
=16	=16	=16	=16	=16	=16	=16	=16	=16	=16	=16	=16	=16	=16	=16	=16	=16	=16	=16	=16	=16	=16	=16	=16	=16	=16	=16	=16	=16	=16	=16	=16	=16	=16	=16	=16	=16	=16	=16	=16	=16	=16	=16	=16	=16	=16
*	*	*	*	*	*	*	*	*	*	*	*	*	*ij	*	*	*ij	*	*	*Xij	*	*	*ij	*	*	*	*	*	*	*	*	*	*	*	*	*	*	*	*	*	*	*	*	*	*	*
1.C	.	.	1.C	.	.	1.C	.	2c\	2e\	1cc	1gg	2C/	Kÿ-	.	2c\	Kÿ-	.	2e\	Kÿ-	.	2g/	Kÿ-	.	1C	-ſon,	.	1c	-ſon,	.	1e	ſon,	.	1g	ſon.	.	2C/	.	2E/	.	2c\	2e\	1cc	1gg	1.C	.
.	.	.	.	.	.	.	.	2c\	2e\	.	.	2C/	-ri-	.	2c\	-ri-	.	2e\	-ri-	.	2g/	-ri-	.	.	.	.	.	.	.	.	.	.	.	.	.	2C/	.	2E/	.	2c\	2e\	.	.	.	.
.	.	.	.	.	.	.	.	2G/	2e\	1r	1r	2C/	-e	.	2G/	-e	.	2e\	-e	.	2g/	-e	.	1r	.	.	1r	.	.	1r	.	.	1r	.	.	2C/	.	2E/	.	2G/	2e\	1r	1r	.	.
2BB/	6	.	2BB/	6	.	2BB/	.	2B\	2d\	.	.	2BB/	e-	.	2G/	e-	.	2d\	e-	.	2g/	e-	.	.	.	.	.	.	.	.	.	.	.	.	.	2BB/	.	2G\	.	2B\	2d\	.	.	2BB/	.
!	!	!	!	!	!	!	!	!	!	!	!	!	!	!	!LO:TX:b:t=P:problem:# below	!	!	!	!	!	!	!	!	!	!	!	!	!	!	!	!	!	!	!	!	!	!	!	!	!	!	!	!	!	!
1D	.	.	1D	#	.	1D	.	1A	1d	1r	1r	1D	-lei-	.	1F#X	-lei-	.	1d	-lei-	.	1a	-lei-	.	1r	.	.	1r	.	.	1r	.	.	1r	.	.	1D	.	1D	.	1A	1d	1r	1r	1D	.
=17	=17	=17	=17	=17	=17	=17	=17	=17	=17	=17	=17	=17	=17	=17	=17	=17	=17	=17	=17	=17	=17	=17	=17	=17	=17	=17	=17	=17	=17	=17	=17	=17	=17	=17	=17	=17	=17	=17	=17	=17	=17	=17	=17	=17	=17
*	*	*	*	*	*	*	*	*	*	*	*	*	*	*	*	*	*	*	*	*	*	*	*	*	*ij	*	*	*ij	*	*	*ij	*	*	*ij	*	*	*	*	*	*	*	*	*	*	*
!LO:TX:a:t=P:problem:# above	!	!	!	!	!	!	!	!	!	!	!	!	!	!	!	!	!	!	!	!	!	!	!	!	!	!	!	!	!	!	!	!	!	!	!	!	!	!	!	!	!	!	!	!	!
1.GG#	6	.	1.GG	.	.	1.GG	.	1B	1d	2dd\	2bb\	1GG	ſon.	.	1G	ſon.	.	1d	ſon.	.	1b	ſon.	.	2G\	Kÿ-	.	2B\	Kÿ-	.	2g\	Kÿ-	.	2dd\	Kÿ-	.	1GG	.	1D	.	1B	1d	2dd\	2bb\	1.GG	.
.	.	.	.	.	.	.	.	.	.	2dd\	2bb\	.	.	.	.	.	.	.	.	.	.	.	.	2G\	-ri-	.	2B\	-ri-	.	2g\	-ri-	.	2dd\	-ri-	.	.	.	.	.	.	.	2dd\	2bb\	.	.
.	.	.	.	.	.	.	.	1r	1r	2dd\	2bb\	1r	.	.	1r	.	.	1r	.	.	1r	.	.	2G\	-e	.	2B\	-e	.	2g\	-e	.	2dd\	-e	.	1r	.	1r	.	1r	1r	2dd\	2bb\	.	.
!LO:TX:a:t=P:problem:# above	!	!	!	!	!LO:SIC:v:s=2F#/	!	!	!	!	!	!	!	!	!	!	!	!	!	!	!	!	!	!	!	!	!	!	!	!	!	!	!	!	!	!	!	!	!	!	!	!	!	!LO:SIC:v:s=2FF#	!	!
2FF#X/	6	.	2FF#X/	6	.	2FF/	.	.	.	2ff#X\	2aa\	.	.	.	.	.	.	.	.	.	.	.	.	2F#X\	e-	.	2d\	e-	.	2a\	e-	.	2dd\	e-	.	.	.	.	.	.	.	2ff#X\	2aa\	2FF/	.
1AA	5	.	1AA	#	.	1AA	.	1r	1r	1ee	1aa	1r	.	.	1r	.	.	1r	.	.	1r	.	.	1A	-lei-	.	1c#X	-lei-	.	1a	-lei-	.	1ee	-lei-	.	1r	.	1r	.	1r	1r	1ee	1aa	1AA	.
=18	=18	=18	=18	=18	=18	=18	=18	=18	=18	=18	=18	=18	=18	=18	=18	=18	=18	=18	=18	=18	=18	=18	=18	=18	=18	=18	=18	=18	=18	=18	=18	=18	=18	=18	=18	=18	=18	=18	=18	=18	=18	=18	=18	=18	=18
!	!	!	!	!	!	!	!	!	!	!LO:N:acc=-	!	!	!	!	!	!	!	!	!	!	!	!	!	!	!	!	!	!	!	!	!	!	!	!	!	!	!	!	!	!	!	!LO:N:acc=-	!	!	!
1.D	.	.	1.D	.	.	1.D	.	2d\	2f\	1ffn	1aa	2D/	Kÿ-	.	2d\	Kÿ-	.	2f\	Kÿ-	.	2a\	Kÿ-	.	1D	ſon,	.	1d	ſon,	.	1f	ſon,	.	1dd	ſon.	.	2D/	.	2F/	.	2d\	2f\	1ffn	1aa	1.D	.
*	*	*	*	*	*	*	*	*	*	*	*	*	*	*	*	*	*	*	*	*	*	*	*	*	*Xij	*	*	*Xij	*	*	*Xij	*	*	*Xij	*	*	*	*	*	*	*	*	*	*	*
.	.	.	.	.	.	.	.	2d\	2f\	.	.	2D/	-ri-	.	2d\	-ri-	.	2f\	-ri-	.	2a\	-ri-	.	.	.	.	.	.	.	.	.	.	.	.	.	2D/	.	2F/	.	2d\	2f\	.	.	.	.
.	.	.	.	.	.	.	.	2A/	2f\	1r	1r	2D/	-e	.	2A/	-e	.	2f\	-e	.	2a\	-e	.	1r	.	.	1r	.	.	1r	.	.	1r	.	.	2D/	.	2F/	.	2A/	2f\	1r	1r	.	.
!LO:TX:a:t=P:problem:# above	!	!	!	!	!LO:SIC:v:s=2C#	!	!	!	!	!	!	!	!	!	!	!	!	!	!	!	!	!	!	!	!	!	!	!	!	!	!	!	!	!	!	!	!	!	!	!	!	!	!LO:SIC:v:s=2C#	!	!
2C#X/	6	.	2C#X/	6	.	2C/	.	2c#X\	2e\	.	.	2BB#X/	e-	.	2A/	e-	.	2e\	e-	.	2a\	e-	.	.	.	.	.	.	.	.	.	.	.	.	.	2C#X/	.	2A\	.	2c#X\	2e\	.	.	2C/	.
!	!	!	!	!	!	!	!	!	!	!	!	!	!	!	!LO:TX:b:t=P:problem:# below	!	!	!	!	!	!	!	!	!	!	!	!	!	!	!	!	!	!	!	!	!	!	!	!	!	!	!	!	!	!
*	*	*	*	*	*	*custos:E	*	*custos:B	*	*	*	*	*	*	*	*	*	*	*	*	*	*	*	*	*	*	*	*	*	*	*	*	*	*	*	*	*	*	*	*	*	*	*	*	*
!	!	!	!	!	!	!LO:LB:g=original	!	!LO:LB:g=original	!	!	!	!	!	!	!	!	!	!	!	!	!	!	!	!	!	!	!	!	!	!	!	!	!	!	!	!	!	!	!	!	!	!	!	!	!
1E	.	.	1E	#	.	1E	.	1B	1e	1r	1r	1E	-lei-	.	1G#X	-lei-	.	1e	-lei-	.	1b	-lei-	.	1r	.	.	1r	.	.	1r	.	.	1r	.	.	1E	.	1E	.	1B	1e	1r	1r	1E	.
*	*	*	*	*	*	*	*	*	*	*	*	*	*	*	*	*	*	*	*	*	*	*	*	*	*	*	*	*	*	*	*	*	*	*	*	*	*	*	*	*	*	*	*	*custos:AA	*
!	!	!	!	!	!	!	!	!	!	!	!	!	!	!	!	!	!	!	!	!	!	!	!	!	!	!	!	!	!	!	!	!	!	!	!	!	!	!	!	!	!	!	!	!LO:LB:g=original	!
=19	=19	=19	=19	=19	=19	=19	=19	=19	=19	=19	=19	=19	=19	=19	=19	=19	=19	=19	=19	=19	=19	=19	=19	=19	=19	=19	=19	=19	=19	=19	=19	=19	=19	=19	=19	=19	=19	=19	=19	=19	=19	=19	=19	=19	=19
0.AA	#	.	[0AA	#	.	0.AA	.	0.A	0.e	1%3r	1%3r	0AA	ſon.	.	0A	ſon.	.	0e	ſon.	.	0cc#X	ſon.	.	1%3r	.	.	1%3r	.	.	1%3r	.	.	1%3r	.	.	0.AA	.	0.E	.	0.A	0.e	1%3r	1%3r	0.AA	.
*	*	*	*	*	*	*	*	*	*	*	*	*	*Xij	*	*	*Xij	*	*	*ij	*	*	*Xij	*	*	*	*	*	*	*	*	*	*	*	*	*	*	*	*	*	*	*	*	*	*	*
.	.	.	1AA]	.	.	.	.	.	.	.	.	1r	.	.	1r	.	.	1r	.	.	1r	.	.	.	.	.	.	.	.	.	.	.	.	.	.	.	.	.	.	.	.	.	.	.	.
=20	=20	=20	=20	=20	=20	=20	=20	=20	=20	=20	=20	=20	=20	=20	=20	=20	=20	=20	=20	=20	=20	=20	=20	=20	=20	=20	=20	=20	=20	=20	=20	=20	=20	=20	=20	=20	=20	=20	=20	=20	=20	=20	=20	=20	=20
0FF	.	.	0FF	.	.	0FF	.	1.A	1.f	1.ccc	1.aa	1.FF	Kÿ-	.	1.c	Kÿ-	.	1.f	Kÿ-	.	1.a	Kÿ-	.	1.F	Kÿ-	.	1.A	Kÿ-	.	1.f	Kÿ-	.	1.cc	Kÿ-	.	1.FF	.	1.F	.	1.A	1.f	1.ccc	1.aa	0FF	.
.	.	.	.	.	.	.	.	2A/	2f\	2ccc\	2aa\	2FF/	-ri-	.	2c\	-ri-	.	2f\	-ri-	.	2a\	-ri-	.	2F\	-ri-	.	2A/	-ri-	.	2f\	-ri-	.	2cc\	-ri-	.	2FF/	.	2F/	.	2A/	2f\	2ccc\	2aa\	.	.
!	!	!	!LO:TX:b:t=tutti	!	!	!	!	!	!	!	!	!	!	!	!	!	!	!	!	!	!	!	!	!	!	!	!	!	!	!	!	!	!	!	!	!	!	!	!	!	!	!	!	!	!
1FF	.	.	1FF	.	.	1FF	.	1A	1c	1aa	1ccc	1FF	-e	.	1c	-e	.	1f	-e	.	1a	-e	.	1F	-e	.	1A	-e	.	1f	-e	.	1cc	-e	.	1FF	.	1F	.	1A	1c	1aa	1ccc	1FF	.
=21	=21	=21	=21	=21	=21	=21	=21	=21	=21	=21	=21	=21	=21	=21	=21	=21	=21	=21	=21	=21	=21	=21	=21	=21	=21	=21	=21	=21	=21	=21	=21	=21	=21	=21	=21	=21	=21	=21	=21	=21	=21	=21	=21	=21	=21
*	*	*	*	*	*	*	*	*	*	*	*	*	*ij	*	*	*ij	*	*	*Xij	*	*	*ij	*	*	*ij	*	*	*ij	*	*	*ij	*	*	*ij	*	*	*	*	*	*	*	*	*	*	*
0C	.	.	0C	.	.	0C	.	1.G	1.e	1.ee	1.ccc	1.C	Kÿ-	.	1.c	Kÿ-	.	1.e	Kÿ-	.	1.cc	Kÿ-	.	1.C	Kÿ-	.	1.G	Kÿ-	.	1.g	Kÿ-	.	1.ee	Kÿ-	.	1.C	.	1.E	.	1.G	1.e	1.ee	1.ccc	0C	.
.	.	.	.	.	.	.	.	2G/	2e\	2ee\	2gg\	2C/	-ri-	.	2G/	-ri-	.	2e\	-ri-	.	2cc\	-ri-	.	2C/	-ri-	.	2G/	-ri-	.	2g\	-ri-	.	2ee\	-ri-	.	2C/	.	2E/	.	2G/	2e\	2ee\	2gg\	.	.
1C	.	.	1C	.	.	1C	.	1G	1e	1ee	1gg	1C	-e	.	1E	-e	.	1c	-e	.	1cc	-e	.	1C	-e	.	1G	-e	.	1g	-e	.	1ee	-e	.	1C	.	1E	.	1G	1e	1ee	1gg	1C	.
*	*	*	*	*	*	*	*	*	*	*	*	*	*	*	*	*	*	*	*	*	*	*	*	*	*	*	*	*	*	*	*	*	*	*	*	*	*	*	*	*	*	*custos:dd	*custos:gg	*	*
!	!	!	!	!	!	!	!	!	!	!	!	!	!	!	!	!	!	!	!	!	!	!	!	!	!	!	!	!	!	!	!	!	!	!	!	!	!	!	!	!	!	!LO:LB:g=original	!LO:LB:g=original	!	!
=22	=22	=22	=22	=22	=22	=22	=22	=22	=22	=22	=22	=22	=22	=22	=22	=22	=22	=22	=22	=22	=22	=22	=22	=22	=22	=22	=22	=22	=22	=22	=22	=22	=22	=22	=22	=22	=22	=22	=22	=22	=22	=22	=22	=22	=22
0GG	#	.	0GG	.	.	0GG	.	1.B	1.d	1.dd	1.gg	1.GG	Kÿ-	.	1.G	Kÿ-	.	1.d	Kÿ-	.	1.b	Kÿ-	.	1.G	Kÿ-	.	1.B	Kÿ-	.	1.g	Kÿ-	.	1.dd	Kÿ-	.	0GG	.	1.G	.	1.B	1.d	1.dd	1.gg	0GG	.
.	.	.	.	.	.	.	.	2B/	2d\	2dd\	2gg\	2GG/	-ri-	.	2G/	-ri-	.	2d\	-ri-	.	2b\	-ri-	.	2G\	-ri-	.	2B\	-ri-	.	2g\	-ri-	.	2dd\	-ri-	.	.	.	2G\	.	2B\	2d\	2dd\	2gg\	.	.
1GG	.	.	1GG	.	.	1GG	.	1B	1d	1dd	1bb	1GG	-e	.	1D	-e	.	1d	-e	.	1g	-e	.	1G	-e	.	1B	-e	.	1g	-e	.	1dd	-e	.	1GG	.	1D	.	1B	1d	1dd	1bb	1GG	.
*	*	*	*	*	*	*	*	*	*	*	*	*	*	*	*	*	*	*	*	*	*	*	*	*	*	*	*	*	*	*	*	*	*	*	*	*	*	*	*	*custos:A	*	*	*	*	*
!	!	!	!	!	!	!	!	!	!	!	!	!	!	!	!	!	!	!	!	!	!LO:LB:g=original	!	!	!	!	!	!	!	!	!	!	!	!	!	!	!	!	!	!	!LO:LB:g=original	!	!	!	!	!
=23	=23	=23	=23	=23	=23	=23	=23	=23	=23	=23	=23	=23	=23	=23	=23	=23	=23	=23	=23	=23	=23	=23	=23	=23	=23	=23	=23	=23	=23	=23	=23	=23	=23	=23	=23	=23	=23	=23	=23	=23	=23	=23	=23	=23	=23
0D	.	.	0D	-	.	0D	.	1.A	1.d	1.dd	1.aa	1.D	Kÿ-	.	1.F	Kÿ-	.	1.d	Kÿ-	.	1.a	Kÿ-	.	1.D	Kÿ-	.	1.A	Kÿ-	.	1.f	Kÿ-	.	1.dd	Kÿ-	.	0D	.	0F	.	1.A	1.d	1.dd	1.aa	0D	.
.	.	.	.	.	.	.	.	2A/	2d\	2ff\	2aa\	2D/	-ri-	.	2F/	-ri-	.	2d\	-ri-	.	2a\	-ri-	.	2D/	-ri-	.	2A/	-ri-	.	2f\	-ri-	.	2dd\	-ri-	.	.	.	.	.	2A/	2d\	2ff\	2aa\	.	.
1D	.	.	1D	.	.	1D	.	1A	1d	1ff	1aa	1D	-e	.	1F	-e	.	1d	-e	.	1a	-e	.	1D	-e	.	1A	-e	.	1f	-e	.	1dd	-e	.	1D	.	1F	.	1A	1d	1ff	1aa	1D	.
*	*	*	*	*	*	*	*	*	*	*	*	*	*Xij	*	*	*Xij	*	*	*	*	*	*Xij	*	*	*Xij	*	*	*Xij	*	*	*Xij	*	*	*Xij	*	*	*	*	*	*	*	*	*	*	*
!	!	!	!LO:LB:g=original	!	!	!	!	!	!	!	!	!LO:LB:g=original	!	!	!	!	!	!LO:LB:g=original	!	!	!	!	!	!	!	!	!	!	!	!	!	!	!	!	!	!LO:LB:g=original	!	!	!	!	!	!	!	!	!
=24	=24	=24	=24	=24	=24	=24	=24	=24	=24	=24	=24	=24	=24	=24	=24	=24	=24	=24	=24	=24	=24	=24	=24	=24	=24	=24	=24	=24	=24	=24	=24	=24	=24	=24	=24	=24	=24	=24	=24	=24	=24	=24	=24	=24	=24
0D	.	.	0D	6	.	0D	.	2A/	2d\	2ff\	2aa\	2D/	Kÿ-	.	2F/	Kÿ-	.	2d\	Kÿ-	.	2a\	Kÿ-	.	2D/	Ki-	.	2A/	Ki-	.	2f\	Kÿ-	.	2dd\	Kÿ-	.	2D/	.	1.F	.	2A/	2d\	2ff\	2aa\	0D	.
.	.	.	.	.	.	.	.	2A/	2d\	2ff\	2aa\	2D/	-ri-	.	2F/	-ri-	.	2d\	-ri-	.	2a\	-ri-	.	2D/	-ri-	.	2A/	-ri-	.	2f\	-ri-	.	2dd\	-ri-	.	2D/	.	.	.	2A/	2d\	2ff\	2aa\	.	.
.	.	.	.	.	.	.	.	2A/	2d\	2ff\	2aa\	2D/	-e	.	2F/	-e	.	2d\	-e	.	2a\	-e	.	2D/	-e	.	2A/	-e	.	2f\	-e	.	2dd\	-e	.	2D/	.	.	.	2A/	2d\	2ff\	2aa\	.	.
!	!	!	!	!	!	!	!	!	!	!	!	!	!	!	!LO:LB:g=original	!	!	!	!	!	!	!	!	!	!	!	!	!	!	!	!	!	!	!	!	!	!	!	!	!	!	!	!	!	!
.	.	.	.	.	.	.	.	2A/	2d\	2dd\	2aa\	2D/	e-	.	2F/	e-	.	2d\	e-	.	2a\	e-	.	2D/	e-	.	2A/	e-	.	2f\	e-	.	2dd\	e-	.	2D/	.	2F/	.	2A/	2d\	2dd\	2aa\	.	.
!	!	!	!	!	!	!	!	!	!	!	!	!	!	!	!	!	!	!	!	!	!	!	!	!	!	!	!	!	!	!	!	!	!LO:TX:a:t=P:problem:# above	!	!	!	!	!	!	!	!	!	!	!	!
1AA	.	.	1AA	#	.	1AA	.	1A	1e	1ee	1aa	1AA	-lei-	.	1A	-lei-	.	1e	-lei-	.	1a	-lei-	.	1A	-lei-	.	1A	-lei-	.	1e	-lei-	.	1cc#X	-lei-	.	1AA	.	1A	.	1A	1e	1ee	1aa	1AA	.
!	!	!	!	!	!	!	!	!	!	!	!	!	!	!	!	!	!	!	!	!	!	!	!	!LO:LB:g=original	!	!	!LO:LB:g=original	!	!	!	!	!	!	!	!	!	!	!	!	!	!	!	!	!	!
=25	=25	=25	=25	=25	=25	=25	=25	=25	=25	=25	=25	=25	=25	=25	=25	=25	=25	=25	=25	=25	=25	=25	=25	=25	=25	=25	=25	=25	=25	=25	=25	=25	=25	=25	=25	=25	=25	=25	=25	=25	=25	=25	=25	=25	=25
!	!	!	!	!	!	!	!	!	!	!	!	!	!	!	!	!	!	!	!	!	!	!	!	!	!	!	!	!	!	!LO:TX:a:t=P:problem:# above	!	!	!	!	!	!	!	!	!	!	!	!	!	!	!
0D	.	.	0D	#	.	0D	.	0A	0d	0dd	1.aa	0D	-ſon.	.	0F#X	-ſon	.	0d	-ſon	.	0a	-ſon	.	1D	ſon,	.	1A	ſon,	.	1f#X	ſon.	.	1dd	-ſon.	.	0D	.	0F#X	.	0A	0d	0dd	1.aa	0D	.
!	!	!	!	!	!	!	!	!	!	!	!	!	!	!	!	!	!	!	!	!	!	!	!	!	!	!	!	!	!	!LO:TX:a:t=P:problem:# above	!	!	!	!	!	!	!	!	!	!	!	!	!	!	!
*	*	*	*	*	*	*	*	*	*	*	*	*	*	*	*	*	*	*	*Xij	*	*	*	*	*	*	*	*	*	*	*	*	*	*	*	*	*	*	*	*	*	*	*	*	*	*
.	.	.	.	.	.	.	.	.	.	.	.	.	.	.	.	.	.	.	.	.	.	.	.	1.D	Kÿ-	.	1.d	Kÿ-	.	1.f#X	Kÿ-	.	1.a	Kÿ-	.	.	.	.	.	.	.	.	.	.	.
.	.	.	.	.	.	.	.	.	.	.	2aa\	.	.	.	.	.	.	.	.	.	.	.	.	.	.	.	.	.	.	.	.	.	.	.	.	.	.	.	.	.	.	.	2aa\	.	.
1D	.	.	1D	.	.	1D	.	1r	1r	1dd	1aa	1r	.	.	1r	.	.	1r	.	.	1r	.	.	.	.	.	.	.	.	.	.	.	.	.	.	1r	.	1r	.	1r	1r	1dd	1aa	1D	.
.	.	.	.	.	.	.	.	.	.	.	.	.	.	.	.	.	.	.	.	.	.	.	.	2F#X\	-ri-	.	2d\	-ri-	.	2a\	-ri-	.	2a\	-ri-	.	.	.	.	.	.	.	.	.	.	.
!	!	!	!	!	!	!	!	!LO:LB:g=original	!LO:LB:g=original	!LO:LB:g=original	!LO:LB:g=original	!	!	!	!	!	!	!	!	!	!	!	!	!	!	!	!	!	!	!	!	!	!LO:LB:g=original	!	!	!	!	!LO:LB:g=original	!	!	!	!	!	!	!
=26	=26	=26	=26	=26	=26	=26	=26	=26	=26	=26	=26	=26	=26	=26	=26	=26	=26	=26	=26	=26	=26	=26	=26	=26	=26	=26	=26	=26	=26	=26	=26	=26	=26	=26	=26	=26	=26	=26	=26	=26	=26	=26	=26	=26	=26
0GG	.	.	0GG	.	.	0GG	.	1r	1r	0.dd	0.gg	1r	.	.	1r	.	.	1r	.	.	1r	.	.	0G	-e	.	0d	-e,	.	0g	-e	.	0b	-e	.	1r	.	1r	.	1r	1r	0dd	0.gg	0GG	.
.	.	.	.	.	.	.	.	1.G	1.d	.	.	1.GG	Kÿ-	.	1.G	Kÿ-	.	1.d	Kÿ-	.	1.b	Kÿ-	.	.	.	.	.	.	.	.	.	.	.	.	.	1.GG	.	1.D	.	1.G	1.d	.	.	.	.
1GG	.	.	1GG	.	.	1GG	.	.	.	.	.	.	.	.	.	.	.	.	.	.	.	.	.	1r	.	.	1r	.	.	1r	.	.	1r	.	.	.	.	.	.	.	.	1r	.	1GG	.
.	.	.	.	.	.	.	.	2G/	2d\	.	.	2BB/	-ri-	.	2G/	-ri-	.	2f\	-ri-	.	2dd\	-ri-	.	.	.	.	.	.	.	.	.	.	.	.	.	2BB/	.	2D/	.	2G/	2d\	.	.	.	.
!	!	!	!	!	!	!	!	!	!	!	!	!	!	!	!	!	!	!	!	!	!	!	!	!	!	!	!	!	!	!LO:LB:g=original	!	!	!	!	!	!	!	!	!	!	!	!	!	!	!
=27	=27	=27	=27	=27	=27	=27	=27	=27	=27	=27	=27	=27	=27	=27	=27	=27	=27	=27	=27	=27	=27	=27	=27	=27	=27	=27	=27	=27	=27	=27	=27	=27	=27	=27	=27	=27	=27	=27	=27	=27	=27	=27	=27	=27	=27
0C	.	.	0C	.	.	0C	.	0.G	0.e	0ee	1.gg	0C	-e	.	0G	-e	.	0e	-e	.	0cc	-e	.	1r	.	.	1r	.	.	2r	.	.	1r	.	.	0.C	.	0.C	.	0.G	0.e	0ee	1.gg	0C	.
.	.	.	.	.	.	.	.	.	.	.	.	.	.	.	.	.	.	.	.	.	.	.	.	.	.	.	.	.	.	1.e	Kÿ-	.	.	.	.	.	.	.	.	.	.	.	.	.	.
.	.	.	.	.	.	.	.	.	.	.	.	.	.	.	.	.	.	.	.	.	.	.	.	1.C	Kÿ-	.	1.c	Ki-	.	.	.	.	1g	Kÿ-	.	.	.	.	.	.	.	.	.	.	.
.	.	.	.	.	.	.	.	.	.	.	2gg\	.	.	.	.	.	.	.	.	.	.	.	.	.	.	.	.	.	.	.	.	.	.	.	.	.	.	.	.	.	.	.	2gg\	.	.
1C	.	.	1C	.	.	1C	.	.	.	1cc	1gg	1r	.	.	1r	.	.	1r	.	.	1r	.	.	.	.	.	.	.	.	2g\	-ri-	.	2r	.	.	.	.	.	.	.	.	1cc	1gg	1C	.
.	.	.	.	.	.	.	.	.	.	.	.	.	.	.	.	.	.	.	.	.	.	.	.	2E\	-ri-	.	2c\	-ri-	.	2r	.	.	2g/	-ri-	.	.	.	.	.	.	.	.	.	.	.
=28	=28	=28	=28	=28	=28	=28	=28	=28	=28	=28	=28	=28	=28	=28	=28	=28	=28	=28	=28	=28	=28	=28	=28	=28	=28	=28	=28	=28	=28	=28	=28	=28	=28	=28	=28	=28	=28	=28	=28	=28	=28	=28	=28	=28	=28
0FF	.	.	0FF	.	.	0FF	.	1r	1r	0cc	0.ff	1r	.	.	1r	.	.	1r	.	.	1r	.	.	0F	-e,	.	0c	-e,	.	0f	-e,	.	0.a	-e	.	1r	.	1r	.	1r	1r	0cc	0ff	0FF	.
*	*	*	*	*	*	*	*	*	*	*	*	*	*ij	*	*	*ij	*	*	*ij	*	*	*ij	*	*	*	*	*	*	*	*	*	*	*	*	*	*	*	*	*	*	*	*	*	*	*
.	.	.	.	.	.	.	.	1.F	1.c	.	.	1.FF	Kÿ-	.	1.F	Kÿ-	.	1.c	Kÿ-	.	1.a	Kÿ-	.	.	.	.	.	.	.	.	.	.	.	.	.	1.FF	.	1.F	.	(>1.F	1.c	.	.	.	.
1FF	.	.	1FF	.	.	1FF	.	.	.	1r	.	.	.	.	.	.	.	.	.	.	.	.	.	1r	.	.	1r	.	.	1r	.	.	.	.	.	.	.	.	.	.	.	1r	1r	1FF	.
.	.	.	.	.	.	.	.	2F/	2c/	.	.	2AA/	-ri-	.	2F/	-ri-	.	2c/	-ri-	.	2cc\	-ri-	.	.	.	.	.	.	.	.	.	.	.	.	.	2AA/	.	2F/	.	2F/)	2c/	.	.	.	.
!	!	!	!	!	!	!LO:TX:t=P:problem: custos z bemolem	!	!	!	!	!	!	!	!	!	!	!	!	!	!	!	!	!	!	!	!	!	!	!	!	!	!	!	!	!	!	!	!	!	!	!	!	!	!	!
*	*	*	*	*	*	*custos:BB-	*	*	*	*	*	*	*	*	*	*	*	*	*	*	*	*	*	*	*	*	*	*	*	*	*	*	*	*	*	*	*	*	*	*	*	*	*	*	*
!	!	!	!	!	!	!LO:LB:g=original	!	!	!	!	!	!	!	!	!	!	!	!	!	!	!	!	!	!	!	!	!	!	!	!	!	!	!	!	!	!	!	!	!	!	!	!	!	!	!
=29	=29	=29	=29	=29	=29	=29	=29	=29	=29	=29	=29	=29	=29	=29	=29	=29	=29	=29	=29	=29	=29	=29	=29	=29	=29	=29	=29	=29	=29	=29	=29	=29	=29	=29	=29	=29	=29	=29	=29	=29	=29	=29	=29	=29	=29
*	*	*	*	*	*	*	*	*	*	*	*	*	*	*	*	*	*	*	*	*	*	*	*	*	*ij	*	*	*	*	*	*	*	*	*	*	*	*	*	*	*	*	*	*	*	*
1.BB-X	.	.	1.BB-X	.	.	1.BB-X	.	1F	1d	2dd\	2ff\	1BB-X	-e	.	1F	-e	.	1d	-e	.	1b-X	-e	.	2BB-X/	Kÿ-	.	2B-X\	Kÿ-	.	2f\	Kÿ-	.	2dd\	Kÿ-	.	1BB-X	.	1F	.	1F	1d	2dd\	2ff\	1.BB-X	.
.	.	.	.	.	.	.	.	.	.	2dd\	2ff\	.	.	.	.	.	.	.	.	.	.	.	.	2BB-/	-ri-	.	2B-\	-ri-	.	2f\	-ri-	.	2dd\	-ri-	.	.	.	.	.	.	.	2dd\	2ff\	.	.
.	.	.	.	.	.	.	.	1r	1r	2dd\	2ff\	1r	.	.	1r	.	.	1r	.	.	1r	.	.	2BB-/	-e	.	2F/	-e	.	2f\	-e	.	2dd\	-e	.	1r	.	1r	.	1r	1r	2dd\	2ff\	.	.
*	*	*	*	*	*	*	*	*	*	*	*	*	*Xij	*	*	*Xij	*	*	*Xij	*	*	*Xij	*	*	*Xij	*	*	*	*	*	*	*	*	*	*	*	*	*	*	*	*	*	*	*	*
2AA/	6	.	2AA/	6	.	2AA/	.	.	.	2ff\	2aa\	.	.	.	.	.	.	.	.	.	.	.	.	2AA/	e-	.	2F/	e-	.	2f\	e-	.	2dd\	e-	.	.	.	.	.	.	.	2ff\	2aa\	2AA/	.
1C	.	.	1C	.	.	1C	.	1r	1r	1ee	1gg	1r	.	.	1r	.	.	1r	.	.	1r	.	.	1C	-lei-	.	1G	-lei-	.	1e	-lei-	.	1cc	-lei-	.	1r	.	1r	.	1r	1r	1ee	1gg	1C	.
*custos:FF	*	*	*	*	*	*	*	*	*	*	*	*	*	*	*	*	*	*	*	*	*	*	*	*	*	*	*	*	*	*	*	*	*	*	*	*	*	*	*	*	*	*	*	*custos:FF	*
!LO:LB:g=original	!	!	!	!	!	!	!	!	!	!	!	!	!	!	!	!	!	!	!	!	!	!	!	!	!	!	!	!	!	!	!	!	!	!	!	!	!	!	!	!	!	!	!	!LO:LB:g=original	!
=30	=30	=30	=30	=30	=30	=30	=30	=30	=30	=30	=30	=30	=30	=30	=30	=30	=30	=30	=30	=30	=30	=30	=30	=30	=30	=30	=30	=30	=30	=30	=30	=30	=30	=30	=30	=30	=30	=30	=30	=30	=30	=30	=30	=30	=30
1.FF	.	.	1.FF	.	.	1.FF	.	2c\	2f\	2cc\	2aa\	2F\	Kÿ-	.	2A/	Kÿ-	.	2f\	Kÿ-	.	2cc\	Kÿ-	.	1FF	-ſon	.	1A	-ſon,	.	1f	ſon	.	0cc	ſon	.	2FF/	.	2A\	.	2c\	2f\	2cc\	2aa\	1.FF	.
.	.	.	.	.	.	.	.	2c\	2f\	2cc\	2aa\	2F\	-ri-	.	2A/	-ri-	.	2f\	-ri-	.	2cc\	-ri-	.	.	.	.	.	.	.	.	.	.	.	.	.	2FF/	.	2A\	.	2c\	2f\	2cc\	2aa\	.	.
.	.	.	.	.	.	.	.	2c\	2f\	2cc\	2aa\	2F\	-e	.	2A/	-e	.	2f\	-e	.	2cc\	-e	.	1r	.	.	1r	.	.	1r	.	.	.	.	.	2FF/	.	2A\	.	2c\	2f\	2cc\	2aa\	.	.
2EE/	.	.	2EE/	6	.	2EE/	.	2c\	2g\	2ee\	2gg\	2E\	e-	.	2c\	e-	.	2g\	e-	.	2cc\	e-	.	.	.	.	.	.	.	.	.	.	.	.	.	2EE/	.	2G\	.	2c\	2g\	2ee\	2gg\	2EE/	.
*	*	*	*	*	*	*	*	*	*	*	*	*	*	*	*	*	*	*	*	*	*	*	*	*	*	*	*	*ij	*	*	*ij	*	*	*ij	*	*	*	*	*	*	*	*	*custos:gg	*	*
!	!	!	!	!	!	!	!	!	!	!	!	!	!	!	!	!	!	!	!	!	!	!	!	!	!	!	!	!	!	!	!	!	!	!	!	!	!	!	!	!	!	!	!LO:LB:g=original	!	!
1GG	6	.	1GG	.	.	1GG	.	1B	1g	1dd	1gg	1G	-lei-	.	1B	-lei-	.	1g	-lei-	.	1dd	-lei-	.	1r	.	.	1r	.	.	1r	.	.	1r	.	.	1FF	.	1G	.	1B	1g	1dd	1gg	1GG	.
=31	=31	=31	=31	=31	=31	=31	=31	=31	=31	=31	=31	=31	=31	=31	=31	=31	=31	=31	=31	=31	=31	=31	=31	=31	=31	=31	=31	=31	=31	=31	=31	=31	=31	=31	=31	=31	=31	=31	=31	=31	=31	=31	=31	=31	=31
1.C	.	.	1.C	.	.	1.C	.	1c	1g	2ee\	2gg\	1C	ſon,	.	1c	ſon,	.	1g	ſon,	.	1ee	ſon	.	2C/	Kÿ-	.	2c\	Kÿ-	.	2g\	Kÿ-	.	2ee\	Kÿ-	.	1C	.	1G	.	1c	1g	2ee\	2gg\	1.C	.
.	.	.	.	.	.	.	.	.	.	2ee\	2gg\	.	.	.	.	.	.	.	.	.	.	.	.	2C/	-ri-	.	2c\	-ri-	.	2g\	-ri-	.	2ee\	-ri-	.	.	.	.	.	.	.	2ee\	2gg\	.	.
.	.	.	.	.	.	.	.	1r	1r	2ee\	2gg\	1r	.	.	1r	.	.	1r	.	.	1r	.	.	2C/	-e	.	2G/	-e	.	2g\	-e	.	2ee\	-e	.	1r	.	1r	.	1r	1r	2ee\	2gg\	.	.
2BB/	6	.	2BB/	6	.	2BB/	.	.	.	2gg\	2bb\	.	.	.	.	.	.	.	.	.	.	.	.	2BB/	e-	.	2G/	e-	.	2g\	e-	.	2ee\	e-	.	.	.	.	.	.	.	2gg\	2bb\	2BB/	.
*	*	*	*	*	*	*	*	*	*	*	*	*	*ij	*	*	*ij	*	*	*ij	*	*	*ij	*	*	*	*	*	*	*	*	*	*	*	*	*	*	*	*	*	*	*	*custos:ff#	*	*	*
!	!	!	!	!	!	!	!	!	!	!	!	!	!	!	!	!	!	!	!	!	!	!	!	!	!	!	!	!	!	!	!	!	!	!	!	!	!	!	!	!	!	!LO:LB:g=original	!	!	!
1D	.	.	1D	#	.	1D	.	1r	1r	1ff#X	1aa	1r	.	.	1r	.	.	1r	.	.	1r	.	.	1D	-lei-	.	1A	-lei-	.	1f#X	-lei-	.	1dd	-lei-	.	1r	.	1r	.	1r	1r	1ff#X	1aa	1D	.
*	*	*	*	*	*	*	*	*	*	*	*	*	*	*	*	*	*	*	*	*	*	*	*	*	*	*	*	*	*	*	*	*	*	*	*	*	*	*	*	*custos:d	*	*	*	*	*
!	!	!	!	!	!	!	!	!	!	!	!	!	!	!	!	!	!	!	!	!	!	!	!	!	!	!	!	!	!	!	!	!	!	!	!	!	!	!	!	!LO:LB:g=original	!	!	!	!	!
=32	=32	=32	=32	=32	=32	=32	=32	=32	=32	=32	=32	=32	=32	=32	=32	=32	=32	=32	=32	=32	=32	=32	=32	=32	=32	=32	=32	=32	=32	=32	=32	=32	=32	=32	=32	=32	=32	=32	=32	=32	=32	=32	=32	=32	=32
!LO:TX:b:t=P:problem:# below	!	!	!	!	!	!	!	!	!	!	!	!	!	!	!	!	!	!	!	!	!	!	!	!	!	!	!	!	!	!	!	!	!	!	!	!	!	!	!	!	!	!	!	!	!
1.GG#	.	.	1.GG	.	.	1.GG	.	2d\	2g\	2dd\	2gg\	2G\	Kÿ-	.	2B\	Kÿ-	.	2g\	Kÿ-	.	2dd\	Kÿ-	.	1GG	-ſon.	.	1B	-ſon,	.	1g	-ſon	.	1dd	-ſon	.	2GG/	.	2B\	.	2d\	2g\	2dd\	2gg\	1.GG	.
.	.	.	.	.	.	.	.	2d\	2g\	2dd\	2gg\	2G\	-ri-	.	2B\	-ri-	.	2g\	-ri-	.	2dd\	-ri-	.	.	.	.	.	.	.	.	.	.	.	.	.	2GG/	.	2B\	.	2d\	2g\	2dd\	2gg\	.	.
.	.	.	.	.	.	.	.	2d\	2g\	2dd\	2gg\	2G\	-e	.	2B\	-e	.	2g\	-e	.	2dd\	-e	.	1r	.	.	1r	.	.	1r	.	.	1r	.	.	2GG/	.	2B\	.	2d\	2g\	2dd\	2gg\	.	.
!LO:TX:b:t=P:problem:# below	!	!	!	!	!LO:SIC:v:s=2FF#/	!	!	!	!	!	!	!	!	!	!	!	!	!	!	!	!	!	!	!	!	!	!	!	!	!	!	!	!	!	!	!	!	!	!	!	!	!	!LO:SIC:v:s=2FF#	!	!
2FF#X/	.	.	2FF#X/	6	.	2FF/	.	2d\	2a\	2aa\	2dd\	2F#X\	e-	.	2d\	e-	.	2a\	e-	.	2dd\	e-	.	.	.	.	.	.	.	.	.	.	.	.	.	2FF#X/	.	2A\	.	2d\	2a\	2aa\	2dd\	2FF/	.
!	!	!	!	!	!	!	!	!	!	!	!	!	!	!	!LO:TX:b:t=P:problem:# below	!	!	!	!	!	!	!	!	!	!	!	!	!	!	!	!	!	!	!	!	!	!	!	!	!	!	!	!	!	!
1AA	.	.	1AA	#	.	1AA	.	1c#X	1a	1aa	1ee	1A	-lei-	.	1c#X	-lei-	.	1a	-lei-	.	1ee	-lei-	.	1r	.	.	1r	.	.	1r	.	.	1r	.	.	1GG	.	1A	.	1c#X	1e	1gg	1ee	1AA	.
*	*	*	*	*	*	*	*	*	*	*	*	*	*	*	*	*	*	*	*	*	*	*	*	*	*	*	*	*Xij	*	*	*	*	*	*Xij	*	*	*	*	*	*	*	*	*	*	*
!	!	!	!	!	!	!	!	!	!	!	!	!	!	!	!	!	!	!	!	!	!	!	!	!	!	!	!	!	!	!	!	!	!	!	!	!LO:LB:g=original	!	!	!	!	!	!	!	!	!
=33	=33	=33	=33	=33	=33	=33	=33	=33	=33	=33	=33	=33	=33	=33	=33	=33	=33	=33	=33	=33	=33	=33	=33	=33	=33	=33	=33	=33	=33	=33	=33	=33	=33	=33	=33	=33	=33	=33	=33	=33	=33	=33	=33	=33	=33
!	!	!	!	!	!	!	!	!	!	!	!	!	!	!	!	!	!	!	!	!	!	!	!	!	!	!	!	!	!	!	!	!	!	!	!	!	!	!	!	!	!	!	!LO:SIC:v:s=1ff#	!	!
1.D	.	.	1.D	.	.	1.D	.	1d	1f	2aa\	2ff\	1D	-ſon	.	1d	-ſon	.	1f	-ſon	.	1dd	-ſon	.	2D/	Kÿ-	.	2d\	Kÿ-	.	2f\	Kÿ-	.	2a\	Kÿ-	.	1D	.	1A	.	1d	1f	2aa\	2ff\	1.D	.
.	.	.	.	.	.	.	.	.	.	2aa\	2ff\	.	.	.	.	.	.	.	.	.	.	.	.	2D/	-ri-	.	2d\	-ri-	.	2f\	-ri-	.	2a\	-ri-	.	.	.	.	.	.	.	2aa\	2ff\	.	.
.	.	.	.	.	.	.	.	1r	1r	2ff\	2aa\	1r	.	.	1r	.	.	1r	.	.	1r	.	.	2D/	-e	.	2A/	-e	.	2f\	-e	.	2a\	-e	.	1r	.	1r	.	1r	1r	2ff\	2aa\	.	.
2C/	.	.	2C#X/	6	.	2C/	.	.	.	2ee\	2aa\	.	.	.	.	.	.	.	.	.	.	.	.	2C#X/	e-	.	2A/	e-	.	2e\	e-	.	2a\	e-	.	.	.	.	.	.	.	2ee\	2aa\	2C/	.
*	*	*	*	*	*	*	*	*	*	*	*	*	*Xij	*	*	*Xij	*	*	*Xij	*	*	*Xij	*	*	*	*	*	*	*	*	*	*	*	*	*	*	*	*	*	*	*	*	*	*	*
1E	#	.	1E	#	.	1E	.	1r;	1r;	1ee	1gg#X	1r;	.	.	1r;;	.	.	1r;	.	.	1r;	.	.	1E	-lei-	.	1B	-lei-	.	1e	-lei-	.	1g#X	lei-	.	1r;	.	1r;	.	1r;	1r;	1ee	1gg#X	1E;	.
!	!	!	!	!	!	!	!	!	!	!	!	!LO:LB:g=original	!	!	!	!	!	!LO:LB:g=original	!	!	!LO:LB:g=original	!	!	!	!	!	!	!	!	!	!	!	!	!	!	!	!	!	!	!	!	!	!	!	!
=34||	=34||	=34||	=34||	=34||	=34||	=34||	=34||	=34||	=34||	=34||	=34||	=34||	=34||	=34||	=34||	=34||	=34||	=34||	=34||	=34||	=34||	=34||	=34||	=34||	=34||	=34||	=34||	=34||	=34||	=34||	=34||	=34||	=34||	=34||	=34||	=34||	=34||	=34||	=34||	=34||	=34||	=34||	=34||	=34||	=34||
*M4/4	*	*	*M4/4	*	*	*M4/4	*	*M4/4	*M4/4	*M4/4	*M4/4	*M4/4	*	*	*M4/4	*	*	*M4/4	*	*	*M4/4	*	*	*M4/4	*	*	*M4/4	*	*	*M4/4	*	*	*M4/4	*	*	*M4/4	*	*M4/4	*	*M4/4	*M4/4	*M4/4	*M4/4	*M4/4	*
*met(C)	*	*	*met(C)	*	*	*met(C|)	*	*met(C)	*met(C)	*met(C)	*met(C)	*met(C)	*	*	*met(C)	*	*	*met(C)	*	*	*met(C)	*	*	*met(C)	*	*	*met(C)	*	*	*met(C)	*	*	*met(C)	*	*	*met(C)	*	*met(C)	*	*met(C)	*met(C)	*met(C|)	*met(C)	*met(C|)	*
!	!	!	!	!	!	!	!	!	!	!	!	!	!	!	!	!	!	!	!	!	!	!	!	!	!	!	!	!	!	!	!	!	!	!	!	!	!	!	!	!	!	!	!	!LO:TX:t=P:problem: podwójna fermata nad ||	!
2AA;/	.	.	2AA;/	.	.	2AA/	.	4r	4r	2ee;\	2aa;\	4r	.	.	4r	.	.	4r	.	.	4r	.	.	2AA;/	-ſon,	.	2c;\	-ſon.	.	2e;\	-ſon	.	2a;\	-ſon.	.	4r	.	4r	.	4r	4r	2ee;\	2aa;\	2AA/	.
*	*	*	*	*	*	*	*	*	*	*	*	*	*	*	*	*	*	*	*	*	*	*	*	*	*	*	*	*	*	*	*Xij	*	*	*	*	*	*	*	*	*	*	*	*	*	*
!	!	!	!	!	!	!	!	!LO:TX:b:t=Chriſte	!LO:TX:b:t=Chriſte	!	!	!	!	!	!	!	!	!	!	!	!	!	!	!	!	!	!	!	!	!	!	!	!	!	!	!LO:TX:b:t=Christe	!	!LO:TX:b:t=Christe	!	!LO:TX:b:t=Christe	!LO:TX:b:t=Christe	!	!	!	!
.	.	.	.	.	.	.	.	8A\L	8e\L	.	.	8A\	Chri-	.	8A/	Chri-	.	8e\	Chri-	.	8cc\	Chri-	.	.	.	.	.	.	.	.	.	.	.	.	.	8AA/L	.	2A\	.	8A\L	8e\L	.	.	.	.
.	.	.	.	.	.	.	.	8B\J	8e\J	.	.	8G\	-ste	.	8B\	-ste	.	8e\	-ste	.	8b\	-ste	.	.	.	.	.	.	.	.	.	.	.	.	.	8GG/J	.	.	.	8B\J	8e\J	.	.	.	.
!LO:TX:b:t=Christe	!	!	!LO:TX:b:t=Christe	!	!	!LO:TX:b:t=Christe	!	!	!	!	!	!	!	!	!	!	!	!	!	!	!	!	!	!LO:LB:g=original	!	!	!	!	!	!	!	!	!	!	!	!	!	!	!	!	!	!	!	!LO:TX:b:t=Chriſte	!
*	*	*	*	*	*	*	*	*	*	*	*	*	*ij	*	*	*ij	*	*	*ij	*	*	*ij	*	*	*	*	*	*	*	*	*	*	*	*	*	*	*	*	*	*	*	*	*	*	*
!	!	!	!LO:LB:g=original	!	!	!LO:TX:t=P:problem:4\right	!	!	!	!	!	!	!	!	!	!	!	!	!	!	!	!	!	!	!	!	!	!	!	!	!	!	!	!	!	!	!	!	!	!	!	!	!	!	!
4F\	.	.	4F\	.	.	4F\	.	4c\	4f\	4r	4r	4F\	Chri-	.	4c\	Chri-	.	4f\	Chri-	.	4a\	Chri-	.	4r	.	.	4r	.	.	4r	.	.	4r	.	.	4FF/	.	.	.	4c\	4f\	4r	4r	4F\	.
!LO:TX:b:t=P:problem:# below	!	!	!	!	!	!	!	!	!	!LO:TX:b:t=Chris[te]	!LO:TX:b:t=Christe	!	!	!	!	!	!	!	!	!	!	!	!	!	!	!	!	!	!	!	!	!	!	!	!	!	!	!	!	!	!	!LO:TX:b:t=Chriſte	!	!	!
4C#X/	.	.	4C#X/	6	.	4C/	.	4A/	4e\	8ee\L	4aa\	8C#X/	-ste	.	8A/	-ste	.	8e\	-ste	.	8a\	-ste	.	8A\	Chri-	.	4A/	Chri-	.	8e\	Chri-	.	8cc#X\	Chri-	.	4C#X/	.	4A\	.	4A/	4e\	8ee\L	4ff\	4C/	.
*	*	*	*	*	*	*	*	*	*	*	*	*	*Xij	*	*	*Xij	*	*	*Xij	*	*	*Xij	*	*	*	*	*	*	*	*	*	*	*	*	*	*	*	*	*	*	*	*	*	*	*
.	.	.	.	.	.	.	.	.	.	8ee\J	.	8C#/	e-	.	8A/	e-	.	8f\	e-	.	8a\	e-	.	8G\	-ste	.	.	.	.	8e\	-ste	.	8a\	-ste	.	.	.	.	.	.	.	8ee\J	.	.	.
*	*	*	*	*	*	*	*	*custos:A	*	*	*	*	*	*	*	*	*	*	*	*	*	*	*	*	*	*	*	*	*	*	*	*	*	*	*	*	*	*	*	*	*	*	*	*	*
!	!	!	!	!	!	!	!	!LO:LB:g=original	!	!LO:LB:g=original	!LO:LB:g=original	!	!	!	!LO:LB:g=original	!	!	!	!	!	!	!	!	!	!	!	!	!	!	!	!	!	!	!	!	!	!	!LO:LB:g=original	!	!	!	!	!	!	!
=35	=35	=35	=35	=35	=35	=35	=35	=35	=35	=35	=35	=35	=35	=35	=35	=35	=35	=35	=35	=35	=35	=35	=35	=35	=35	=35	=35	=35	=35	=35	=35	=35	=35	=35	=35	=35	=35	=35	=35	=35	=35	=35	=35	=35	=35
*	*	*	*	*	*	*	*	*	*	*	*	*	*	*	*	*	*	*	*	*	*	*	*	*	*ij	*	*	*	*	*	*ij	*	*	*ij	*	*	*	*	*	*	*	*	*	*	*
4D/	.	.	4D/	.	.	4D/	.	4A/	4d\	16a\LL	4aa\	4D/	-lei-	.	4A/	-lei-	.	4d\	-lei-	.	4a\	-lei-	.	4F\	Chri-	.	2A/	-ste	.	4f\	Chri-	.	4a\	Chri-	.	4D/	.	2.A\	.	4A/	4d\	16a\LL	4ff\	4D/	.
.	.	.	.	.	.	.	.	.	.	16b\	.	.	.	.	.	.	.	.	.	.	.	.	.	.	.	.	.	.	.	.	.	.	.	.	.	.	.	.	.	.	.	16b\	.	.	.
.	.	.	.	.	.	.	.	.	.	16cc\	.	.	.	.	.	.	.	.	.	.	.	.	.	.	.	.	.	.	.	.	.	.	.	.	.	.	.	.	.	.	.	16cc\	.	.	.
.	.	.	.	.	.	.	.	.	.	16dd\JJ	.	.	.	.	.	.	.	.	.	.	.	.	.	.	.	.	.	.	.	.	.	.	.	.	.	.	.	.	.	.	.	16dd\JJ	.	.	.
!	!	!	!	!	!	!	!	!	!LO:TX:b:t=P:problem:# below	!	!	!	!	!	!	!	!	!	!	!	!	!	!	!	!	!	!	!	!	!	!	!	!	!	!	!	!	!	!	!	!LO:TX:b:t=P:problem:# below	!	!	!	!
4AA/	#	.	4AA/	#	.	4AA/	.	4A/	4c#X/	8ee\L	4aa\	4AA/	-ſon,	.	4A/	-ſon,	.	4c#X/	-ſon,	.	4a\	-ſon,	.	4C#X/	-ste	.	.	.	.	4e\	-ste	.	4ee\	-ste	.	4AA/	.	.	.	4A/	4c#X/	8ee\L	4ff\	4AA/	.
.	.	.	.	.	.	.	.	.	.	8ee\J	.	.	.	.	.	.	.	.	.	.	.	.	.	.	.	.	.	.	.	.	.	.	.	.	.	.	.	.	.	.	.	8ee\J	.	.	.
*	*	*	*	*	*	*	*	*	*	*	*	*	*	*	*	*	*	*	*	*	*	*	*	*	*	*	*custos:A	*	*	*	*	*	*	*	*	*	*	*	*	*	*	*	*	*	*
!	!	!	!	!	!	!	!	!	!	!	!	!	!	!	!	!	!	!	!	!	!	!	!	!	!	!	!LO:LB:g=original	!	!	!	!	!	!	!	!	!	!	!	!	!	!	!	!	!	!
4D/	.	.	4D/	.	.	4D/	.	4A/	4f\	4dd\	4aa\	2r	.	.	2r	.	.	2r	.	.	2r	.	.	4D/	Chri-	.	4A/	e-	.	4f\	Chri-	.	4dd|\	Chri-	.	4D/	.	.	.	4A/	4f\	4dd\	4ff\	4D/	.
!	!	!	!	!	!	!	!	!	!	!	!	!	!	!	!	!	!	!	!	!	!	!	!	!	!	!	!LO:TX:t=P:problem: nuta przekreślona/przedzielona	!	!	!	!	!	!	!	!	!	!	!	!	!	!	!	!	!	!
4E\	6	.	4E\	6	.	4E\	.	4c\	4g\	4cc\	4gg\	.	.	.	.	.	.	.	.	.	.	.	.	8E\	.	.	(2c\	-lei-	.	8g\	-ste	.	8cc\	-ste	.	4E\	.	4G\	.	4c\	4g\	4cc\	4ee\	4E\	.
*	*	*	*	*	*	*	*	*	*	*	*	*	*	*	*	*	*	*	*	*	*	*	*	*	*	*	*	*	*	*	*Xij	*	*	*Xij	*	*	*	*	*	*	*	*	*	*	*
.	.	.	.	.	.	.	.	.	.	.	.	.	.	.	.	.	.	.	.	.	.	.	.	8E\	-ste	.	.	.	.	8g\	e-	.	8cc|\	e-	.	.	.	.	.	.	.	.	.	.	.
*	*	*	*	*	*	*	*	*	*	*	*	*	*	*	*	*	*	*	*	*	*	*	*	*	*Xij	*	*	*	*	*	*	*	*	*	*	*	*	*	*	*	*	*	*	*	*
!	!	!	!	!	!	!	!	!	!LO:LB:g=original	!	!	!	!	!	!	!	!	!	!	!	!	!	!	!	!	!	!	!	!	!	!	!	!	!	!	!	!	!	!	!	!LO:LB:g=original	!	!	!	!
=36	=36	=36	=36	=36	=36	=36	=36	=36	=36	=36	=36	=36	=36	=36	=36	=36	=36	=36	=36	=36	=36	=36	=36	=36	=36	=36	=36	=36	=36	=36	=36	=36	=36	=36	=36	=36	=36	=36	=36	=36	=36	=36	=36	=36	=36
4F\	6	.	4F\	6 5	.	4F\	.	4c\	4a\	2dd\	4ff\	2r	.	.	2r	.	.	4r	.	.	2r	.	.	4F\	e-	.	.	.	.	4a\	-lei-	.	2dd\	-lei-	.	4F\	.	4.d\	.	4c\	4a\	2dd\	4dd\	4F\	.
4G\	5 6	.	4G\	.	.	4G\	.	4B\	4g\	.	4ee\	.	.	.	.	.	.	8g\	Chri-	.	.	.	.	4G\	-lei-	.	4B\)	.	.	4g\	.	.	.	.	.	4G\	.	.	.	4B\	4g\	.	4cc\	4G\	.
.	.	.	.	.	.	.	.	.	.	.	.	.	.	.	.	.	.	8f\	-ste	.	.	.	.	.	.	.	.	.	.	.	.	.	.	.	.	.	.	8A\	.	.	.	.	.	.	.
*	*	*	*	*	*	*custos:C	*	*	*	*	*	*	*	*	*	*	*	*	*ij	*	*	*	*	*	*	*	*	*	*	*	*	*	*	*	*	*	*	*	*	*	*	*	*	*	*
!	!	!	!	!	!	!LO:LB:g=original	!	!	!	!	!	!	!	!	!	!	!	!	!	!	!	!	!	!	!	!	!	!	!	!	!	!	!	!	!	!	!	!	!	!	!	!	!	!	!
4.C/	.	.	4.C/	.	.	4.C/	.	4c\	2.e\	2cc\	2ee\	4r	.	.	4r	.	.	2.e\	Chri-	.	8ee\	Chri-	.	2C/	-ſon	.	2c\	ſon,	.	2g\	ſon.	.	2cc\	-ſon.	.	4.C/	.	2G\	.	4c\	2.e\	2cc\	2cc\	4.C/	.
.	.	.	.	.	.	.	.	.	.	.	.	.	.	.	.	.	.	.	.	.	8dd\	-ste	.	.	.	.	.	.	.	.	.	.	.	.	.	.	.	.	.	.	.	.	.	.	.
*	*	*	*	*	*	*	*	*	*	*	*	*	*	*	*	*	*	*	*	*	*	*ij	*	*	*	*	*	*	*	*	*	*	*	*	*	*	*	*	*	*	*	*	*	*	*
.	.	.	.	.	.	.	.	8e\L	.	.	.	8c\	Chri-	.	8e\	Chri-	.	.	.	.	4cc\	Chri-	.	.	.	.	.	.	.	.	.	.	.	.	.	.	.	.	.	8e\L	.	.	.	.	.
8BB/	.	.	8BB/	.	.	8BB/	.	8d\J	.	.	.	8B\	ste	.	8d\	ste	.	.	.	.	.	.	.	.	.	.	.	.	.	.	.	.	.	.	.	8BB/	.	.	.	8d\J	.	.	.	8BB/	.
!	!	!	!	!	!	!	!	!	!	!	!	!	!	!	!	!	!	!	!	!	!	!	!	!	!	!	!	!	!	!	!	!	!LO:LB:g=original	!	!	!	!	!	!	!	!	!	!	!	!
=37	=37	=37	=37	=37	=37	=37	=37	=37	=37	=37	=37	=37	=37	=37	=37	=37	=37	=37	=37	=37	=37	=37	=37	=37	=37	=37	=37	=37	=37	=37	=37	=37	=37	=37	=37	=37	=37	=37	=37	=37	=37	=37	=37	=37	=37
*	*	*	*	*	*	*	*	*	*	*	*	*	*ij	*	*	*	*	*	*	*	*	*	*	*	*	*	*	*	*	*	*	*	*	*	*	*	*	*	*	*	*	*	*	*	*
4AA/	.	.	4AA/	.	.	4AA/	.	4c\	.	2.cc\	4ee\	4A\	Chri-	.	4c\	e-	.	.	.	.	4cc\	-ste	.	4r	.	.	4r	.	.	4r	.	.	4r	.	.	4AA/	.	2c\	.	4c\	.	2.cc\	4cc\	4AA/	.
*	*	*	*	*	*	*	*	*	*	*	*	*	*	*	*	*	*	*	*	*	*	*Xij	*	*	*	*	*	*	*	*	*	*	*	*	*	*	*	*	*	*	*	*	*	*	*
4E\	6	.	4E\	6	.	4E\	.	2c\	4e\	.	4gg\	8E\	-ste	.	2c\	-lei-	.	4e\	ste	.	4cc\	e-	.	8c\	Chri-	.	8e\	Chri-	.	8g\	Chri-	.	4cc\	chri-	.	4EE/	.	.	.	2c\	4e\	.	4gg\	4E\	.
*	*	*	*	*	*	*	*	*	*	*	*	*	*Xij	*	*	*	*	*	*	*	*	*	*	*	*	*	*	*	*	*	*	*	*	*	*	*	*	*	*	*	*	*	*	*	*
.	.	.	.	.	.	.	.	.	.	.	.	8E\	e-	.	.	.	.	.	.	.	.	.	.	8B\	-ste	.	8d\	-ste	.	8g\	-ste	.	.	.	.	.	.	.	.	.	.	.	.	.	.
*	*	*	*	*	*	*	*	*	*	*	*	*	*	*	*	*	*	*	*	*	*	*	*	*	*ij	*	*	*ij	*	*	*	*	*	*	*	*	*	*	*	*	*	*	*	*custos:F	*
!	!	!	!	!	!	!	!	!	!	!	!	!	!	!	!	!	!	!	!	!	!	!	!	!	!	!	!	!	!	!LO:LB:g=original	!	!	!	!	!	!	!	!	!	!	!	!	!	!LO:LB:g=original	!
4F\	.	.	4F\	.	.	4F\	.	.	4a\	.	4ff\	4F\	-lei-	.	.	.	.	4a\	Chri-	.	4cc\	-lei-	.	4A\	Chri-	.	4c\	Chri-	.	4f\	Chri-	.	4cc\	-ste	.	4FF/	.	2C/	.	.	4a\	.	4ff\	4F\	.
4C/	.	.	4C/	.	.	4C/	.	4c\	4g\	4cc\	4ee\	4C/	-ſon.	.	4c\	-ſon	.	8g\	-ste	.	(8cc\L	.	.	8E\	-ste	.	8e\	-ste	.	8e\	-ste	.	4cc\	e-	.	4C/	.	.	.	4c\	4g\	4cc\	4ee\	4C/	.
*	*	*	*	*	*	*	*	*	*	*	*	*	*	*	*	*	*	*	*Xij	*	*	*	*	*	*Xij	*	*	*Xij	*	*	*	*	*	*	*	*	*	*	*	*	*	*	*	*	*
.	.	.	.	.	.	.	.	.	.	.	.	.	.	.	.	.	.	8g\	e-	.	8a\J)	.	.	8E\	e-	.	8e\	e-	.	8e\	e-	.	.	.	.	.	.	.	.	.	.	.	.	.	.
*	*	*	*	*	*	*	*	*	*	*	*	*	*	*	*	*	*	*	*	*	*	*	*	*	*	*	*	*	*	*	*	*	*	*	*	*	*	*	*	*	*	*	*custos:aa	*	*
!	!	!	!	!	!	!	!	!	!	!	!	!	!	!	!	!	!	!	!	!	!	!	!	!	!	!	!	!	!	!	!	!	!	!	!	!	!	!	!	!	!	!	!LO:LB:g=original	!	!
=38	=38	=38	=38	=38	=38	=38	=38	=38	=38	=38	=38	=38	=38	=38	=38	=38	=38	=38	=38	=38	=38	=38	=38	=38	=38	=38	=38	=38	=38	=38	=38	=38	=38	=38	=38	=38	=38	=38	=38	=38	=38	=38	=38	=38	=38
4F\	.	.	4F\	.	.	4F\	.	2c\	4f\	4cc\	4aa\	4r	.	.	4r	.	.	4f\	-lei-	.	4a\	ſon	.	4F\	-lei-	.	4c\	-lei-	.	4a\	-lei-	.	4cc\	lei-	.	4FF/	.	2C/	.	2c\	4f\	4cc\	4aa\	4F\	.
8C/L	.	.	8C/L	.	.	8C/L	.	.	4e\	2cc\	4gg\	8c\	Chri-	.	8e\	Chri-	.	4e\	-ſon	.	2cc\	Chri-	.	4C/	-ſon,	.	4c\	-ſon.	.	4g\	-ſon.	.	4cc\	-ſon.	.	4C/	.	.	.	.	4e\	2cc\	4gg\	8C/L	.
8BB/J	.	.	8BB/J	.	.	8BB/J	.	.	.	.	.	8B\	ste	.	8d\	ste	.	.	.	.	.	.	.	.	.	.	.	.	.	.	.	.	.	.	.	.	.	.	.	.	.	.	.	8BB/J	.
*	*	*	*	*	*	*	*	*	*	*	*	*	*ij	*	*	*ij	*	*	*	*	*	*	*	*	*	*	*	*	*	*	*	*	*	*	*	*	*	*	*	*	*	*	*	*	*
4AA/	.	.	4AA/	.	.	4AA/	.	2r	2r	.	4aa\	4A\	Chri-	.	4c\	Chri-	.	4a\	e-	.	.	.	.	2r	.	.	2r	.	.	2r	.	.	2r	.	.	2r	.	2r	.	2r	2r	.	4aa\	4AA/	.
!	!	!	!	!	!	!	!	!	!	!	!	!	!	!	!	!	!	!LO:TX:t=P:problem: nuta przekreślona/przedzielona	!	!	!	!	!	!	!	!	!	!	!	!	!	!	!	!	!	!	!	!	!	!	!	!	!	!	!
4BB/	6	.	4BB/	6	.	4BB/	.	.	.	4b/	4dd\	8B\	-ste	.	8d\	-ste	.	(2g\	-lei-	.	8b\	-ste	.	.	.	.	.	.	.	.	.	.	.	.	.	.	.	.	.	.	.	4b/	4dd\	4BB/	.
*	*	*	*	*	*	*	*	*	*	*	*	*	*Xij	*	*	*Xij	*	*	*	*	*	*	*	*	*	*	*	*	*	*	*	*	*	*	*	*	*	*	*	*	*	*	*	*	*
.	.	.	.	.	.	.	.	.	.	.	.	8B\	e-	.	8d\	e-	.	.	.	.	8b\	e-	.	.	.	.	.	.	.	.	.	.	.	.	.	.	.	.	.	.	.	.	.	.	.
=39	=39	=39	=39	=39	=39	=39	=39	=39	=39	=39	=39	=39	=39	=39	=39	=39	=39	=39	=39	=39	=39	=39	=39	=39	=39	=39	=39	=39	=39	=39	=39	=39	=39	=39	=39	=39	=39	=39	=39	=39	=39	=39	=39	=39	=39
4C/	.	.	4C/	6 5	.	4C/	.	2r	2r	4.a/	4.aa\	(4c\	-lei-	.	(4e\	-lei-	.	.	.	.	(2a\	-lei-	.	2r	.	.	2r	.	.	2r	.	.	4r	.	.	2r	.	2r	.	2r	2r	4.a/	4.aa\	4C/	.
4D/	.	.	4D/	#	.	4D/	.	.	.	.	.	4d\)	.	.	4d\)	.	.	4f#X\)	.	.	.	.	.	.	.	.	.	.	.	.	.	.	8dd\	Chri-	.	.	.	.	.	.	.	.	.	4D/	.
.	.	.	.	.	.	.	.	.	.	8dd\	8aa\	.	.	.	.	.	.	.	.	.	.	.	.	.	.	.	.	.	.	.	.	.	8cc\	-ste	.	.	.	.	.	.	.	8dd\	8aa\	.	.
*	*	*	*	*	*	*	*	*	*	*	*	*	*	*	*	*	*	*	*	*	*	*	*	*	*	*	*	*	*	*	*	*	*	*ij	*	*	*	*	*	*	*	*	*	*	*
2GG/	.	.	2GG/	.	.	2GG/	.	4r	4r	2dd\	2bb\	2G\	-ſon.	.	2d\	-ſon,	.	2g\	-ſon,	.	2g/)	.	.	4r	.	.	4r	.	.	4r	.	.	4b\	Chri-	.	4r	.	4r	.	4r	4r	2dd\	2bb\	2GG/	.
.	.	.	.	.	.	.	.	4d\	8d\L	.	.	.	.	.	.	.	.	.	.	.	.	.	.	8G\	Chri-	.	8B\	Chri-	.	8d\	Chri-	.	4dd\	-ste	.	8G\L	.	2G\	.	4d\	8d\L	.	.	.	.
.	.	.	.	.	.	.	.	.	8d\J	.	.	.	.	.	.	.	.	.	.	.	.	.	.	8F\	-ste	.	8A/	-ste	.	8d\	-ste	.	.	.	.	8F\J	.	.	.	.	8d\J	.	.	.	.
*custos:E	*	*	*	*	*	*	*	*	*	*	*	*	*	*	*	*	*	*	*	*	*	*	*	*	*	*	*	*	*	*	*	*	*	*	*	*	*	*	*	*	*	*	*	*	*
!LO:LB:g=original	!	!	!	!	!	!	!	!	!	!	!	!	!	!	!	!	!	!	!	!	!	!	!	!	!	!	!	!	!	!	!	!	!	!	!	!	!	!	!	!	!	!	!	!	!
=40	=40	=40	=40	=40	=40	=40	=40	=40	=40	=40	=40	=40	=40	=40	=40	=40	=40	=40	=40	=40	=40	=40	=40	=40	=40	=40	=40	=40	=40	=40	=40	=40	=40	=40	=40	=40	=40	=40	=40	=40	=40	=40	=40	=40	=40
*	*	*	*	*	*	*	*	*	*	*	*	*	*	*	*	*	*	*	*	*	*	*	*	*	*ij	*	*	*ij	*	*	*ij	*	*	*	*	*	*	*	*	*	*	*	*	*	*
4E\	.	.	4E\	.	.	4E\	.	4e\	4g\	8.ee\L	4bb\	4r	.	.	4r	.	.	4r	.	.	2e/	-ſon	.	4E\	Chri-	.	4G/	Chri-	.	4g\	Chri-	.	4ee\	Chri-	.	4E\	.	.	.	4e\	8g\L	8.ee\L	4bb\	4E\	.
.	.	.	.	.	.	.	.	.	.	.	.	.	.	.	.	.	.	.	.	.	.	.	.	.	.	.	.	.	.	.	.	.	.	.	.	.	.	.	.	.	8g\J	.	.	.	.
.	.	.	.	.	.	.	.	.	.	16ee\Jk	.	.	.	.	.	.	.	.	.	.	.	.	.	.	.	.	.	.	.	.	.	.	.	.	.	.	.	.	.	.	.	16ee\Jk	.	.	.
4BB/	6	.	4BB/	6	.	4BB/	.	4d\	4g\	8.dd\L	4bb\	8G\	Chri-	.	8B\	Chri-	.	4g\	Chri-	.	.	.	.	8BB/	-ste	.	8d\	-ste	.	8g\	-ste	.	8dd\	-ste	.	4BB/	.	4G\	.	4d\	4g\	8.ee\L	4bb\	4BB/	.
*	*	*	*	*	*	*	*	*	*	*	*	*	*	*	*	*	*	*	*	*	*	*	*	*	*Xij	*	*	*Xij	*	*	*Xij	*	*	*Xij	*	*	*	*	*	*	*	*	*	*	*
.	.	.	.	.	.	.	.	.	.	.	.	8F\	ste	.	8A/	ste	.	.	.	.	.	.	.	8BB/	e-	.	8d\	e-	.	8g\	e-	.	8dd\	e-	.	.	.	.	.	.	.	.	.	.	.
.	.	.	.	.	.	.	.	.	.	16dd\Jk	.	.	.	.	.	.	.	.	.	.	.	.	.	.	.	.	.	.	.	.	.	.	.	.	.	.	.	.	.	.	.	16dd\Jk	.	.	.
*	*	*	*	*	*	*	*	*	*	*	*	*	*ij	*	*	*ij	*	*	*	*	*	*	*	*	*	*	*	*	*	*	*	*	*	*	*	*	*	*	*	*	*	*	*	*	*
4C/	.	.	4C/	.	.	4C/	.	4e\	4g\	8cc\L	2gg\	4E\	Chri-	.	4G/	Chri-	.	4g\	-ste	.	4r	.	.	4C/	-lei-	.	4e\	-lei-	.	4g\	-lei-	.	4cc\	-lei-	.	4C/	.	2G\	.	4e\	8g\L	8cc\L	2gg\	4C/	.
.	.	.	.	.	.	.	.	.	.	8ee\	.	.	.	.	.	.	.	.	.	.	.	.	.	.	.	.	.	.	.	.	.	.	.	.	.	.	.	.	.	.	8f\J	8ee\	.	.	.
4GG/	.	.	4GG/	.	.	4GG/	.	4d\	8g\L	8dd\	.	8BB/	-ste-	.	8d\	-ste-	.	4g\	e-	.	4dd\	e-	.	4GG/	-ſon.	.	4d\	-ſon.	.	(8g\L	-ſon	.	4b\	ſon	.	4GG/	.	.	.	4d\	4e\	8dd\	.	4GG/	.
*	*	*	*	*	*	*	*	*	*	*	*	*	*Xij	*	*	*Xij	*	*	*	*	*	*	*	*	*	*	*	*	*	*	*	*	*	*	*	*	*	*	*	*	*	*	*	*	*
.	.	.	.	.	.	.	.	.	8f\J	8cc\J	.	8BB/	e-	.	8d\	e-	.	.	.	.	.	.	.	.	.	.	.	.	.	8f\J)	.	.	.	.	.	.	.	.	.	.	.	8cc\J	.	.	.
!	!	!	!	!	!	!	!	!	!	!	!	!	!	!	!	!	!	!	!	!	!	!	!	!	!	!	!	!	!	!	!	!	!	!	!	!	!	!	!	!LO:LB:g=original	!	!	!	!	!
=41	=41	=41	=41	=41	=41	=41	=41	=41	=41	=41	=41	=41	=41	=41	=41	=41	=41	=41	=41	=41	=41	=41	=41	=41	=41	=41	=41	=41	=41	=41	=41	=41	=41	=41	=41	=41	=41	=41	=41	=41	=41	=41	=41	=41	=41
4C/	.	.	4C/	.	.	4C/	.	4c\	4e\	4cc\	4gg\	4C/	-lei-	.	4c\	-lei-	.	4g\	-lei-	.	4ee\	-lei-	.	4r	.	.	4r	.	.	4e\	Chri-	.	4r	.	.	4C/	.	2r	.	4c\	4e\	4cc\	4gg\	4C/	.
4GG/	.	.	4GG/	.	.	4GG/	.	4B\	2g\	4dd\	4dd\	4GG/	-ſon,	.	4B\	-ſon,	.	4g\	-ſon.	.	4dd\	-ſon	.	8G\	Chri-	.	8B\	Chri-	.	2g\	-ste	.	8dd\	Chri-	.	8GG/L	.	.	.	4B\	2g\	4dd\	4dd\	4GG/	.
.	.	.	.	.	.	.	.	.	.	.	.	.	.	.	.	.	.	.	.	.	.	.	.	8F\	-ste	.	8A/	-ste	.	.	.	.	8ee\	-ste	.	8FF/J	.	.	.	.	.	.	.	.	.
!	!	!	!	!	!	!	!	!	!	!	!	!	!	!	!	!	!	!	!	!	!	!	!	!	!	!	!	!	!	!	!	!	!	!	!	!LO:LB:g=original	!	!LO:N:vis=4	!	!	!	!	!	!	!
*	*	*	*	*	*	*	*	*	*	*	*	*	*	*	*	*	*	*	*	*	*	*	*	*	*ij	*	*	*ij	*	*	*	*	*	*	*	*	*	*	*	*	*	*	*	*	*
4EE/	.	.	4EE/	.	.	4EE/	.	4e\	.	4ee\	4gg\	2r	.	.	2r	.	.	2r	.	.	2r	.	.	4E\	Chri-	.	4G/	Chri-	.	.	.	.	4ee\	e-	.	4EE/	.	8G\	.	4e\	.	4ee\	4gg\	4EE/	.
!	!	!	!	!	!	!	!	!	!	!	!	!	!	!	!	!	!	!	!	!	!	!	!	!	!	!	!	!	!	!	!	!	!	!	!	!	!	!LO:N:vis=4	!	!	!	!	!	!	!
.	.	.	.	.	.	.	.	.	.	.	.	.	.	.	.	.	.	.	.	.	.	.	.	.	.	.	.	.	.	.	.	.	.	.	.	.	.	8G\	.	.	.	.	.	.	.
4FF/	6	.	4FF/	6	.	4FF/	.	4d\	4f\	4dd\	4aa\	.	.	.	.	.	.	.	.	.	.	.	.	4F\	-ste	.	4A/	-ste	.	4f\	e-	.	2dd\	-lei-	.	4FF/	.	4D/	.	4d\	4f\	4dd\	4aa\	4FF/	.
*	*	*	*	*	*	*	*	*	*	*	*	*	*	*	*	*	*	*	*	*	*	*	*	*	*Xij	*	*	*Xij	*	*	*	*	*	*	*	*	*	*	*	*	*	*	*	*	*
!	!	!	!	!	!	!	!	!	!	!	!	!LO:LB:g=original	!	!	!	!	!	!	!	!	!	!	!	!	!	!	!	!	!	!	!	!	!	!	!	!	!	!	!	!	!	!	!	!	!
=42	=42	=42	=42	=42	=42	=42	=42	=42	=42	=42	=42	=42	=42	=42	=42	=42	=42	=42	=42	=42	=42	=42	=42	=42	=42	=42	=42	=42	=42	=42	=42	=42	=42	=42	=42	=42	=42	=42	=42	=42	=42	=42	=42	=42	=42
4GG/	5 6	.	4GG/	6 5	.	4GG/	.	4.e\	2e\	4.ee\	4gg\	2r	.	.	4r	.	.	2r	.	.	2r	.	.	4G\	e-	.	4B-X\	e-	.	2e\	-lei-	.	.	.	.	4GG/	.	2E/	.	4.e\	2e\	4.ee\	4gg\	4GG/	.
4AA/	.	.	4AA/	#	.	4AA/	.	.	.	.	4ee\	.	.	.	8A/	Chri-	.	.	.	.	.	.	.	4A\	-lei-	.	4A/	-lei-	.	.	.	.	4cc#X\	.	.	4AA/	.	.	.	.	.	.	4ee\	4AA/	.
.	.	.	.	.	.	.	.	8A/	.	8a/	.	.	.	.	8G/	.	.	.	.	.	.	.	.	.	.	.	.	.	.	.	.	.	.	.	.	.	.	.	.	8A/	.	8a/	.	.	.
4.D/	.	.	4.D/	.	.	4.D/	.	2A/	2d\	2a/	2ff\	4r	.	.	4F/	ste	.	4r	.	.	4r	.	.	2D/	-ſon.	.	2A/	-ſon.	.	2d\	ſon.	.	2dd\	ſon	.	2DD/	.	2F/	.	2A/	2d\	2a/	2ff\	4.D/	.
*	*	*	*	*	*	*	*	*	*	*	*	*	*	*	*	*ij	*	*	*	*	*	*	*	*	*	*	*	*	*	*	*	*	*	*	*	*	*	*	*	*	*	*	*	*	*
.	.	.	.	.	.	.	.	.	.	.	.	8D/	Chri-	.	8G/	Chri-	.	8f\	Chri-	.	8a\	Chri-	.	.	.	.	.	.	.	.	.	.	.	.	.	.	.	.	.	.	.	.	.	.	.
8C/	.	.	8C/	.	.	8C/	.	.	.	.	.	8C/	-ste	.	8G/	.	.	8e\	-ste	.	8a\	-ste	.	.	.	.	.	.	.	.	.	.	.	.	.	.	.	.	.	.	.	.	.	8C/	.
*	*	*	*custos:BB	*	*	*	*	*	*	*	*	*	*	*	*	*	*	*	*	*	*	*	*	*	*	*	*	*	*	*	*	*	*	*	*	*	*	*	*	*	*	*	*	*	*
!	!	!	!LO:LB:g=original	!	!	!	!	!	!	!	!	!	!	!	!	!	!	!LO:LB:g=original	!	!	!LO:LB:g=original	!	!	!	!	!	!	!	!	!	!	!	!	!	!	!	!	!	!	!	!	!	!	!	!
=43	=43	=43	=43	=43	=43	=43	=43	=43	=43	=43	=43	=43	=43	=43	=43	=43	=43	=43	=43	=43	=43	=43	=43	=43	=43	=43	=43	=43	=43	=43	=43	=43	=43	=43	=43	=43	=43	=43	=43	=43	=43	=43	=43	=43	=43
*	*	*	*	*	*	*	*	*	*	*	*	*	*ij	*	*	*	*	*	*ij	*	*	*	*	*	*	*	*	*	*	*	*	*	*	*	*	*	*	*	*	*	*	*	*	*	*
4BB/	.	.	4BB/	.	.	4BB/	.	1r;	1r;	1r;;	1r;	4BB/	Chri-	.	4B\	-ste	.	4d\	Chri-	.	4dd\	Chri-	.	1r;	.	.	1r;	.	.	1r;	.	.	1r;	.	.	1r;;	.	1r;	.	1r;	1r;	1r;	1r;	4BB/	.
*	*	*	*	*	*	*	*	*	*	*	*	*	*	*	*	*Xij	*	*	*	*	*	*	*	*	*	*	*	*	*	*	*	*	*	*	*	*	*	*	*	*	*	*	*	*	*
4C/	6	.	4C/	6	.	4C/	.	.	.	.	.	8C/	-ste	.	2A/	e-	.	8e\	-ste	.	8cc\	-ste	.	.	.	.	.	.	.	.	.	.	.	.	.	.	.	.	.	.	.	.	.	4C/	.
*	*	*	*	*	*	*	*	*	*	*	*	*	*Xij	*	*	*	*	*	*Xij	*	*	*	*	*	*	*	*	*	*	*	*	*	*	*	*	*	*	*	*	*	*	*	*	*	*
.	.	.	.	.	.	.	.	.	.	.	.	(8C/	e-	.	.	.	.	8e\	e-	.	8cc\	e-	.	.	.	.	.	.	.	.	.	.	.	.	.	.	.	.	.	.	.	.	.	.	.
4D/	5 6	.	4D\	6 5	.	4D/	.	.	.	.	.	4D/	.	.	.	.	.	4f\	-lei-	.	2b\	-lei-	.	.	.	.	.	.	.	.	.	.	.	.	.	.	.	.	.	.	.	.	.	4D/	.
4E/	#	.	4E\	#	.	4E\	.	.	.	.	.	4E\)	-lei-	.	4G#X/	-lei	.	4e\	.	.	.	.	.	.	.	.	.	.	.	.	.	.	.	.	.	.	.	.	.	.	.	.	.	4E\	.
*	*	*	*	*	*	*custos:AA	*	*	*	*	*	*	*	*	*	*	*	*	*	*	*	*	*	*	*	*	*	*	*	*	*	*	*	*	*	*	*	*	*	*	*	*	*	*	*
!	!	!	!	!	!	!LO:LB:g=original	!	!	!	!	!	!	!	!	!LO:LB:g=original	!	!	!	!	!	!	!	!	!LO:LB:g=original	!	!	!LO:LB:g=original	!	!	!	!	!	!	!	!	!	!	!	!	!	!	!	!	!	!
=44	=44	=44	=44	=44	=44	=44	=44	=44	=44	=44	=44	=44	=44	=44	=44	=44	=44	=44	=44	=44	=44	=44	=44	=44	=44	=44	=44	=44	=44	=44	=44	=44	=44	=44	=44	=44	=44	=44	=44	=44	=44	=44	=44	=44	=44
*M3/1	*	*	*M3/1	*	*	*M3/1	*	*M3/1	*M3/1	*M3/1	*M3/1	*M3/1	*	*	*M3/1	*	*	*M3/1	*	*	*M3/1	*	*	*M3/1	*	*	*M3/1	*	*	*M3/1	*	*	*M3/1	*	*	*M3/1	*	*M3/1	*	*M3/1	*M3/1	*M3/1	*M3/1	*M3/1	*
!	!	!	!	!	!	!LO:TX:b:t=Kÿrie.	!	!LO:TX:b:t=Kÿrie	!LO:TX:b:t=Kÿrie	!LO:TX:b:t=Kÿrie	!LO:TX:b:t=Kÿrie	!	!	!	!	!	!	!	!	!	!	!	!	!	!	!	!	!	!	!	!	!	!	!	!	!LO:TX:b:t=Kÿrie	!	!LO:TX:b:t=Kÿrie	!	!LO:TX:b:t=Kÿrie	!LO:TX:b:t=Kÿrie	!LO:TX:b:t=Kyrie	!LO:TX:b:t=Kyrie	!LO:TX:b:t=Kyrie	!
0AA;	#	.	0AA;;	.	.	0AA	.	0c	0e	0ee	0aa	0AA;	-ſon.	.	0A;	-ſon.	.	0d;;	-ſon.	.	0a;	-ſon.	.	0A	Kÿ-	.	0c	Kÿ-	.	0e	Kÿ-	.	0a	Kÿ-	.	0AA	.	0A	.	0c	0e	0ee	0aa	0AA	.
!LO:TX:b:t=Kÿrie	!	!	!LO:TX:b:t=tutti	!	!	!	!	!	!	!	!	!	!	!	!	!	!	!	!	!	!	!	!	!	!	!	!	!	!	!	!	!	!	!	!	!	!	!	!	!	!	!	!	!	!
1E	#	.	1E	#	.	1E	.	1B	1e	1ee	1bb	1r	.	.	1r	.	.	1r	.	.	1r	.	.	1E	-ri-	.	1B	-ri-	.	1e	-ri-	.	1g#X	-ri-	.	1E	.	1B	.	1B	1e	1ee	1bb	1E	.
!	!	!	!	!	!	!	!	!LO:LB:g=original	!	!	!	!	!	!	!	!	!	!	!	!	!	!	!	!	!	!	!	!	!	!	!	!	!	!	!	!	!	!	!	!	!	!	!	!	!
=45	=45	=45	=45	=45	=45	=45	=45	=45	=45	=45	=45	=45	=45	=45	=45	=45	=45	=45	=45	=45	=45	=45	=45	=45	=45	=45	=45	=45	=45	=45	=45	=45	=45	=45	=45	=45	=45	=45	=45	=45	=45	=45	=45	=45	=45
!	!	!	!LO:TX:b:t=Kyrie	!	!	!	!	!	!	!	!	!	!	!	!	!	!	!	!	!	!	!	!	!	!	!	!	!	!	!	!	!	!	!	!	!	!	!	!	!	!	!	!	!	!
0AA	.	.	0AA	.	.	0AA	.	0A	0e	0ee	2ccc\	0A	-Kÿ-	.	0c	-Kÿ-	.	0e	-Kÿ-	.	0a	-Kÿ-	.	0AA	-e	.	0A	-e	.	0e	-e	.	0a	-e.	.	0AA	.	0c	.	0A	0e	0ee	2ccc\	0AA	.
.	.	.	.	.	.	.	.	.	.	.	2bb\	.	.	.	.	.	.	.	.	.	.	.	.	.	.	.	.	.	.	.	.	.	.	.	.	.	.	.	.	.	.	.	2bb\	.	.
.	.	.	.	.	.	.	.	.	.	.	2aa\	.	.	.	.	.	.	.	.	.	.	.	.	.	.	.	.	.	.	.	.	.	.	.	.	.	.	.	.	.	.	.	2aa\	.	.
.	.	.	.	.	.	.	.	.	.	.	2aa\	.	.	.	.	.	.	.	.	.	.	.	.	.	.	.	.	.	.	.	.	.	.	.	.	.	.	.	.	.	.	.	2aa\	.	.
!	!	!	!	!	!	!	!	!	!	!	!	!	!	!	!	!	!	!	!	!	!	!	!	!	!	!	!	!	!	!	!	!	!	!	!	!	!	!	!	!	!	!	!LO:TX:b:t=P:problem:# below	!	!
1E	#	.	1E	#	.	1E	.	1B	1e	1ee	1ee	1E	-ri-	.	1B	-ri-	.	1e	-ri-	.	1g#X	-ri-	.	1r	.	.	1r	.	.	1r	.	.	1r	.	.	1E	.	1B	.	1B	1e	1ee	1gg#X	1E	.
*	*	*	*	*	*	*custos:AA	*	*	*	*	*	*	*	*	*	*	*	*	*	*	*	*	*	*	*ij	*	*	*ij	*	*	*ij	*	*	*ij	*	*	*	*	*	*	*	*	*	*	*
!	!	!	!	!	!	!LO:LB:g=original	!	!	!	!LO:LB:g=original	!LO:LB:g=original	!	!	!	!	!	!	!	!	!	!	!	!	!	!	!	!	!	!	!	!	!	!	!	!	!	!	!	!	!	!	!	!	!LO:LB:g=original	!
=46	=46	=46	=46	=46	=46	=46	=46	=46	=46	=46	=46	=46	=46	=46	=46	=46	=46	=46	=46	=46	=46	=46	=46	=46	=46	=46	=46	=46	=46	=46	=46	=46	=46	=46	=46	=46	=46	=46	=46	=46	=46	=46	=46	=46	=46
0AA	.	.	0AA	.	.	0AA	.	0c	0e	0ee	0.aa	0AA	-e.	.	0A	-e.	.	0e	-e.	.	0cc	-e.	.	0A	Kÿ-	.	0c	Kÿ-	.	0e	Kÿ-	.	0a	Kÿ-	.	0AA	.	0.A	.	0c	0e	0ee	0aa	0AA	.
1GG	.	.	1GG	.	.	1GG	.	1B	1g	1r	.	1r	.	.	1r	.	.	1r	.	.	1r	.	.	1G	-ri-	.	1d	-ri-	.	1g	-ri-	.	1b	-ri-	.	1GG	.	.	.	1B	1g	1r	1r	1GG	.
=47	=47	=47	=47	=47	=47	=47	=47	=47	=47	=47	=47	=47	=47	=47	=47	=47	=47	=47	=47	=47	=47	=47	=47	=47	=47	=47	=47	=47	=47	=47	=47	=47	=47	=47	=47	=47	=47	=47	=47	=47	=47	=47	=47	=47	=47
*	*	*	*	*	*	*	*	*	*	*	*	*	*ij	*	*	*ij	*	*	*ij	*	*	*ij	*	*	*	*	*	*	*	*	*	*	*	*	*	*	*	*	*	*	*	*	*	*	*
0C	.	.	0C	.	.	0C	.	0c	0g	0cc	0gg	0C	Kÿ-	.	0e	Kÿ-	.	0g	Kÿ-	.	0cc	Kÿ-	.	0C	-e	.	0e	-e	.	0g	-e	.	0cc	-e	.	0C	.	0G	.	0c	0g	0cc	0gg	0C	.
1GG	.	.	1GG	.	.	1GG	.	1d	1g	1dd	1gg	1G	-ri-	.	1d	-ri-	.	1g	-ri-	.	1b	-ri-	.	1r	.	.	1r	.	.	1r	.	.	1r	.	.	1GG	.	1G	.	1d	1g	1dd	1gg	1GG	.
*	*	*	*	*	*	*	*	*	*	*	*	*	*	*	*	*	*	*	*	*	*	*	*	*	*Xij	*	*	*Xij	*	*	*Xij	*	*	*Xij	*	*	*	*custos:G	*	*	*	*	*	*	*
!	!	!	!	!	!	!	!	!	!	!	!	!	!	!	!	!	!	!	!	!	!	!	!	!	!	!	!	!	!	!	!	!	!LO:LB:g=original	!	!	!	!	!LO:LB:g=original	!	!	!	!	!	!	!
=48	=48	=48	=48	=48	=48	=48	=48	=48	=48	=48	=48	=48	=48	=48	=48	=48	=48	=48	=48	=48	=48	=48	=48	=48	=48	=48	=48	=48	=48	=48	=48	=48	=48	=48	=48	=48	=48	=48	=48	=48	=48	=48	=48	=48	=48
0C	.	.	0C	.	.	0C	.	0e	2g\	2ee\	2gg\	0C	-e	.	0c	-e	.	0g	-e	.	0ee	-e	.	2C/	Kÿ-	.	2e\	Kÿ-	.	2g\	Kÿ-	.	2cc\	Kÿ-	.	1.C	.	0G	.	0e	2g\	2ee\	2gg\	0C	.
.	.	.	.	.	.	.	.	.	2g\	2ee\	2gg\	.	.	.	.	.	.	.	.	.	.	.	.	2C/	-ri-	.	2e\	-ri-	.	2g\	-ri-	.	2cc\	-ri-	.	.	.	.	.	.	2g\	2ee\	2gg\	.	.
.	.	.	.	.	.	.	.	.	2g\	2ee\	2gg\	.	.	.	.	.	.	.	.	.	.	.	.	2C/	-e	.	2e\	-e	.	2g\	-e	.	2cc\	-e	.	.	.	.	.	.	2g\	2ee\	2gg\	.	.
.	.	.	.	.	.	.	.	.	2g\	2ee\	2gg\	.	.	.	.	.	.	.	.	.	.	.	.	2C/	e-	.	2e\	e-	.	2g\	e-	.	2cc\	e-	.	2C/	.	.	.	.	2g\	2ee\	2gg\	.	.
1GG	.	.	1GG	.	.	1GG	.	1d	1g	1dd	1gg	1r	.	.	1r	.	.	1r	.	.	1r	.	.	1G	-lei-	.	1d	-lei-	.	1g	-lei-	.	1b	-lei-	.	1GG	.	1G	.	1d	1g	1dd	1gg	1GG	.
*	*	*	*	*	*	*	*	*	*	*	*	*	*Xij	*	*	*Xij	*	*	*Xij	*	*	*Xij	*	*	*	*	*	*	*	*	*	*	*	*	*	*	*	*	*	*	*	*	*custos:gg	*	*
!	!	!	!	!	!	!	!	!	!LO:LB:g=original	!	!	!	!	!	!	!	!	!	!	!	!	!	!	!	!	!	!	!	!	!	!	!	!	!	!	!	!	!	!	!	!LO:LB:g=original	!	!LO:LB:g=original	!	!
=49	=49	=49	=49	=49	=49	=49	=49	=49	=49	=49	=49	=49	=49	=49	=49	=49	=49	=49	=49	=49	=49	=49	=49	=49	=49	=49	=49	=49	=49	=49	=49	=49	=49	=49	=49	=49	=49	=49	=49	=49	=49	=49	=49	=49	=49
0C	.	.	0C	.	.	0C	.	2c\	0g	4ee\	4gg\	2C/	Kÿ-	.	2e\	Kÿ-	.	2g\	Kÿ-	.	2cc\	Kÿ-	.	0C	ſon,	.	0c	ſon,	.	0g	-ſon	.	0ee	ſon	.	0C	.	0G	.	2c\	0g	4ee\	4gg\	0C	.
.	.	.	.	.	.	.	.	.	.	4dd\	4ff\	.	.	.	.	.	.	.	.	.	.	.	.	.	.	.	.	.	.	.	.	.	.	.	.	.	.	.	.	.	.	4dd\	4ff\	.	.
.	.	.	.	.	.	.	.	2c\	.	4ee\	4gg\	2C/	-ri-	.	2e\	-ri-	.	2g\	-ri-	.	2cc\	-ri-	.	.	.	.	.	.	.	.	.	.	.	.	.	.	.	.	.	2c\	.	4ee\	4gg\	.	.
.	.	.	.	.	.	.	.	.	.	4ff\	4aa\	.	.	.	.	.	.	.	.	.	.	.	.	.	.	.	.	.	.	.	.	.	.	.	.	.	.	.	.	.	.	4ff\	4aa\	.	.
.	.	.	.	.	.	.	.	2c\	.	2ee\	2gg\	2C/	-e	.	2e\	-e	.	2g\	-e	.	2cc\	-e	.	.	.	.	.	.	.	.	.	.	.	.	.	.	.	.	.	2c\	.	2ee\	2gg\	.	.
*	*	*	*	*	*	*	*	*	*	*	*	*	*	*	*	*	*	*	*	*	*	*	*	*	*ij	*	*	*ij	*	*	*ij	*	*	*ij	*	*	*	*	*	*	*	*custos:ff	*	*	*
!	!	!	!	!	!	!	!	!	!	!	!	!	!	!	!	!	!	!	!	!	!	!	!	!	!	!	!	!	!	!	!	!	!	!	!	!	!	!	!	!	!	!LO:LB:g=original	!	!	!
.	.	.	.	.	.	.	.	2c\	.	2gg\	2ee\	2C/	e-	.	2e\	e-	.	2g\	e-	.	2cc\	e-	.	.	.	.	.	.	.	.	.	.	.	.	.	.	.	.	.	2c\	.	2ff\	2ee\	.	.
1GG	.	.	1GG	.	.	1GG	.	1B	1g	1bb	1gg	1G	-lei-	.	1d	-lei-	.	1g	-lei-	.	1b	-lei-	.	1r	.	.	1r	.	.	1r	.	.	1r	.	.	1GG	.	1G	.	1B	1g	1bb	1gg	1GG	.
!	!	!	!	!	!	!	!	!	!	!	!	!	!	!	!	!	!	!	!	!	!	!	!	!	!	!	!	!	!	!LO:LB:g=original	!	!	!	!	!	!	!	!	!	!	!	!	!	!	!
=50	=50	=50	=50	=50	=50	=50	=50	=50	=50	=50	=50	=50	=50	=50	=50	=50	=50	=50	=50	=50	=50	=50	=50	=50	=50	=50	=50	=50	=50	=50	=50	=50	=50	=50	=50	=50	=50	=50	=50	=50	=50	=50	=50	=50	=50
0C	.	.	0C	.	.	0C	.	2e\	2g\	4ee\	2gg\	0C	ſon	.	0c	ſon	.	0g	ſon	.	0ee	ſon	.	2C/	Kÿ-	.	2c\	Kÿ-	.	2g\	Kÿ-	.	2ee\	Kÿ-	.	2C/	.	2G\	.	2e\	2g\	4ee\	2gg\	0C	.
.	.	.	.	.	.	.	.	.	.	4dd\	.	.	.	.	.	.	.	.	.	.	.	.	.	.	.	.	.	.	.	.	.	.	.	.	.	.	.	.	.	.	.	4dd\	.	.	.
.	.	.	.	.	.	.	.	2e\	2g\	4ee\	2gg\	.	.	.	.	.	.	.	.	.	.	.	.	2C/	-ri-	.	2c\	-ri-	.	2g\	-ri-	.	2ee\	-ri-	.	2C/	.	2E/	.	2e\	2g\	4ee\	2gg\	.	.
.	.	.	.	.	.	.	.	.	.	4ff\	.	.	.	.	.	.	.	.	.	.	.	.	.	.	.	.	.	.	.	.	.	.	.	.	.	.	.	.	.	.	.	4ff\	.	.	.
.	.	.	.	.	.	.	.	2c\	2g\	2gg\	2gg\	.	.	.	.	.	.	.	.	.	.	.	.	2C/	-e	.	2c\	-e	.	2g\	-e	.	2ee\	-e	.	2C/	.	2E/	.	2c\	2g\	2gg\	2gg\	.	.
.	.	.	.	.	.	.	.	2c\	2g\	2ee\	2ee\	.	.	.	.	.	.	.	.	.	.	.	.	2C/	e-	.	2c\	e-	.	2g\	e-	.	2ee\	e-	.	2C/	.	2E/	.	2c\	2g\	2ee\	2ee\	.	.
1D	#	.	1D	#	.	1D	.	1A	1f#X	1ff#X	1aa	1r	.	.	1r	.	.	1r	.	.	1r	.	.	1D	-lei-	.	1A	-lei-	.	1f#X	-lei-	.	1dd	-lei-	.	1D	.	1A	.	1A	1f#X	1ff#X	1aa	1D	.
!	!	!	!	!	!	!	!	!	!	!	!	!	!	!	!	!	!	!	!	!	!	!	!	!	!	!	!	!	!	!	!	!	!	!	!	!	!	!	!	!LO:LB:g=original	!	!	!	!	!
=51	=51	=51	=51	=51	=51	=51	=51	=51	=51	=51	=51	=51	=51	=51	=51	=51	=51	=51	=51	=51	=51	=51	=51	=51	=51	=51	=51	=51	=51	=51	=51	=51	=51	=51	=51	=51	=51	=51	=51	=51	=51	=51	=51	=51	=51
*	*	*	*	*	*	*	*	*	*	*	*	*	*ij	*	*	*ij	*	*	*ij	*	*	*ij	*	*	*	*	*	*	*	*	*	*	*	*	*	*	*	*	*	*	*	*	*	*	*
0GG	#	.	0GG	.	.	0GG	.	2B\	0g	2dd\	2gg\	2G\	Kÿ-	.	2d\	Kÿ-	.	2g\	Kÿ-	.	2b\	Kÿ-	.	0GG	ſon	.	0B	ſon	.	0g	-ſon	.	0dd	-ſon	.	1.GG	.	1.G	.	2B\	0g	2dd\	2gg\	0GG	.
.	.	.	.	.	.	.	.	2B\	.	2dd\	2gg\	2G\	-ri-	.	2d\	-ri-	.	2g\	-ri-	.	2b\	-ri-	.	.	.	.	.	.	.	.	.	.	.	.	.	.	.	.	.	2B\	.	2dd\	2gg\	.	.
.	.	.	.	.	.	.	.	2B\	.	2dd\	2gg\	2G\	-e	.	2d\	-e	.	2g\	-e	.	2b\	-e	.	.	.	.	.	.	.	.	.	.	.	.	.	.	.	.	.	2B\	.	2dd\	2gg\	.	.
.	.	.	.	.	.	.	.	2B\	.	2b/	2bb\	2G\	e-	.	2d\	e-	.	2g\	e-	.	2b\	e-	.	.	.	.	.	.	.	.	.	.	.	.	.	2GG/	.	2B\	.	2B\	.	2b/	2bb\	.	.
1AA	#	.	1AA	#	.	1AA	.	1c#X	1e	1ee	1aa	1A	-lei-	.	1c#X	-lei-	.	1e	-lei-	.	1a	-lei-	.	1r	.	.	1r	.	.	1r	.	.	1r	.	.	1AA	.	1A	.	1c#X	1e	1ee	1aa	1AA	.
*	*	*	*	*	*	*	*	*	*	*	*	*	*	*	*	*	*	*	*	*	*	*	*	*	*	*	*	*	*	*	*	*	*	*	*	*custos:D	*	*	*	*	*	*	*	*	*
!	!	!	!	!	!	!	!	!	!	!	!	!	!	!	!	!	!	!	!	!	!	!	!	!	!	!	!	!	!	!	!	!	!	!	!	!LO:LB:g=original	!	!	!	!	!	!	!	!	!
=52	=52	=52	=52	=52	=52	=52	=52	=52	=52	=52	=52	=52	=52	=52	=52	=52	=52	=52	=52	=52	=52	=52	=52	=52	=52	=52	=52	=52	=52	=52	=52	=52	=52	=52	=52	=52	=52	=52	=52	=52	=52	=52	=52	=52	=52
0D	.	.	0D	.	.	0D	.	1.d	0f	2ff\	2aa\	0D	-ſon	.	0d	-ſon	.	0f	-ſon	.	0a	-ſon	.	2D/	Kÿ-	.	2d\	Kÿ-	.	2f\	Kÿ-	.	2a\	Kÿ-	.	1.D	.	0A	.	1.d	0f	2ff\	2aa\	0D	.
.	.	.	.	.	.	.	.	.	.	2ff\	2aa\	.	.	.	.	.	.	.	.	.	.	.	.	2D/	-ri-	.	2d\	-ri-	.	2f\	-ri-	.	2a\	-ri-	.	.	.	.	.	.	.	2ff\	2aa\	.	.
.	.	.	.	.	.	.	.	.	.	2dd\	2aa\	.	.	.	.	.	.	.	.	.	.	.	.	2D/	-e	.	2d\	-e	.	2f\	-e	.	2a\	-e	.	.	.	.	.	.	.	2dd\	2aa\	.	.
.	.	.	.	.	.	.	.	2d\	.	2ff\	2aa\	.	.	.	.	.	.	.	.	.	.	.	.	2D/	e-	.	2d\	e-	.	2f\	e-	.	2a\	e-	.	2D/	.	.	.	2d\	.	2ff\	2aa\	.	.
1E	#	.	1E	#	.	1E	.	1B	1e	1ee	1gg#X	1r	.	.	1r	.	.	1r	.	.	1r	.	.	1E	-lei-	.	1B	-lei-	.	1e	-lei-	.	1g#X	-lei-	.	1E	.	1G#X	.	1B	1e	1ee	1gg#X	1E	.
=53	=53	=53	=53	=53	=53	=53	=53	=53	=53	=53	=53	=53	=53	=53	=53	=53	=53	=53	=53	=53	=53	=53	=53	=53	=53	=53	=53	=53	=53	=53	=53	=53	=53	=53	=53	=53	=53	=53	=53	=53	=53	=53	=53	=53	=53
0AA	.	.	0AA	.	.	0AA	.	0.A	0.e	0.ee	0.aa	2AA/	Kÿ-	.	2c\	Kÿ-	.	2e\	Kÿ-	.	2a\	Kÿ-	.	0AA	ſon	.	0A	ſon	.	0e	-ſon	.	0a	-ſon	.	0.AA	.	0.c	.	0A	0.e	0ee	0.aa	0AA	.
.	.	.	.	.	.	.	.	.	.	.	.	2AA/	-ri-	.	2c\	-ri-	.	2e\	-ri-	.	2a\	-ri-	.	.	.	.	.	.	.	.	.	.	.	.	.	.	.	.	.	.	.	.	.	.	.
.	.	.	.	.	.	.	.	.	.	.	.	2AA/	-e	.	2c\	-e	.	2e\	-e	.	2a\	-e	.	.	.	.	.	.	.	.	.	.	.	.	.	.	.	.	.	.	.	.	.	.	.
*	*	*	*	*	*	*	*	*	*	*	*	*	*	*	*	*	*	*	*	*	*	*	*	*	*Xij	*	*	*Xij	*	*	*Xij	*	*	*Xij	*	*	*	*	*	*	*	*	*	*	*
!	!	!	!	!	!	!	!	!	!	!	!	!LO:LB:g=original	!	!	!	!	!	!	!	!	!	!	!	!	!	!	!	!	!	!	!	!	!	!	!	!	!	!	!	!	!	!	!	!	!
.	.	.	.	.	.	.	.	.	.	.	.	2AA/	e-	.	2c\	e-	.	2e\	e-	.	2a\	e-	.	.	.	.	.	.	.	.	.	.	.	.	.	.	.	.	.	.	.	.	.	.	.
!	!	!	!	!	!	!	!	!	!	!	!	!	!	!	!	!	!	!	!	!	!LO:TX:a:t=P:problem:# above	!	!	!	!	!	!	!	!	!	!	!	!	!	!	!	!	!	!	!	!	!	!	!	!
1E	#	.	1E	6	.	1E	.	.	.	.	.	1E	-lei-	.	1A	-lei-	.	1e	-lei-	.	1g#X	-lei-	.	1r	.	.	1r	.	.	1r	.	.	1r	.	.	.	.	.	.	1r	.	1r	.	1E	.
*custos:C	*	*	*	*	*	*	*	*	*	*	*	*	*	*	*	*	*	*	*	*	*	*	*	*	*	*	*	*	*	*	*	*	*	*	*	*	*	*	*	*	*	*	*	*	*
!LO:LB:g=original	!	!	!	!	!	!	!	!	!	!	!	!	!	!	!	!	!	!LO:LB:g=original	!	!	!LO:LB:g=original	!	!	!	!	!	!	!	!	!	!	!	!	!	!	!	!	!	!	!	!	!	!	!	!
=54	=54	=54	=54	=54	=54	=54	=54	=54	=54	=54	=54	=54	=54	=54	=54	=54	=54	=54	=54	=54	=54	=54	=54	=54	=54	=54	=54	=54	=54	=54	=54	=54	=54	=54	=54	=54	=54	=54	=54	=54	=54	=54	=54	=54	=54
1C	6	.	1C	6	.	1C	.	1%3r	1%3r	1%3r	1%3r	1C,	-ſon	.	1c	-ſon	.	1e	-ſon	.	(0a	-ſon	.	1%3r	.	.	1%3r	.	.	1%3r	.	.	1%3r	.	.	1%3r	.	1%3r	.	1%3r	1%3r	1%3r	1%3r	1C	.
*	*	*	*	*	*	*	*	*	*	*	*	*	*Xij	*	*	*Xij	*	*	*Xij	*	*	*	*	*	*	*	*	*	*	*	*	*	*	*	*	*	*	*	*	*	*	*	*	*	*
1D	6 5	.	1D	6 5	.	1D	.	.	.	.	.	1D	e-	.	1B	e-	.	1f	e-	.	.	.	.	.	.	.	.	.	.	.	.	.	.	.	.	.	.	.	.	.	.	.	.	1D	.
1E	#	.	1E	#	.	1E	.	.	.	.	.	1E	-lei-	.	1B	-lei-	.	1e	-lei-	.	1g#X)	.	.	.	.	.	.	.	.	.	.	.	.	.	.	.	.	.	.	.	.	.	.	1E	.
*	*	*	*	*	*	*	*	*	*	*	*	*	*	*	*	*	*	*	*	*	*	*Xij	*	*	*	*	*	*	*	*	*	*	*	*	*	*	*	*	*	*	*	*	*	*	*
!	!	!	!LO:LB:g=original	!	!	!	!	!	!	!LO:LB:g=original	!	!	!	!	!	!	!	!	!	!	!	!	!	!	!	!	!	!	!	!	!	!	!	!	!	!	!	!	!	!	!	!	!	!	!
=55	=55	=55	=55	=55	=55	=55	=55	=55	=55	=55	=55	=55	=55	=55	=55	=55	=55	=55	=55	=55	=55	=55	=55	=55	=55	=55	=55	=55	=55	=55	=55	=55	=55	=55	=55	=55	=55	=55	=55	=55	=55	=55	=55	=55	=55
*M4/4	*	*	*M4/4	*	*	*M4/4	*	*M4/4	*M4/4	*M4/4	*M4/4	*M4/4	*	*	*M4/4	*	*	*M4/4	*	*	*M4/4	*	*	*M4/4	*	*	*M4/4	*	*	*M4/4	*	*	*M4/4	*	*	*M4/4	*	*M4/4	*	*M4/4	*M4/4	*M4/4	*M4/4	*M4/4	*
*met(C)	*	*	*met(C)	*	*	*met(C|)	*	*met(C)	*met(C)	*met(C)	*met(C)	*met(C)	*	*	*met(C)	*	*	*met(C)	*	*	*met(C)	*	*	*met(C)	*	*	*met(C)	*	*	*met(C)	*	*	*met(C|)	*	*	*met(C)	*	*met(C)	*	*met(C)	*met(C)	*met(C|)	*met(C|)	*met(C|)	*
2AA/	.	.	2AA/	.	.	2AA/	.	2r	2r	2r	2r	2AA/	-ſon	.	2A/	-ſon	.	2e\	-ſon	.	2a\	.	.	2r	.	.	2r	.	.	2r	.	.	2r	.	.	2r	.	2r	.	2r	2r	2r	2r	2AA/	.
!	!	!	!LO:TX:b:t=tutti	!	!	!	!	!	!LO:TX:t=P:problem: nuta przekreślona/przedzielona	!	!	!	!	!	!LO:LB:g=original	!	!	!	!	!	!	!	!	!	!	!	!	!	!	!	!	!	!	!	!	!	!	!	!	!	!LO:TX:t=P:problem: nuta przekreślona/przedzielona	!	!	!	!
2.FF/	.	.	2.FF/	.	.	2.FF/	.	2.A/	1c\	2.ff\	2.ff\	2.FF/	Kÿ-	.	2.A/	Kÿ-	.	2.f\	Kÿ-	.	2.cc\	Kÿ-	.	2.F\	Kÿ-	.	2.c\	Kÿ-	.	2.f\	Kÿ-	.	2.a\	Kÿ-	.	2.FF/	.	2.F/	.	2.A/	1c/	2.ff\	2.aa\	2.FF/	.
*	*	*	*	*	*	*	*	*custos:A	*	*	*	*	*	*	*	*	*	*	*	*	*	*	*	*	*	*	*	*	*	*	*	*	*	*	*	*	*	*	*	*	*	*	*	*	*
!	!	!	!	!	!	!	!	!LO:LB:g=original	!	!	!	!	!	!	!	!	!	!	!	!	!	!	!	!	!	!	!	!	!	!	!	!	!	!	!	!	!	!	!	!	!	!	!	!	!
=56	=56	=56	=56	=56	=56	=56	=56	=56	=56	=56	=56	=56	=56	=56	=56	=56	=56	=56	=56	=56	=56	=56	=56	=56	=56	=56	=56	=56	=56	=56	=56	=56	=56	=56	=56	=56	=56	=56	=56	=56	=56	=56	=56	=56	=56
4FF/	.	.	4FF/	.	.	4FF/	.	4A/	.	4ff\	4ff\	4FF/	-ri-	.	4A/	-ri-	.	4f\	-ri-	.	4cc\	-ri-	.	4F\	-ri-	.	4c\	-ri-	.	4f\	-ri-	.	4a\	-ri-	.	4FF/	.	4F/	.	4A/	.	4ff\	4aa\	4FF/	.
!	!	!	!	!	!	!	!	!LO:TX:t=P:problem: nuta przekreślona/przedzielona	!	!	!LO:LB:g=original	!LO:TX:t=P:problem: nuta przekreślona/przedzielona	!	!	!	!	!	!LO:TX:t=P:problem: nuta przekreślona/przedzielona	!	!	!	!	!	!	!	!	!	!	!	!	!	!	!	!	!	!LO:TX:t=P:problem: nuta przekreślona/przedzielona	!	!LO:TX:t=P:problem: nuta przekreślona/przedzielona	!	!LO:TX:t=P:problem: nuta przekreślona/przedzielona	!	!	!	!FF	!
[>2FF/	.	.	[>2FF/	.	.	1FF/	.	1A/	2c/	2ff\	2aa\	1FF/	-e	.	2.A/	-e	.	1c\	-e	.	2cc\	-e	.	2F\	-e	.	2A/	-e	.	1f\	-e	.	2.cc\	-e	.	1FF/	.	1C/	.	1A/	2c/	2ff\	1aa\	1FF/	.
*	*	*	*	*	*	*custos:FF	*	*	*	*	*	*	*	*	*	*	*	*	*	*	*	*	*	*	*	*	*	*	*	*	*	*	*	*	*	*	*	*	*	*	*	*	*	*custos:FF	*
!	!	!	!	!	!	!LO:LB:g=original	!	!	!	!	!	!	!	!	!	!	!	!	!	!	!	!	!	!	!	!	!LO:LB:g=original	!	!	!LO:LB:g=original	!	!	!	!	!	!	!	!	!	!	!	!	!	!LO:LB:g=original	!
=57	=57	=57	=57	=57	=57	=57	=57	=57	=57	=57	=57	=57	=57	=57	=57	=57	=57	=57	=57	=57	=57	=57	=57	=57	=57	=57	=57	=57	=57	=57	=57	=57	=57	=57	=57	=57	=57	=57	=57	=57	=57	=57	=57	=57	=57
2FF]	.	.	2FF]	.	.	.	.	.	1c	2.cc\	2aa\	.	.	.	.	.	.	.	.	.	2a\	e-	.	2A\	e-	.	2F/	e-	.	.	.	.	.	.	.	.	.	.	.	.	1c	2.cc\	.	.	.
.	.	.	.	.	.	.	.	.	.	.	.	.	.	.	2c\	Kÿ-	.	.	.	.	.	.	.	.	.	.	.	.	.	.	.	.	(4dd\	e-	.	.	.	.	.	.	.	.	.	.	.
!	!	!	!	!	!	!	!	!	!	!	!	!	!	!	!	!	!	!	!	!	!	!	!	!LO:LB:g=original	!	!	!	!	!	!	!	!	!	!	!	!	!	!	!	!	!	!	!	!	!
2EE/	6	.	2EE/	6	.	2EE/	.	2G/	.	.	2.gg\	2EE/	Kÿ-	.	.	.	.	2c/	-e-	.	2.g/	-lei-	.	1c\	.	.	2C/	.	.	2g\	e-	.	2ee\)	.	.	2EE/	.	2E/	.	2G/	.	.	2.gg\	2EE/	.
.	.	.	.	.	.	.	.	.	.	4cc\	.	.	.	.	4G/	-ri-	.	.	.	.	.	.	.	.	.	.	.	.	.	.	.	.	.	.	.	.	.	.	.	.	.	4cc\	.	.	.
=58	=58	=58	=58	=58	=58	=58	=58	=58	=58	=58	=58	=58	=58	=58	=58	=58	=58	=58	=58	=58	=58	=58	=58	=58	=58	=58	=58	=58	=58	=58	=58	=58	=58	=58	=58	=58	=58	=58	=58	=58	=58	=58	=58	=58	=58
1GG	4:3	.	1GG	4:3	.	1GG	.	1G	1d	1dd	.	1GG	-ri-	.	4G/	-e-	.	1d	-lei-	.	.	.	.	.	.	.	1G	lei-	.	1g	-lei-	.	1dd	-lei-	.	1GG	.	1D	.	1G	1d	1dd	.	1GG	.
.	.	.	.	.	.	.	.	.	.	.	4aa\	.	.	.	8F/L	e-	.	.	.	.	(4a\	.	.	.	.	.	.	.	.	.	.	.	.	.	.	.	.	.	.	.	.	.	4aa\	.	.
.	.	.	.	.	.	.	.	.	.	.	.	.	.	.	8E/J	.	.	.	.	.	.	.	.	.	.	.	.	.	.	.	.	.	.	.	.	.	.	.	.	.	.	.	.	.	.
.	.	.	.	.	.	.	.	.	.	.	2bb\	.	.	.	4D/	-lei-	.	.	.	.	2b\)	.	.	2B\	lei-	.	.	.	.	.	.	.	.	.	.	.	.	.	.	.	.	.	2bb\	.	.
.	.	.	.	.	.	.	.	.	.	.	.	.	.	.	4G/	.	.	.	.	.	.	.	.	.	.	.	.	.	.	.	.	.	.	.	.	.	.	.	.	.	.	.	.	.	.
*	*	*	*	*	*	*	*	*	*	*	*	*	*	*	*	*	*	*	*	*	*	*	*	*	*	*	*	*	*	*	*	*	*	*	*	*	*	*	*	*	*	*	*custos:gg	*	*
!	!	!	!	!	!	!	!	!	!	!	!	!	!	!	!	!	!	!	!	!	!	!	!	!	!	!	!	!	!	!	!	!	!	!	!	!	!	!	!	!	!	!	!LO:LB:g=original	!	!
=59	=59	=59	=59	=59	=59	=59	=59	=59	=59	=59	=59	=59	=59	=59	=59	=59	=59	=59	=59	=59	=59	=59	=59	=59	=59	=59	=59	=59	=59	=59	=59	=59	=59	=59	=59	=59	=59	=59	=59	=59	=59	=59	=59	=59	=59
!LO:TX:t=P:problem: fermata dopisana ołówkiem	!	!	!	!	!	!	!	!	!	!	!	!	!	!	!	!	!	!	!	!	!	!	!	!	!	!	!	!	!	!	!	!	!	!	!	!	!	!	!	!	!	!	!	!	!
2C;</	.	.	2C;</	.	.	2C;</	.	2G/	2e\	2cc\	2gg\	2AA/	-e,	.	2E/	-ſon.	.	2e\	-ſon.	.	2g/	ſon	.	2c\	-ſon,	.	2C/	-ſon,	.	2g\	ſon.	.	2cc\	ſon	.	2C/	.	2C/	.	2G/	2e\	2cc\	2gg\	2C;</	.
4C/	.	.	4C/	.	.	4C/	.	4G/	4g\	4ee\	4gg\	4c\	Kÿ-	.	4e\	Kÿ-	.	4g\	Kÿ-	.	4g/	Kÿ-	.	2r	.	.	2r	.	.	2r	.	.	2r	.	.	4C/	.	4C/	.	4G/	4g\	4ee\	4gg\	4C/	.
8C/	.	.	8C/L	.	.	8C/	.	8G/L	8g\L	8ee\L	8gg\L	8c\	-ri-	.	8e\	-ri-	.	8g\	-ri-	.	8cc\	-ri-	.	.	.	.	.	.	.	.	.	.	.	.	.	8C/L	.	8G\L	.	8G/L	8g\L	8ee\L	8gg\L	8C/	.
8C/	.	.	8C/J	.	.	8C/	.	8G/J	8g\J	8cc\J	8gg\J	8c\	-e	.	8e\	-e	.	8g\	-e	.	8cc\	-e	.	.	.	.	.	.	.	.	.	.	.	.	.	8C/J	.	8G\J	.	8G/J	8g\J	8cc\J	8gg\J	8C/	.
*	*	*	*	*	*	*	*	*	*	*	*	*	*ij	*	*	*ij	*	*	*ij	*	*	*ij	*	*	*	*	*	*	*	*	*	*	*	*	*	*	*	*	*	*	*	*custos:dd	*	*	*
!	!	!	!	!	!	!	!	!	!	!	!	!	!	!	!	!	!	!	!	!	!	!	!	!	!	!	!	!	!	!	!	!	!	!	!	!	!	!	!	!	!	!LO:LB:g=original	!	!	!
=60	=60	=60	=60	=60	=60	=60	=60	=60	=60	=60	=60	=60	=60	=60	=60	=60	=60	=60	=60	=60	=60	=60	=60	=60	=60	=60	=60	=60	=60	=60	=60	=60	=60	=60	=60	=60	=60	=60	=60	=60	=60	=60	=60	=60	=60
4BB/	.	.	4BB/	6	.	4BB/	.	4G/	4g\	4dd\	16gg\LL	4B\	Kÿ-	.	4d\	Kÿ-	.	4g\	Kÿ-	.	4dd\	Kÿ-	.	2r	.	.	2r	.	.	2r	.	.	2r	.	.	4BB/	.	4D/	.	4G/	4g\	4dd\	16gg\LL	4BB/	.
.	.	.	.	.	.	.	.	.	.	.	16ff\	.	.	.	.	.	.	.	.	.	.	.	.	.	.	.	.	.	.	.	.	.	.	.	.	.	.	.	.	.	.	.	16ff\	.	.
.	.	.	.	.	.	.	.	.	.	.	16gg\	.	.	.	.	.	.	.	.	.	.	.	.	.	.	.	.	.	.	.	.	.	.	.	.	.	.	.	.	.	.	.	16gg\	.	.
.	.	.	.	.	.	.	.	.	.	.	16aa\JJ	.	.	.	.	.	.	.	.	.	.	.	.	.	.	.	.	.	.	.	.	.	.	.	.	.	.	.	.	.	.	.	16aa\JJ	.	.
8BB/	.	.	8BB/L	6	.	8BB/L	.	8G/L	8g\L	8dd\L	8gg\L	8B\	-ri-	.	8d\	-ri-	.	8g\	-ri-	.	8dd\	-ri-	.	.	.	.	.	.	.	.	.	.	.	.	.	8BB/L	.	8D/L	.	8G/L	8g\L	8dd\L	8gg\L	8BB/L	.
8BB/	.	.	8BB/J	6	.	8BB/J	.	8G/J	8g\J	8dd\J	8ff\J	8B\	-e	.	8d\	-e	.	8g\	-e	.	8dd\	-e	.	.	.	.	.	.	.	.	.	.	.	.	.	8BB/J	.	8D/J	.	8G/J	8g\J	8dd\J	8ff\J	8BB/J	.
*	*	*	*	*	*	*	*	*	*	*	*	*	*Xij	*	*	*Xij	*	*	*Xij	*	*	*Xij	*	*	*	*	*	*	*	*	*	*	*	*	*	*	*	*	*	*	*	*	*	*	*
2C/	.	.	2C/	.	.	2C/	.	4G/	4g\	16cc\LL	16ee\LL	8c\	Kÿ-	.	8c\	Kÿ-	.	8g\	Kÿ-	.	8ee\	Kÿ-	.	4c\	Kÿ-	.	4d\	Kÿ-	.	4g\	Kÿ-	.	4cc\	Kÿ-	.	8C/L	.	8G\L	.	4G/	4g\	16cc\LL	16ee\LL	2C/	.
.	.	.	.	.	.	.	.	.	.	16b\	16dd\	.	.	.	.	.	.	.	.	.	.	.	.	.	.	.	.	.	.	.	.	.	.	.	.	.	.	.	.	.	.	16b\	16dd\	.	.
.	.	.	.	.	.	.	.	.	.	16cc\	16ee\	8C/	-ri-	.	8c\	-ri-	.	8g\	-ri-	.	8ee\	-ri-	.	.	.	.	.	.	.	.	.	.	.	.	.	8C/	.	8G\	.	.	.	16cc\	16ee\	.	.
.	.	.	.	.	.	.	.	.	.	16dd\JJ	16ff\JJ	.	.	.	.	.	.	.	.	.	.	.	.	.	.	.	.	.	.	.	.	.	.	.	.	.	.	.	.	.	.	16dd\JJ	16ff\JJ	.	.
.	.	.	.	.	.	.	.	8G/L	8g\L	8ee\L	8gg\L	8C/	-e	.	8G/	-e	.	8g\	-e	.	8ee\	-e	.	8c\	-ri-	.	8c\	-ri-	.	8e\	-ri-	.	8cc\	-ri-	.	8C/	.	8E\	.	8G/L	8g\L	8ee\L	8gg\L	.	.
.	.	.	.	.	.	.	.	8G/J	8g\J	8ee\J	16aa\L	8C/	e-	.	8G/	e-	.	8g\	e-	.	8ee\	e-	.	8c\	-e	.	8c\	-e	.	8e\	-e	.	8g/	-e	.	8C/J	.	8G\J	.	8G/J	8g\J	8ee\J	16aa\L	.	.
.	.	.	.	.	.	.	.	.	.	.	16gg\JJ	.	.	.	.	.	.	.	.	.	.	.	.	.	.	.	.	.	.	.	.	.	.	.	.	.	.	.	.	.	.	.	16gg\JJ	.	.
=61	=61	=61	=61	=61	=61	=61	=61	=61	=61	=61	=61	=61	=61	=61	=61	=61	=61	=61	=61	=61	=61	=61	=61	=61	=61	=61	=61	=61	=61	=61	=61	=61	=61	=61	=61	=61	=61	=61	=61	=61	=61	=61	=61	=61	=61
*	*	*	*	*	*	*	*	*	*	*	*	*	*	*	*	*	*	*	*	*	*	*	*	*	*ij	*	*	*ij	*	*	*ij	*	*	*ij	*	*	*	*	*	*	*	*	*	*	*
2GG/	.	.	2GG/	.	.	2GG/	.	4B\	4g\	4dd\	4gg\	4G\	-lei	.	4B\	-lei	.	4g\	-lei	.	4ee\	-lei	.	4B\	Kÿ-	.	4d\	Kÿ-	.	4g\	Kÿ-	.	4g/	Kÿ-	.	4GG/	.	4G\	.	4B\	4g\	4dd\	4gg\	2GG/	.
.	.	.	.	.	.	.	.	4B\	4g\	4dd\	4gg\	4G\	ſon,	.	4B\	ſon,	.	4g,\	ſon.	.	4g,</	ſon	.	8B\	-ri-	.	8d\	-ri-	.	8g\	-ri-	.	8dd\	-ri-	.	4GG/	.	8D\L	.	4B\	4g\	4dd\	4gg\	.	.
.	.	.	.	.	.	.	.	.	.	.	.	.	.	.	.	.	.	.	.	.	.	.	.	8B\	-e	.	8d\	-e	.	8g\	-e	.	8dd\	-e	.	.	.	8G\J	.	.	.	.	.	.	.
*	*	*	*	*	*	*	*	*	*	*	*	*	*	*	*	*	*	*	*	*	*	*	*	*	*Xij	*	*	*Xij	*	*	*Xij	*	*	*Xij	*	*	*	*	*	*	*	*	*	*	*
2C/	.	.	2C/	.	.	2C/	.	4c\	4g\	4ee\	4gg\	4C/	Kÿ-	.	4G/	Kÿ-	.	4e\	Kÿ-	.	4g/	Kÿ-	.	8c\	Kÿ-	.	8e\	Kÿ-	.	8g\	Kÿ-	.	8ee\	Kÿ-	.	4C/	.	4E/	.	4c\	4g\	4ee\	4gg\	2C/	.
.	.	.	.	.	.	.	.	.	.	.	.	.	.	.	.	.	.	.	.	.	.	.	.	8C/	-ri-	.	8e\	-ri-	.	8g\	-ri-	.	8ee\	-ri-	.	.	.	.	.	.	.	.	.	.	.
.	.	.	.	.	.	.	.	8c\L	8g\L	8ee\L	8gg\L	8C/	-ri-	.	8G/	-ri-	.	8e\	-ri-	.	8cc\	-ri-	.	8C/	-e	.	8G/	-e	.	8g\	-e	.	8ee\	-e	.	8C/L	.	8E/L	.	8c\L	8g\L	8ee\L	8gg\L	.	.
.	.	.	.	.	.	.	.	8G\J	8g\J	8ee\J	8gg\J	8C/	-e,	.	8G/	-e,	.	8e\	-e,	.	8cc\	-e,	.	8C/	e-	.	8G/	e-	.	8g\	e-	.	8ee\	e-	.	8C/J	.	8E/J	.	8G\J	8g\J	8ee\J	8gg\J	.	.
!	!	!	!	!	!	!	!	!	!	!	!	!	!	!	!	!	!	!	!	!	!	!	!	!	!	!	!	!	!	!	!	!	!LO:LB:g=original	!	!	!	!	!	!	!LO:LB:g=original	!	!	!	!	!
=62	=62	=62	=62	=62	=62	=62	=62	=62	=62	=62	=62	=62	=62	=62	=62	=62	=62	=62	=62	=62	=62	=62	=62	=62	=62	=62	=62	=62	=62	=62	=62	=62	=62	=62	=62	=62	=62	=62	=62	=62	=62	=62	=62	=62	=62
*	*	*	*	*	*	*	*	*	*	*	*	*	*ij	*	*	*ij	*	*	*ij	*	*	*	*	*	*	*	*	*	*	*	*	*	*	*	*	*	*	*	*	*	*	*	*	*	*
2GG/	.	.	2GG/	.	.	2GG/	.	4B\	4g\	16b\LL	16gg\LL	4GG/	Kÿ-	.	4G/	Kÿ-	.	4g\	Kÿ-	.	4b\	Kÿ-	.	4G\	-lei-	.	4B\	-lei-	.	4g\	-lei-	.	4dd\	-lei-	.	4GG/	.	4G\	.	4B\	4g\	16b\LL	16gg\LL	2GG/	.
.	.	.	.	.	.	.	.	.	.	16a\	16ff\	.	.	.	.	.	.	.	.	.	.	.	.	.	.	.	.	.	.	.	.	.	.	.	.	.	.	.	.	.	.	16a\	16ff\	.	.
.	.	.	.	.	.	.	.	.	.	16b\	16gg\	.	.	.	.	.	.	.	.	.	.	.	.	.	.	.	.	.	.	.	.	.	.	.	.	.	.	.	.	.	.	16b\	16gg\	.	.
.	.	.	.	.	.	.	.	.	.	16cc\JJ	16aa\JJ	.	.	.	.	.	.	.	.	.	.	.	.	.	.	.	.	.	.	.	.	.	.	.	.	.	.	.	.	.	.	16cc\JJ	16aa\JJ	.	.
.	.	.	.	.	.	.	.	8B\L	8g\L	8dd\L	8bb\L	8GG/	-ri-	.	8G/	-ri-	.	8g\	-ri-	.	8b\	-ri-	.	4G\	ſon.	.	4B\	ſon.	.	4g\	-ſon.	.	4dd\	ſon	.	8GG/L	.	8D\L	.	8B\L	8g\L	8dd\L	8bb\L	.	.
.	.	.	.	.	.	.	.	8B\J	8g\J	8dd\J	8bb\J	8GG/	-e	.	8G/	-e	.	8g\	-e	.	8b\	-e	.	.	.	.	.	.	.	.	.	.	.	.	.	8GG/J	.	8G\J	.	8B\J	8g\J	8dd\J	8bb\J	.	.
*	*	*	*	*	*	*	*	*	*	*	*	*	*Xij	*	*	*Xij	*	*custos:e	*Xij	*	*	*	*	*	*	*	*	*	*	*	*	*	*	*	*	*	*	*	*	*	*	*	*	*	*
!	!	!	!	!	!	!	!	!	!	!	!	!LO:LB:g=original	!	!	!	!	!	!LO:LB:g=original	!	!	!LO:LB:g=original	!	!	!	!	!	!	!	!	!	!	!	!	!	!	!	!	!	!	!	!LO:LB:g=original	!	!	!	!
2C/	.	.	2C/	.	.	2C/	.	8G/L	4g\	8ee\L	8gg\L	8C/	Kÿ-	.	8G/	Kÿ-	.	8e\	Kÿ-	.	8cc\	Kÿ-	.	4C/	Kÿ-	.	4G/	Kÿ-	.	4g\	Kÿ-	.	4cc\	Kÿ-	.	4C/	.	4E/	.	8G/L	4g\	8ee\L	8gg\L	2C/	.
.	.	.	.	.	.	.	.	8G/	.	8ee\	8gg\	8C/	-ri-	.	8G/	-ri-	.	8e\	-ri-	.	8cc\	-ri-	.	.	.	.	.	.	.	.	.	.	.	.	.	.	.	.	.	8G/	.	8ee\	8gg\	.	.
.	.	.	.	.	.	.	.	8G/	8g\L	8ee\	8gg\	8C/	-e	.	8G/	-e	.	8g\	-e	.	8ee\	-e	.	8C/	-ri-	.	8c\	-ri-	.	8e\	-ri-	.	8cc\	-ri-	.	8C/L	.	8E/L	.	8G/	8g\L	8ee\	8gg\	.	.
.	.	.	.	.	.	.	.	8G/J	8g\J	8ee\J	8gg\J	8C/	e-	.	8G/	e-	.	8g\	e-	.	8ee\	e-	.	8C/	-e	.	8c\	-e	.	8e\	-e	.	8cc\	-e	.	8C/J	.	8E/J	.	8G/J	8g\J	8ee\J	8gg\J	.	.
!	!	!	!	!	!	!	!	!	!LO:LB:g=original	!	!	!	!	!	!	!	!	!	!	!	!	!	!	!	!	!	!	!	!	!LO:LB:g=original	!	!	!	!	!	!LO:LB:g=original	!	!	!	!	!	!	!	!	!
=63	=63	=63	=63	=63	=63	=63	=63	=63	=63	=63	=63	=63	=63	=63	=63	=63	=63	=63	=63	=63	=63	=63	=63	=63	=63	=63	=63	=63	=63	=63	=63	=63	=63	=63	=63	=63	=63	=63	=63	=63	=63	=63	=63	=63	=63
*	*	*	*	*	*	*	*	*	*	*	*	*	*	*	*	*	*	*	*	*	*	*	*	*	*	*	*	*ij	*	*	*ij	*	*	*ij	*	*	*	*	*	*	*	*	*	*	*
2GG/	.	.	2GG/	.	.	2GG/	.	4B\	4g\	16dd\LL	16b\LL	4G\	-lei-	.	4B\	-lei-	.	4g\	-lei-	.	4dd\	-lei-	.	4GG/	Kÿ-	.	4d\	Kÿ-	.	4g\	Kÿ-	.	4b\	Kÿ-	.	2GG/	.	2BB/	.	4B\	4g\	16dd\LL	16b\LL	2GG/	.
.	.	.	.	.	.	.	.	.	.	16cc\	16a\	.	.	.	.	.	.	.	.	.	.	.	.	.	.	.	.	.	.	.	.	.	.	.	.	.	.	.	.	.	.	16cc\	16a\	.	.
.	.	.	.	.	.	.	.	.	.	16b\	16b\	.	.	.	.	.	.	.	.	.	.	.	.	.	.	.	.	.	.	.	.	.	.	.	.	.	.	.	.	.	.	16b\	16b\	.	.
.	.	.	.	.	.	.	.	.	.	16a\JJ	16cc\JJ	.	.	.	.	.	.	.	.	.	.	.	.	.	.	.	.	.	.	.	.	.	.	.	.	.	.	.	.	.	.	16a\JJ	16cc\JJ	.	.
.	.	.	.	.	.	.	.	4B\	4d\	8b/L	8dd\L	4G\	ſon	.	4B\	ſon	.	4d\	ſon.	.	4dd\	ſon.	.	8GG/	-ri-	.	8d\	-ri-	.	8g\	-ri-	.	8b\	-ri-	.	.	.	.	.	4B\	4d\	8b/L	8dd\L	.	.
.	.	.	.	.	.	.	.	.	.	8b/J	8dd\J	.	.	.	.	.	.	.	.	.	.	.	.	8GG/	-e	.	8d\	-e	.	8g\	-e	.	8b\	-e	.	.	.	.	.	.	.	8b/J	8dd\J	.	.
!	!	!	!	!	!	!	!	!	!	!LO:LB:g=original	!	!	!	!	!	!	!	!	!	!	!	!	!	!	!	!	!	!	!	!	!	!	!	!	!	!	!	!	!	!	!	!	!	!	!
*	*	*	*	*	*	*	*	*	*	*	*	*	*	*	*	*	*	*	*	*	*	*	*	*	*	*	*	*Xij	*	*	*Xij	*	*	*ij	*	*	*	*	*	*	*	*	*	*	*
2C/	.	.	2C/	.	.	2C/	.	2c\	2e\	16cc\LL	16cc\LL	2r	.	.	2r	.	.	2r	.	.	2r	.	.	8C/	Kÿ-	.	8e\	Kÿ-	.	8g\	Kÿ-	.	8cc\	Kÿ-	.	2C/	.	2E/	.	2c\	2e\	16cc\LL	16cc\LL	2C/	.
.	.	.	.	.	.	.	.	.	.	16b\	16dd\	.	.	.	.	.	.	.	.	.	.	.	.	.	.	.	.	.	.	.	.	.	.	.	.	.	.	.	.	.	.	16b\	16dd\	.	.
.	.	.	.	.	.	.	.	.	.	16cc\	16ee\	.	.	.	.	.	.	.	.	.	.	.	.	8C/	-ri-	.	8e\	-ri-	.	8g\	-ri-	.	8cc\	-ri-	.	.	.	.	.	.	.	16cc\	16ee\	.	.
.	.	.	.	.	.	.	.	.	.	16dd\JJ	16ff\JJ	.	.	.	.	.	.	.	.	.	.	.	.	.	.	.	.	.	.	.	.	.	.	.	.	.	.	.	.	.	.	16dd\JJ	16ff\JJ	.	.
.	.	.	.	.	.	.	.	.	.	8ee\L	8gg\L	.	.	.	.	.	.	.	.	.	.	.	.	8C/	-e	.	8e\	-e	.	8g\	-e	.	8cc\	-e	.	.	.	.	.	.	.	8ee\L	8gg\L	.	.
.	.	.	.	.	.	.	.	.	.	8ee\J	8gg\J	.	.	.	.	.	.	.	.	.	.	.	.	8C/	e-	.	8e\	e-	.	8g\	e-	.	8cc\	e-	.	.	.	.	.	.	.	8ee\J	8gg\J	.	.
!	!	!	!	!	!	!	!	!	!	!	!LO:LB:g=original	!	!	!	!LO:LB:g=original	!	!	!	!	!	!	!	!	!	!	!	!	!	!	!	!	!	!	!	!	!	!	!	!	!	!	!	!	!	!
=64	=64	=64	=64	=64	=64	=64	=64	=64	=64	=64	=64	=64	=64	=64	=64	=64	=64	=64	=64	=64	=64	=64	=64	=64	=64	=64	=64	=64	=64	=64	=64	=64	=64	=64	=64	=64	=64	=64	=64	=64	=64	=64	=64	=64	=64
4GG/	.	.	4GG/	.	.	4GG/	.	1r	1r	4dd\	2gg\	1r	.	.	1r	.	.	1r	.	.	1r	.	.	4G\	-lei-	.	4d\	-lei-	.	4g\	-lei-	.	4b\	-lei-	.	1r	.	1r	.	1r	1r	4dd\	2gg\	4GG/	.
4EE/	6	.	4EE/	6	.	4EE/	.	.	.	4r	.	.	.	.	.	.	.	.	.	.	.	.	.	8E\	ſon,	.	8c\	ſon,	.	8g,\	-ſon	.	8ee\	ſon	.	.	.	.	.	.	.	4r	.	4EE/	.
.	.	.	.	.	.	.	.	.	.	.	.	.	.	.	.	.	.	.	.	.	.	.	.	8E\	e-	.	8c\	e-	.	8g\	e-	.	8ee\	e-	.	.	.	.	.	.	.	.	.	.	.
4FF/	6	.	4FF/	6 5	.	4FF/	.	.	.	2r	2r	.	.	.	.	.	.	.	.	.	.	.	.	(4F\	-lei-	.	(4c\	-lei-	.	(4a\	-lei-	.	2dd\	-lei-	.	.	.	.	.	.	.	2r	2r	4FF/	.
4GG/	.	.	4GG/	.	.	4GG/	.	.	.	.	.	.	.	.	.	.	.	.	.	.	.	.	.	4G\)	.	.	4B\)	.	.	4g\)	.	.	.	.	.	.	.	.	.	.	.	.	.	4GG/	.
*	*	*	*	*	*	*custos:C	*	*	*	*	*	*	*	*	*	*	*	*	*	*	*	*	*	*custos:C	*	*	*	*	*	*	*	*	*	*	*	*	*	*	*	*	*	*	*	*	*
!	!	!	!	!	!	!LO:PB:g=original	!	!	!	!	!	!	!	!	!	!	!	!	!	!	!	!	!	!LO:LB:g=original	!	!	!	!	!	!	!	!	!	!	!	!	!	!	!	!	!	!	!	!	!
=65	=65	=65	=65	=65	=65	=65	=65	=65	=65	=65	=65	=65	=65	=65	=65	=65	=65	=65	=65	=65	=65	=65	=65	=65	=65	=65	=65	=65	=65	=65	=65	=65	=65	=65	=65	=65	=65	=65	=65	=65	=65	=65	=65	=65	=65
4C/	.	.	4C/	.	.	4C/	.	4r	4r	4r	4r	4r	.	.	4r	.	.	4r	.	.	4r	.	.	4C/	ſon,	.	4c\	ſon,	.	4g\	-ſon,	.	4cc\	-ſon.	.	4r	.	4r	.	4r	4r	4r	4r	4C/	.
8C/	.	.	8C/L	.	.	8C/L	.	8G/L	8c/L	8ee\L	8gg\L	8C/	Kÿ-	.	8G/	Kÿ-	.	8e\	Kÿ-	.	8cc\	Kÿ-	.	8C/	Kÿ-	.	8c\	Kÿ-	.	8g\	Kÿ-	.	8ee\	Kÿ-	.	8C/L	.	8E/L	.	8G/L	8e/L	8ee\L	8gg\L	8C/L	.
8C/	.	.	8C/J	.	.	8C/J	.	8G/J	8c/J	8ee\J	8gg\J	8C/	-ri-	.	8G/	-ri-	.	8e\	-ri-	.	8cc\	-ri-	.	8C/	-ri-	.	8c\	-ri-	.	8g\	-ri-	.	8ee\	-ri-	.	8C/J	.	8E/J	.	8G/J	8e/J	8ee\J	8gg\J	8C/J	.
!	!	!	!	!	!	!	!	!	!	!	!	!	!	!	!	!	!	!	!	!	!	!	!	!	!	!	!LO:LB:g=original	!	!	!	!	!	!	!	!	!	!	!	!	!	!	!	!	!	!
2C/	.	.	2C/	.	.	2C/	.	2G/	2c/	2ee\	2gg\	2C/	-e.	.	2G/	-e.	.	2e\	-e.	.	2cc\	-e,	.	2C/	-e,	.	2c\	-e,	.	2g\	-e	.	2ee\	-e,	.	2C/	.	2E/	.	2G/	2e/	2ee\	2gg\	2C/	.
*custos:C	*	*	*	*	*	*	*	*	*	*	*	*	*	*	*	*	*	*	*	*	*	*ij	*	*	*	*	*	*	*	*	*	*	*	*	*	*	*	*	*	*	*	*custos:ee	*custos:gg	*	*
!LO:LB:g=original	!	!	!	!	!	!	!	!	!	!	!	!	!	!	!	!	!	!	!	!	!	!	!	!	!	!	!	!	!	!	!	!	!	!	!	!	!	!	!	!	!	!LO:LB:g=original	!LO:LB:g=original	!	!
=66	=66	=66	=66	=66	=66	=66	=66	=66	=66	=66	=66	=66	=66	=66	=66	=66	=66	=66	=66	=66	=66	=66	=66	=66	=66	=66	=66	=66	=66	=66	=66	=66	=66	=66	=66	=66	=66	=66	=66	=66	=66	=66	=66	=66	=66
2C/	.	.	2C/	.	.	2C/	.	4G/	8e\L	8ee\L	8gg\L	8C/	Ki-	.	8G/	Ki-	.	8e\	Ki-	.	8cc\	Ki-	.	8C/	Kÿ-	.	8c\	Kÿ-	.	8g\	Kÿ-	.	8ee\	Ki-	.	8C/L	.	8E/L	.	4G/	8e\L	8ee\L	8gg\L	2C/	.
.	.	.	.	.	.	.	.	.	8e\	8ee\	8gg\	8C/	-ri-	.	8G/	-ri-	.	8e\	-ri-	.	8cc\	-ri-	.	8C/	-ri-	.	8c\	-ri-	.	8g\	-ri-	.	8ee\	-ri-	.	8C/	.	8E/	.	.	8e\	8ee\	8gg\	.	.
.	.	.	.	.	.	.	.	8G/L	8e\	8ee\	8gg\	8C/	-e	.	8G/	-e	.	8e\	-e	.	8cc\	-e	.	8C/	-e	.	8c\	-e	.	8g\	-e	.	8ee\	-e	.	8C/	.	8E/	.	8G/L	8e\	8ee\	8gg\	.	.
*	*	*	*	*	*	*	*	*	*	*	*	*	*	*	*	*	*	*	*	*	*	*Xij	*	*	*	*	*	*	*	*	*	*	*	*	*	*	*	*	*	*	*	*	*	*	*
.	.	.	.	.	.	.	.	8G/J	8e\J	8ee\J	8gg\J	8C/	e-	.	8G/	e-	.	8e\	e-	.	8cc\	e-	.	8C/	e-	.	8c\	e-	.	8g\	e-	.	8ee\	e-	.	8C/J	.	8E/J	.	8G/J	8e\J	8ee\J	8gg\J	.	.
*	*	*	*custos:C	*	*	*	*	*	*	*	*	*	*	*	*	*	*	*	*	*	*	*	*	*	*	*	*	*	*	*	*	*	*	*	*	*	*	*	*	*	*	*	*	*	*
!	!	!	!LO:LB:g=original	!	!	!	!	!	!	!	!	!	!	!	!	!	!	!	!	!	!	!	!	!	!	!	!	!	!	!	!	!	!	!	!	!	!	!	!	!	!	!	!	!	!
4.C/	.	.	4.C/	.	.	4.C/	.	4G/	4c/	4ee\	4gg\	4C/	-lei-	.	4G/	-lei-	.	4e\	-lei-	.	4cc\	-lei-	.	4C/	-lei-	.	4c\	-lei-	.	4g\	-lei-	.	4ee\	-lei-	.	4C/	.	4E/	.	4G/	4c/	4ee\	4gg\	4.C/	.
.	.	.	.	.	.	.	.	8G/L	8c/L	8ee\L	8gg\L	8C/	-ſon	.	8G/	-ſon	.	8g\	-ſon	.	8ee\	-ſon	.	8C/	ſon,	.	8G/	ſon,	.	8e\	-ſon.	.	8cc,\	-ſon.	.	8C/L	.	8E/L	.	8G/L	8c/L	8ee\L	8gg\L	.	.
8C/	.	.	8C/	.	.	8C/	.	8G/J	8c/J	8ee\J	8gg\J	8C/	e-	.	8c\	e-	.	8g\	e-	.	8ee\	e-	.	8C/	e-	.	8G/	e-	.	8e\	e-	.	8cc\	e-	.	8C/J	.	8E/J	.	8G/J	8c/J	8ee\J	8gg\J	8C/	.
!	!	!	!	!	!	!	!	!LO:LB:g=original	!	!	!	!	!	!	!	!	!	!	!	!	!	!	!	!	!	!	!	!	!	!	!	!	!	!	!	!	!	!	!	!	!	!	!	!LO:PB:g=original	!
=67	=67	=67	=67	=67	=67	=67	=67	=67	=67	=67	=67	=67	=67	=67	=67	=67	=67	=67	=67	=67	=67	=67	=67	=67	=67	=67	=67	=67	=67	=67	=67	=67	=67	=67	=67	=67	=67	=67	=67	=67	=67	=67	=67	=67	=67
4.C/	.	.	4.C/	.	.	4.C/	.	4c\	4e\	4ee\	4gg\	4C/	-lei-	.	4c\	-lei-	.	4g\	-lei-	.	4ee\	-lei-	.	4C/	-lei-	.	4G/	-lei-	.	4e\	-lei-	.	4cc\	-lei-	.	4C/	.	4E/	.	4c\	4e\	4ee\	4gg\	4.C/	.
.	.	.	.	.	.	.	.	8G/L	8e\L	8ee\L	8gg\L	8C/	-ſon.	.	8c\	-ſon.	.	8e\	-ſon.	.	8cc\	-ſon	.	8C/	ſon.	.	8G/	ſon.	.	8g\	ſon.	.	8ee\	ſon.	.	8C/L	.	8E/L	.	8G/L	8e\L	8ee\L	8gg\L	.	.
8C/	.	.	8C/	.	.	8C/	.	8G/J	8e\J	8cc\J	8gg\J	8C/	e-	.	8c\	e-	.	8e\	e-	.	8g/	e-	.	8C/	e-	.	8c\	e-	.	8g\	e-	.	8ee\	e-	.	8C/J	.	8E/J	.	8G/J	8e\J	8cc\J	8gg\J	8C/	.
2GG/	.	.	2GG/	.	.	2GG/	.	2B\	2g\	2dd\	2gg\	2GG/	-lei-	.	(4.d\	-lei-	.	2g\	-lei-	.	2b\	-lei-	.	2G\	-lei-	.	2B\	-lei-	.	2g\	-lei-	.	2dd\	-lej-	.	2GG/	.	2D/	.	2B\	2g\	2dd\	2gg\	2GG/	.
.	.	.	.	.	.	.	.	.	.	.	.	.	.	.	8G/)	.	.	.	.	.	.	.	.	.	.	.	.	.	.	.	.	.	.	.	.	.	.	.	.	.	.	.	.	.	.
=68	=68	=68	=68	=68	=68	=68	=68	=68	=68	=68	=68	=68	=68	=68	=68	=68	=68	=68	=68	=68	=68	=68	=68	=68	=68	=68	=68	=68	=68	=68	=68	=68	=68	=68	=68	=68	=68	=68	=68	=68	=68	=68	=68	=68	=68
2C/	.	.	2C/	.	.	2C/	.	2G/	2e\	2ee\	2gg\	2C/	-ſon.	.	2G/	-ſon.	.	2e\	-ſon.	.	2g/	-ſon.	.	2C/	ſon.	.	2c\	ſon.	.	2g\	ſon.	.	2cc\	-ſon.	.	2C/	.	2C/	.	2G/	2e\	2ee\	2gg\	2C/	.
!	!	!	!	!	!	!	!	!	!	!	!	!	!	!LO:DY:a:t=pia	!	!	!LO:DY:a:t=pia	!	!	!	!	!	!	!	!	!	!	!	!	!	!	!LO:DY:a:t=pia	!	!	!LO:DY:a:t=pia	!	!	!	!	!	!	!	!	!	!
*	*	*	*	*	*	*	*	*	*	*	*	*	*	*	*	*	*	*	*	*	*	*	*	*	*	*	*	*	*	*	*	*	*	*Xij	*	*	*	*	*	*	*	*	*	*	*
!	!	!LO:DY:b:t=piano	!	!	!LO:DY:b:t=pian.	!	!LO:DY:b:t=piano	!	!	!	!	!	!	!	!	!	!	!	!	!LO:DY:a:t=pia	!	!	!LO:DY:b:t=pia	!	!	!LO:DY:b:t=pia	!	!	!LO:DY:b:t=pian.	!	!	!	!	!	!	!	!LO:DY:b:t=pia.	!LO:LB:g=original	!LO:DY:b:t=p.	!	!	!	!	!	!LO:DY:b:t=piano
4.C/	.	p	4.C/	.	p	4.C/	p	8G/L	8e\L	8ee\L	8gg\L	8C/	Kÿ-	p	8c\	Kÿ-	p	8e\	Kÿ-	p	8g/	Kÿ-	p	8C/	Kÿ-	p	8G/	Kÿ-	p	8e\	Kÿ-	p	8cc\	Kÿ-	p	8C/L	p	8E/L	p	8G/L	8e\L	8ee\L	8gg\L	4.C/	p
.	.	.	.	.	.	.	.	8G/	8e\	8ee\	8gg\	8C/	-ri-	.	8c\	-ri-	.	8e\	-ri-	.	8g/	-ri-	.	8C/	-ri-	.	8G/	-ri-	.	8e\	-ri-	.	8cc\	-ri-	.	8C/	.	8E/	.	8G/	8e\	8ee\	8gg\	.	.
.	.	.	.	.	.	.	.	8G/	8e\	8ee\	8gg\	8C/	-e	.	8c\	-e	.	8e\	-e	.	8g/	-e	.	8C/	-e	.	8G/	-e	.	8e\	-e	.	8cc\	-e	.	8C/	.	8E/	.	8G/	8e\	8ee\	8gg\	.	.
8C/	.	.	8C/	.	.	8C/	.	8G/J	8e\J	8ee\J	8gg\J	8C/	e-	.	8c\	e-	.	8e\	e-	.	8g/	e-	.	8C/	e-	.	8G/	e-	.	8e\	e-	.	8cc\	e-	.	8C/J	.	8E/J	.	8G/J	8e\J	8ee\J	8gg\J	8C/	.
!	!	!	!	!	!	!	!	!	!	!	!	!	!	!	!	!	!	!	!	!	!	!	!	!	!	!	!	!	!	!	!	!	!LO:LB:g=original	!	!	!	!	!	!	!	!	!	!	!	!
=69	=69	=69	=69	=69	=69	=69	=69	=69	=69	=69	=69	=69	=69	=69	=69	=69	=69	=69	=69	=69	=69	=69	=69	=69	=69	=69	=69	=69	=69	=69	=69	=69	=69	=69	=69	=69	=69	=69	=69	=69	=69	=69	=69	=69	=69
2C/	.	.	2C/	.	.	2C/	.	4G/	4e\	4ee\	4gg\	4C/	-lei-	.	4c\	-lei-	.	4e\	-lei-	.	4cc\	-lei-	.	4C/	-lei-	.	4G/	-lei-	.	4g\	-lei-	.	4ee\	-lei-	.	4C/	.	4E/	.	4G/	4e\	4ee\	4gg\	2C/	.
.	.	.	.	.	.	.	.	8G/L	8e\L	8ee\L	8gg\L	8C/	ſon.	.	8G/	ſon.	.	8e\	ſon.	.	8cc\	ſon.	.	8C/	-son	.	8G/	-son	.	8g\	-ſon	.	8ee,\	ſon.	.	8C/L	.	8E/L	.	8G/L	8e\L	8ee\L	8gg\L	.	.
*	*	*	*	*	*	*	*	*	*	*	*	*	*	*	*	*	*	*	*	*	*	*	*	*	*	*	*	*	*	*	*	*	*	*ij	*	*	*	*	*	*	*	*	*	*	*
.	.	.	.	.	.	.	.	8G/J	8e\J	8ee\J	8gg\J	8C/	e-	.	8G/	e-	.	8e\	e-	.	8cc\	e-	.	8C/	e-	.	8G/	e-	.	8g\	e-	.	8ee\	Kÿ-	.	8C/J	.	8E/J	.	8G/J	8e\J	8ee\J	8gg\J	.	.
!	!	!	!	!	!	!	!	!	!	!	!	!	!	!	!	!	!	!LO:LB:g=original	!	!	!LO:LB:g=original	!	!	!	!	!	!	!	!	!LO:LB:g=original	!	!	!	!	!	!	!	!	!	!	!	!	!	!	!
2C/	.	.	2C/	.	.	2C/	.	4G/	4e\	4ee\	4gg\	4C/	-lei	.	4G/	-lei	.	4g\	-lei	.	4ee\	-lei	.	4C/	-lei-	.	4G/	-lei-	.	4g\	-lei-	.	4cc\	-ri-	.	4C/	.	4E/	.	4G/	4e\	4ee\	4gg\	2C/	.
.	.	.	.	.	.	.	.	8G/L	8e\L	8ee\L	8gg\L	8C/	ſon	.	8G/	ſon	.	8g\	ſon	.	8ee\	ſon	.	8C/	ſon.	.	8c\	ſon.	.	8g\	-ſon.	.	8cc,\	-e	.	8C/L	.	8E/L	.	8G/L	8e\L	8ee\L	8gg\L	.	.
*	*	*	*	*	*	*	*	*	*	*	*	*	*	*	*	*	*	*	*ij	*	*	*	*	*	*	*	*	*ij	*	*	*ij	*	*	*	*	*	*	*	*	*	*	*	*	*	*
.	.	.	.	.	.	.	.	8G/J	8e\J	8cc\J	8gg\J	8C/	-e	.	8G/	-e	.	8g\	-e	.	8ee\	-e	.	8C/	e-	.	8c\	e-	.	8g\	e-	.	8cc\	e	.	8C/J	.	8E/J	.	8G/J	8e\J	8cc\J	8gg\J	.	.
!	!	!	!	!	!	!	!	!	!	!	!	!LO:LB:g=original	!	!	!	!	!	!	!	!	!	!	!	!	!	!	!	!	!	!	!	!	!	!	!	!	!	!	!	!LO:LB:g=original	!	!	!	!	!
=70	=70	=70	=70	=70	=70	=70	=70	=70	=70	=70	=70	=70	=70	=70	=70	=70	=70	=70	=70	=70	=70	=70	=70	=70	=70	=70	=70	=70	=70	=70	=70	=70	=70	=70	=70	=70	=70	=70	=70	=70	=70	=70	=70	=70	=70
2GG/	.	.	2GG/	.	.	2GG/	.	2G/	2d\	2dd\	2gg\	2GG/	lei-	.	2G/	lei-	.	2g\	lei-	.	2dd\	lei-	.	2G\	-lei-	.	2d\	-lei-	.	2g\	-lei-	.	2b\	lei-	.	2GG/	.	2D/	.	2G/	2d\	2dd\	2gg\	2GG/	.
!	!	!LO:DY:b:t=forte	!	!	!LO:DY:b:t=forte	!	!LO:DY:b:t=forte	!	!	!	!	!	!	!	!	!	!	!	!	!LO:DY:a	!	!	!LO:DY:a	!	!	!LO:DY:b:t=fort	!	!	!LO:DY:a	!	!	!LO:DY:a:t=fort	!	!	!LO:DY:a:t=fort	!	!	!	!	!	!	!	!	!	!LO:DY:b:t=forte
4C/	.	f	4C/	.	f	4C/	f	4G/	4e\	4ee\	4gg\	4C/	-ſon.	.	4G/	-ſon.	.	4g\	-ſon.	f	4cc\	-ſon.	f	4C/	-ſon	f	4e\	-ſon	f	4e\	-ſon.	f	4cc,\	-ſon.	f	4C/	.	4C/	.	4G/	4e\	4ee\	4gg\	4C/	f
*	*	*	*	*	*	*	*	*	*	*	*	*	*	*	*	*	*	*	*Xij	*	*	*	*	*	*	*	*	*Xij	*	*	*Xij	*	*	*Xij	*	*	*	*	*	*	*	*	*	*	*
!	!	!	!	!	!	!	!	!	!	!	!	!	!	!LO:DY:b	!	!	!	!	!	!	!	!	!	!	!	!	!	!	!	!	!	!	!	!	!	!	!	!	!	!	!	!	!	!	!
8C/	.	.	8C/L	.	.	8C/L	.	8G/L	8e\L	8ee\L	8gg\L	8C/	Kÿ-	f	8G/	Kÿ-	.	8g\	Kÿ-	.	8cc\	Kÿ-	.	8C/	Kÿ-	.	8e\	Kÿ-	.	8e\	Kÿ-	.	8cc\	Kÿ-	.	8C/L	.	8E/L	f	8G/L	8e\L	8ee\L	8gg\L	8C/L	.
8C/	.	.	8C/J	.	.	8C/J	.	8G/J	8e\J	8ff\J	8gg\J	8C/	-ri-	.	8G/	-ri-	.	8g\	-ri-	.	8cc\	-ri-	.	8C/	-ri-	.	8e\	-ri-	.	8e\	-ri-	.	8cc\	-ri-	.	8C/J	.	8E/J	.	8G/J	8e\J	8ff\J	8gg\J	8C/J	.
*	*	*	*	*	*	*	*	*	*	*	*	*	*	*	*	*	*	*	*	*	*	*	*	*	*	*	*	*	*	*	*	*	*	*	*	*	*	*	*	*	*custos:f	*	*	*	*
!	!	!	!	!	!	!	!	!	!	!	!	!	!	!	!	!	!	!	!	!	!	!	!	!	!	!	!	!	!	!	!	!	!	!	!	!	!	!	!	!	!LO:LB:g=original	!	!	!	!
=71	=71	=71	=71	=71	=71	=71	=71	=71	=71	=71	=71	=71	=71	=71	=71	=71	=71	=71	=71	=71	=71	=71	=71	=71	=71	=71	=71	=71	=71	=71	=71	=71	=71	=71	=71	=71	=71	=71	=71	=71	=71	=71	=71	=71	=71
2FF/	.	.	2FF/	.	.	2FF/	.	2A/	2f\	4.cc\	4aa\	2FF/	-e	.	2A/	-e	.	4f\	-e	.	2.cc\	-e	.	2F\	-e	.	2A/	-e	.	2f\	-e	.	2cc\	-e	.	2FF/	.	4F/	.	2A/	2f\	4.cc\	4aa\	2FF/	.
.	.	.	.	.	.	.	.	.	.	.	4ff\	.	.	.	.	.	.	4c/	e-	.	.	.	.	.	.	.	.	.	.	.	.	.	.	.	.	.	.	4C/	.	.	.	.	4ff\	.	.
.	.	.	.	.	.	.	.	.	.	8dd\	.	.	.	.	.	.	.	.	.	.	.	.	.	.	.	.	.	.	.	.	.	.	.	.	.	.	.	.	.	.	.	8dd\	.	.	.
!	!	!	!	!	!	!	!	!	!	!	!	!	!	!	!	!	!	!	!	!	!	!	!	!	!	!	!	!	!	!	!	!	!	!	!	!	!LO:DY:a	!	!	!	!	!	!	!	!.
2EE/	.	.	2EE/	6	.	2EE/	.	2G/	2c/	2ee\	2gg\	2EE/	-e-	.	2G/	-e-	.	1.c/	-lei-	.	.	.	.	2E\	e-	.	1c\	e-	.	2g\	e-	.	2ee\	e-	.	2EE/	f	2E/	.	2G/	2c/	2ee\	2gg\	2EE/	.
.	.	.	.	.	.	.	.	.	.	.	.	.	.	.	.	.	.	.	.	.	4g/	e-	.	.	.	.	.	.	.	.	.	.	.	.	.	.	.	.	.	.	.	.	.	.	.
!	!	!	!	!	!	!	!	!	!	!	!	!	!	!	!	!	!	!	!	!	!	!	!	!	!	!	!	!	!	!	!	!	!	!	!	!LO:LB:g=original	!	!	!	!	!	!	!	!	!
=72	=72	=72	=72	=72	=72	=72	=72	=72	=72	=72	=72	=72	=72	=72	=72	=72	=72	=72	=72	=72	=72	=72	=72	=72	=72	=72	=72	=72	=72	=72	=72	=72	=72	=72	=72	=72	=72	=72	=72	=72	=72	=72	=72	=72	=72
1GG	4:3	.	1GG	4:3	.	1GG	.	1G	1d	2dd\	1gg	1GG	-lei-	.	1G	-lei-	.	.	.	.	4.g/	-lei-	.	1G	lei-	.	.	.	.	1g	-lei-	.	1dd	-lei-	.	1GG	.	2.D/	.	1G	1d	2dd\	1gg	1GG	.
.	.	.	.	.	.	.	.	.	.	.	.	.	.	.	.	.	.	.	.	.	(>8a\	.	.	.	.	.	.	.	.	.	.	.	.	.	.	.	.	.	.	.	.	.	.	.	.
*	*	*	*	*	*	*	*	*	*	*custos:gg	*	*	*	*	*	*	*	*	*	*	*	*	*	*	*	*	*	*	*	*	*	*	*	*	*	*	*	*	*	*	*	*	*	*	*
!	!	!	!	!	!	!	!	!	!	!LO:LB:g=original	!	!	!	!	!	!	!	!	!	!	!	!	!	!	!	!	!	!	!	!	!	!	!	!	!	!	!	!	!	!	!	!	!	!	!
.	.	.	.	.	.	.	.	.	.	2.gg\	.	.	.	.	.	.	.	.	.	.	2b\)	.	.	.	.	.	2B\	-lei-	.	.	.	.	.	.	.	.	.	.	.	.	.	2.gg\	.	.	.
.	.	.	.	.	.	.	.	.	.	.	.	.	.	.	.	.	.	.	.	.	.	.	.	.	.	.	.	.	.	.	.	.	.	.	.	.	.	4G\	.	.	.	.	.	.	.
=73	=73	=73	=73	=73	=73	=73	=73	=73	=73	=73	=73	=73	=73	=73	=73	=73	=73	=73	=73	=73	=73	=73	=73	=73	=73	=73	=73	=73	=73	=73	=73	=73	=73	=73	=73	=73	=73	=73	=73	=73	=73	=73	=73	=73	=73
0C	.	.	0C;	.	.	0C;;	.	0G;;	0e;;	.	0gg	0C	-ſon.	.	0G	-ſon.	.	0e	ſon.	.	0f	ſon.	.	0C	-ſon.	.	0c	ſon.	.	0e	ſon.	.	0cc	ſon.	.	0C	.	0E	.	0G	0e	.	0ee;;	0C;;	.
.	.	.	.	.	.	.	.	.	.	4ee\	.	.	.	.	.	.	.	.	.	.	.	.	.	.	.	.	.	.	.	.	.	.	.	.	.	.	.	.	.	.	.	4ee\	.	.	.
.	.	.	.	.	.	.	.	.	.	2ee\	.	.	.	.	.	.	.	.	.	.	.	.	.	.	.	.	.	.	.	.	.	.	.	.	.	.	.	.	.	.	.	2ee\	.	.	.
=74	=74	=74	=74	=74	=74	=74-	=74	=74	=74	=74	=74	=74	=74	=74	=74	=74	=74	=74	=74	=74	=74	=74	=74	=74	=74	=74	=74	=74	=74	=74	=74	=74	=74	=74	=74	=74	=74	=74	=74	=74	=74	=74	=74	=74-	=74
*	*	*	*	*	*	*custos:C	*	*	*	*	*	*	*	*	*	*	*	*	*	*	*	*	*	*	*	*	*	*	*	*	*	*	*	*	*	*	*	*	*	*	*	*	*	*custos:C	*
!	!	!	!	!	!	!	!	!	!	!LO:N:vis=0	!	!	!	!	!	!	!	!	!	!	!	!	!	!	!	!	!	!	!	!	!	!	!	!	!	!	!	!	!	!	!	!	!	!	!
.	.	.	.	.	.	.	.	.	.	1ee	.	.	.	.	.	.	.	.	.	.	.	.	.	.	.	.	.	.	.	.	.	.	.	.	.	.	.	.	.	.	.	1ee;	.	.	.
==	==	==	==	==	==	==	==	==	==	==	==	==	==	==	==	==	==	==	==	==	==	==	==	==	==	==	==	==	==	==	==	==	==	==	==	==	==	==	==	==	==	==	==	==	==
*-	*-	*-	*-	*-	*-	*-	*-	*-	*-	*-	*-	*-	*-	*-	*-	*-	*-	*-	*-	*-	*-	*-	*-	*-	*-	*-	*-	*-	*-	*-	*-	*-	*-	*-	*-	*-	*-	*-	*-	*-	*-	*-	*-	*-	*-
!!!system-decoration: [(s1)][(s2,s3)][(s4,s5,s6,s7)][(s8,s9,s10,s11)][(s12,s13,s14,s15)][(s16,s17,s18,s19,s20)][(s21,s22)]
!!!RDF**kern: | = vertical stroke
!!!RDF**kern: > = above
!!!RDF**kern: < = below
!!!ENC: Marta Opryszak
!!!END: 2022-06-03
!!!ENC: Natalia Wrzos
!!!END: 2022-08-18
!!!YEC: Copyright 2022 Narodowy Instytut Fryderyka Chopina (https://polishscores.org)
!!!YEM: License CC-BY-4.0 (https://creativecommons.org/licenses/by/4.0)
